; generated by Slic3r Prusa Edition 1.42.0-beta2+ on 2019-04-26 at 00:31:33

; 

; external perimeters extrusion width = 0.45mm
; perimeters extrusion width = 0.45mm
; infill extrusion width = 0.45mm
; solid infill extrusion width = 0.45mm
; top infill extrusion width = 0.40mm
; first layer extrusion width = 0.42mm

M73 P0 R24
M73 Q0 S24
M201 X1000 Y1000 Z1000 E5000 ; sets maximum accelerations, mm/sec^2
M203 X200 Y200 Z12 E120 ; sets maximum feedrates, mm/sec
M204 P1250 R1250 T1250 ; sets acceleration (P, T) and retract acceleration (R), mm/sec^2
M205 X8.00 Y8.00 Z0.40 E1.50 ; sets the jerk limits, mm/sec
M205 S0 T0 ; sets the minimum extruding and travel feed rate, mm/sec
M107
M115 U3.6.0 ; tell printer latest fw version
M83  ; extruder relative mode
M104 S215 ; set extruder temp
M140 S60 ; set bed temp
M190 S60 ; wait for bed temp
M109 S215 ; wait for extruder temp
G28 W ; home all without mesh bed level
G80 ; mesh bed leveling
G1 Y-3.0 F1000.0 ; go outside print area
G92 E0.0
G1 X60.0 E9.0  F1000.0 ; intro line
M73 Q0 S24
M73 P0 R24
G1 X100.0 E12.5  F1000.0 ; intro line
G92 E0.0
M221 S95
M900 K30 ; Filament gcode
G21 ; set units to millimeters
G90 ; use absolute coordinates
M83 ; use relative distances for extrusion
;BEFORE_LAYER_CHANGE
G92 E0.0
;0.2


G1 E-0.80000 F2100.00000
G1 Z0.600 F10800.000
;AFTER_LAYER_CHANGE
;0.2
G1 X119.251 Y96.833
G1 Z0.200
G1 E0.80000 F2100.00000
M204 S1000
G1 F1200
G1 X120.137 Y96.639 E0.02844
G1 X159.994 Y96.647 E1.24970
G1 X160.524 Y96.741 E0.01686
G1 X160.996 Y96.945 E0.01612
G1 X161.413 Y97.258 E0.01635
G1 X161.742 Y97.657 E0.01623
G1 X161.991 Y98.193 E0.01851
G1 X162.087 Y98.771 E0.01839
G1 X162.188 Y102.432 E0.11484
G1 X162.187 Y112.439 E0.31374
G1 X162.103 Y112.964 E0.01669
G1 X161.893 Y113.457 E0.01680
G1 X161.582 Y113.871 E0.01623
G1 X161.141 Y114.242 E0.01804
G1 X160.582 Y114.498 E0.01930
G1 X159.976 Y114.588 E0.01919
G1 X114.997 Y114.588 E1.41028
G1 X114.386 Y114.488 E0.01942
G1 X113.828 Y114.221 E0.01942
G1 X113.337 Y113.781 E0.02066
G1 X113.005 Y113.258 E0.01942
G1 X112.811 Y112.369 E0.02855
G1 X112.812 Y102.371 E0.31347
G1 X112.954 Y101.624 E0.02383
G1 X113.246 Y101.091 E0.01908
G1 X113.674 Y100.659 E0.01908
G1 X119.201 Y96.867 E0.21016
G1 F8640
G1 X120.137 Y96.639 E-0.22235
G1 X122.465 Y96.639 E-0.53765
G1 E-0.04000 F2100.00000
G1 Z0.800 F10800.000
G1 X120.686 Y99.987
G1 Z0.200
G1 E0.80000 F2100.00000
G1 F1200
G1 X124.316 Y99.987 E0.11379
G1 X124.312 Y102.987 E0.09406
G1 X129.956 Y102.987 E0.17698
G1 X130.687 Y102.972 E0.02292
G1 X130.687 Y99.988 E0.09357
G1 X134.313 Y99.993 E0.11369
G1 X134.313 Y102.510 E0.07894
G1 X134.413 Y102.680 E0.00618
G1 X134.413 Y111.813 E0.28636
G1 X115.587 Y111.813 E0.59027
G1 X115.587 Y102.987 E0.27673
G1 X120.687 Y102.987 E0.15991
G1 X120.686 Y100.047 E0.09218
G1 F8640
G1 X123.977 Y99.993 E-0.76000
G1 E-0.04000 F2100.00000
G1 Z0.800 F10800.000
G1 X124.689 Y102.610
G1 Z0.200
G1 E0.80000 F2100.00000
G1 F1200
G1 X130.310 Y102.603 E0.17623
G1 X130.310 Y99.612 E0.09375
G1 X134.690 Y99.616 E0.13733
G1 X134.690 Y102.407 E0.08752
G1 X134.790 Y102.577 E0.00618
G1 X134.790 Y112.190 E0.30141
G1 X115.210 Y112.190 E0.61392
G1 X115.210 Y102.610 E0.30037
G1 X120.310 Y102.610 E0.15991
G1 X120.309 Y99.610 E0.09406
G1 X124.693 Y99.610 E0.13746
G1 X124.689 Y102.550 E0.09218
G1 X124.817 Y102.989 F10800.000
G1 X124.572 Y103.100
G1 F1200
G1 X133.002 Y111.530 E0.37763
G1 X133.540 Y111.530 E0.01706
G1 X125.280 Y103.270 E0.37003
G1 X125.819 Y103.270 E0.01706
G1 X134.079 Y111.530 E0.37003
G1 X134.130 Y111.530 E0.00161
G1 X134.130 Y111.042 E0.01545
G1 X126.358 Y103.270 E0.34818
G1 X126.896 Y103.270 E0.01706
G1 X134.130 Y110.504 E0.32404
G1 X134.130 Y109.965 E0.01706
G1 X127.435 Y103.270 E0.29991
G1 X127.974 Y103.270 E0.01706
G1 X134.130 Y109.426 E0.27578
G1 X134.130 Y108.887 E0.01706
G1 X128.513 Y103.270 E0.25164
G1 X129.051 Y103.270 E0.01706
G1 X134.130 Y108.349 E0.22751
G1 X134.130 Y107.810 E0.01706
G1 X129.590 Y103.270 E0.20338
G1 X130.125 Y103.266 E0.01696
G1 X134.130 Y107.271 E0.17940
G1 X134.130 Y106.732 E0.01706
G1 X130.653 Y103.255 E0.15576
G1 X130.970 Y103.249 E0.01004
G1 X130.970 Y103.033 E0.00682
G1 X134.130 Y106.194 E0.14157
G1 X134.130 Y105.655 E0.01706
G1 X130.970 Y102.495 E0.14157
G1 X130.970 Y101.956 E0.01706
G1 X134.130 Y105.116 E0.14157
G1 X134.130 Y104.577 E0.01706
G1 X130.970 Y101.417 E0.14157
G1 X130.970 Y100.878 E0.01706
G1 X134.130 Y104.039 E0.14157
G1 X134.130 Y103.500 E0.01706
G1 X130.970 Y100.340 E0.14157
G1 X130.970 Y100.271 E0.00218
G1 X131.440 Y100.271 E0.01490
G1 X134.130 Y102.961 E0.12049
G1 X134.130 Y102.757 E0.00647
G1 X134.030 Y102.587 E0.00624
G1 X134.030 Y102.323 E0.00839
G1 X131.980 Y100.272 E0.09185
G1 X132.519 Y100.273 E0.01709
G1 X134.030 Y101.784 E0.06768
G1 X134.030 Y101.245 E0.01706
G1 X133.059 Y100.274 E0.04351
G1 X133.598 Y100.274 E0.01709
G1 X134.200 Y100.876 E0.02695
G1 F8640
G1 X133.598 Y100.274 E-0.19646
G1 X133.059 Y100.274 E-0.12456
G1 X134.030 Y101.245 E-0.31721
G1 X134.030 Y101.772 E-0.12177
G1 E-0.04000 F2100.00000
G1 Z0.800 F10800.000
G1 X124.202 Y100.575
G1 Z0.200
G1 E0.80000 F2100.00000
G1 F1200
G1 X123.896 Y100.270 E0.01368
G1 X123.358 Y100.270 E0.01706
G1 X124.032 Y100.944 E0.03019
G1 X124.031 Y101.482 E0.01704
G1 X122.819 Y100.270 E0.05429
G1 X122.280 Y100.270 E0.01706
G1 X124.030 Y102.020 E0.07839
G1 X124.030 Y102.558 E0.01704
G1 X121.741 Y100.270 E0.10250
G1 X121.203 Y100.270 E0.01706
G1 X132.463 Y111.530 E0.50442
G1 X131.924 Y111.530 E0.01706
G1 X120.969 Y100.575 E0.49074
G1 X120.970 Y101.114 E0.01707
G1 X131.386 Y111.530 E0.46660
G1 X130.847 Y111.530 E0.01706
G1 X120.970 Y101.653 E0.44246
G1 X120.970 Y102.192 E0.01707
G1 X130.308 Y111.530 E0.41832
G1 X129.769 Y111.530 E0.01706
G1 X120.970 Y102.731 E0.39418
G1 X120.970 Y103.270 E0.01707
G1 X129.231 Y111.530 E0.37004
G1 X128.692 Y111.530 E0.01706
G1 X120.432 Y103.270 E0.37003
G1 X119.893 Y103.270 E0.01706
G1 X128.153 Y111.530 E0.37003
G1 X127.614 Y111.530 E0.01706
G1 X119.354 Y103.270 E0.37003
G1 X118.815 Y103.270 E0.01706
G1 X127.076 Y111.530 E0.37003
G1 X126.537 Y111.530 E0.01706
G1 X118.277 Y103.270 E0.37003
G1 X117.738 Y103.270 E0.01706
G1 X125.998 Y111.530 E0.37003
G1 X125.459 Y111.530 E0.01706
G1 X117.199 Y103.270 E0.37003
G1 X116.660 Y103.270 E0.01706
G1 X124.921 Y111.530 E0.37003
G1 X124.382 Y111.530 E0.01706
G1 X116.122 Y103.270 E0.37003
G1 X115.870 Y103.270 E0.00798
G1 X115.870 Y103.557 E0.00909
G1 X123.843 Y111.530 E0.35718
G1 X123.304 Y111.530 E0.01706
G1 X115.870 Y104.096 E0.33304
G1 X115.870 Y104.634 E0.01706
G1 X122.766 Y111.530 E0.30891
G1 X122.227 Y111.530 E0.01706
G1 X115.870 Y105.173 E0.28478
G1 X115.870 Y105.712 E0.01706
G1 X121.688 Y111.530 E0.26064
G1 X121.150 Y111.530 E0.01706
G1 X115.870 Y106.250 E0.23651
G1 X115.870 Y106.789 E0.01706
G1 X120.611 Y111.530 E0.21237
G1 X120.072 Y111.530 E0.01706
G1 X115.870 Y107.328 E0.18824
G1 X115.870 Y107.867 E0.01706
G1 X119.533 Y111.530 E0.16411
G1 X118.995 Y111.530 E0.01706
G1 X115.870 Y108.405 E0.13997
G1 X115.870 Y108.944 E0.01706
G1 X118.456 Y111.530 E0.11584
G1 X117.917 Y111.530 E0.01706
G1 X115.870 Y109.483 E0.09171
G1 X115.870 Y110.022 E0.01706
G1 X117.378 Y111.530 E0.06757
G1 X116.840 Y111.530 E0.01706
G1 X115.870 Y110.560 E0.04344
G1 X115.870 Y111.099 E0.01706
G1 X116.471 Y111.700 E0.02691
G1 F8640
G1 X115.870 Y111.099 E-0.19615
G1 X115.870 Y110.560 E-0.12440
G1 X116.840 Y111.530 E-0.31667
G1 X117.371 Y111.530 E-0.12278
G1 E-0.04000 F2100.00000
G1 Z0.800 F10800.000
G1 X140.587 Y111.700
G1 Z0.200
G1 E0.80000 F2100.00000
G1 F1200
G1 X140.587 Y102.987 E0.27318
G1 X145.687 Y102.987 E0.15991
G1 X145.686 Y99.987 E0.09406
G1 X149.316 Y99.987 E0.11379
G1 X149.312 Y102.987 E0.09406
G1 X154.956 Y102.987 E0.17698
G1 X155.687 Y102.972 E0.02292
G1 X155.687 Y99.988 E0.09357
G1 X159.313 Y99.993 E0.11369
G1 X159.313 Y102.510 E0.07894
G1 X159.413 Y102.680 E0.00618
G1 X159.413 Y111.813 E0.28636
G1 X140.587 Y111.813 E0.59027
G1 X140.587 Y111.760 E0.00166
G1 F8640
G1 X140.587 Y108.468 E-0.76000
G1 E-0.04000 F2100.00000
G1 Z0.800 F10800.000
G1 X149.689 Y102.610
G1 Z0.200
G1 E0.80000 F2100.00000
G1 F1200
G1 X155.310 Y102.603 E0.17623
G1 X155.310 Y99.612 E0.09375
G1 X159.690 Y99.616 E0.13733
G1 X159.690 Y102.407 E0.08752
G1 X159.790 Y102.577 E0.00618
G1 X159.790 Y112.190 E0.30141
G1 X140.210 Y112.190 E0.61392
G1 X140.210 Y102.610 E0.30037
G1 X145.310 Y102.610 E0.15991
G1 X145.309 Y99.610 E0.09406
G1 X149.693 Y99.610 E0.13746
G1 X149.689 Y102.550 E0.09218
G1 X149.817 Y102.989 F10800.000
G1 X149.572 Y103.100
G1 F1200
G1 X158.002 Y111.530 E0.37763
G1 X158.540 Y111.530 E0.01706
G1 X150.280 Y103.270 E0.37003
G1 X150.819 Y103.270 E0.01706
G1 X159.079 Y111.530 E0.37003
G1 X159.130 Y111.530 E0.00161
G1 X159.130 Y111.042 E0.01545
G1 X151.358 Y103.270 E0.34818
G1 X151.896 Y103.270 E0.01706
G1 X159.130 Y110.504 E0.32404
G1 X159.130 Y109.965 E0.01706
G1 X152.435 Y103.270 E0.29991
G1 X152.974 Y103.270 E0.01706
G1 X159.130 Y109.426 E0.27578
G1 X159.130 Y108.887 E0.01706
G1 X153.513 Y103.270 E0.25164
G1 X154.051 Y103.270 E0.01706
G1 X159.130 Y108.349 E0.22751
G1 X159.130 Y107.810 E0.01706
G1 X154.590 Y103.270 E0.20338
G1 X155.125 Y103.266 E0.01696
G1 X159.130 Y107.271 E0.17940
G1 X159.130 Y106.732 E0.01706
G1 X155.653 Y103.255 E0.15576
G1 X155.970 Y103.249 E0.01004
G1 X155.970 Y103.033 E0.00682
G1 X159.130 Y106.194 E0.14157
G1 X159.130 Y105.655 E0.01706
G1 X155.970 Y102.495 E0.14157
G1 X155.970 Y101.956 E0.01706
G1 X159.130 Y105.116 E0.14157
G1 X159.130 Y104.577 E0.01706
G1 X155.970 Y101.417 E0.14157
G1 X155.970 Y100.878 E0.01706
G1 X159.130 Y104.039 E0.14157
G1 X159.130 Y103.500 E0.01706
G1 X155.970 Y100.340 E0.14157
G1 X155.970 Y100.271 E0.00218
G1 X156.440 Y100.271 E0.01490
G1 X159.130 Y102.961 E0.12049
G1 X159.130 Y102.757 E0.00647
G1 X159.030 Y102.587 E0.00624
G1 X159.030 Y102.323 E0.00839
G1 X156.980 Y100.272 E0.09185
G1 X157.519 Y100.273 E0.01709
G1 X159.030 Y101.784 E0.06768
G1 X159.030 Y101.245 E0.01706
G1 X158.059 Y100.274 E0.04351
G1 X158.598 Y100.274 E0.01709
G1 X159.200 Y100.876 E0.02695
G1 F8640
G1 X158.598 Y100.274 E-0.19646
G1 X158.059 Y100.274 E-0.12456
G1 X159.030 Y101.245 E-0.31721
G1 X159.030 Y101.772 E-0.12177
G1 E-0.04000 F2100.00000
G1 Z0.800 F10800.000
G1 X149.202 Y100.575
G1 Z0.200
G1 E0.80000 F2100.00000
G1 F1200
G1 X148.896 Y100.270 E0.01368
G1 X148.358 Y100.270 E0.01706
M73 Q4 S23
G1 X149.032 Y100.944 E0.03019
G1 X149.031 Y101.482 E0.01704
G1 X147.819 Y100.270 E0.05429
G1 X147.280 Y100.270 E0.01706
G1 X149.030 Y102.020 E0.07839
G1 X149.030 Y102.558 E0.01704
G1 X146.741 Y100.270 E0.10250
M73 P4 R23
G1 X146.203 Y100.270 E0.01706
G1 X157.463 Y111.530 E0.50442
G1 X156.924 Y111.530 E0.01706
G1 X145.969 Y100.575 E0.49074
G1 X145.970 Y101.114 E0.01707
G1 X156.386 Y111.530 E0.46660
G1 X155.847 Y111.530 E0.01706
G1 X145.970 Y101.653 E0.44246
G1 X145.970 Y102.192 E0.01707
G1 X155.308 Y111.530 E0.41832
G1 X154.769 Y111.530 E0.01706
G1 X145.970 Y102.731 E0.39418
G1 X145.970 Y103.270 E0.01707
G1 X154.231 Y111.530 E0.37004
G1 X153.692 Y111.530 E0.01706
G1 X145.432 Y103.270 E0.37003
G1 X144.893 Y103.270 E0.01706
G1 X153.153 Y111.530 E0.37003
G1 X152.614 Y111.530 E0.01706
G1 X144.354 Y103.270 E0.37003
G1 X143.815 Y103.270 E0.01706
G1 X152.076 Y111.530 E0.37003
G1 X151.537 Y111.530 E0.01706
G1 X143.277 Y103.270 E0.37003
G1 X142.738 Y103.270 E0.01706
G1 X150.998 Y111.530 E0.37003
G1 X150.459 Y111.530 E0.01706
G1 X142.199 Y103.270 E0.37003
G1 X141.660 Y103.270 E0.01706
G1 X149.921 Y111.530 E0.37003
G1 X149.382 Y111.530 E0.01706
G1 X141.122 Y103.270 E0.37003
G1 X140.870 Y103.270 E0.00798
G1 X140.870 Y103.557 E0.00909
G1 X148.843 Y111.530 E0.35718
G1 X148.304 Y111.530 E0.01706
G1 X140.870 Y104.096 E0.33304
G1 X140.870 Y104.634 E0.01706
G1 X147.766 Y111.530 E0.30891
G1 X147.227 Y111.530 E0.01706
G1 X140.870 Y105.173 E0.28478
G1 X140.870 Y105.712 E0.01706
G1 X146.688 Y111.530 E0.26064
G1 X146.150 Y111.530 E0.01706
G1 X140.870 Y106.250 E0.23651
G1 X140.870 Y106.789 E0.01706
G1 X145.611 Y111.530 E0.21237
G1 X145.072 Y111.530 E0.01706
G1 X140.870 Y107.328 E0.18824
G1 X140.870 Y107.867 E0.01706
G1 X144.533 Y111.530 E0.16411
G1 X143.995 Y111.530 E0.01706
G1 X140.870 Y108.405 E0.13997
G1 X140.870 Y108.944 E0.01706
G1 X143.456 Y111.530 E0.11584
G1 X142.917 Y111.530 E0.01706
G1 X140.870 Y109.483 E0.09171
G1 X140.870 Y110.022 E0.01706
G1 X142.378 Y111.530 E0.06757
G1 X141.840 Y111.530 E0.01706
G1 X140.870 Y110.560 E0.04344
G1 X140.870 Y111.099 E0.01706
G1 X141.471 Y111.700 E0.02691
M106 S255
;BEFORE_LAYER_CHANGE
G92 E0.0
;0.3


G1 F8640
G1 X140.870 Y111.099 E-0.19615
G1 X140.870 Y110.560 E-0.12440
G1 X141.840 Y111.530 E-0.31667
G1 X142.371 Y111.530 E-0.12278
G1 E-0.04000 F2100.00000
G1 Z0.800 F10800.000
;AFTER_LAYER_CHANGE
;0.3
M104 S210 ; set temperature
G1 X119.251 Y96.833
G1 Z0.300
G1 E0.80000 F2100.00000
G1 F3000
G1 X120.137 Y96.639 E0.01503
G1 X159.994 Y96.647 E0.66041
G1 X160.524 Y96.741 E0.00891
G1 X160.996 Y96.945 E0.00852
G1 X161.413 Y97.258 E0.00864
G1 X161.742 Y97.657 E0.00858
G1 X161.991 Y98.193 E0.00978
G1 X162.087 Y98.771 E0.00972
G1 X162.188 Y102.432 E0.06069
G1 X162.187 Y112.439 E0.16580
G1 X162.103 Y112.964 E0.00882
G1 X161.893 Y113.457 E0.00888
G1 X161.582 Y113.871 E0.00858
G1 X161.141 Y114.242 E0.00953
G1 X160.582 Y114.498 E0.01020
G1 X159.976 Y114.588 E0.01014
G1 X114.997 Y114.588 E0.74527
G1 X114.386 Y114.488 E0.01026
G1 X113.828 Y114.221 E0.01026
G1 X113.337 Y113.781 E0.01092
G1 X113.005 Y113.258 E0.01026
G1 X112.811 Y112.369 E0.01509
G1 X112.812 Y102.371 E0.16566
G1 X112.954 Y101.624 E0.01259
G1 X113.246 Y101.091 E0.01008
G1 X113.674 Y100.659 E0.01008
G1 X119.201 Y96.867 E0.11106
G1 F8640
G1 X120.137 Y96.639 E-0.22235
G1 X122.465 Y96.639 E-0.53765
G1 E-0.04000 F2100.00000
G1 Z0.900 F10800.000
G1 X120.753 Y99.664
G1 Z0.300
G1 E0.80000 F2100.00000
M204 S800
G1 F2700
G1 X124.241 Y99.664 E0.06216
G1 X124.249 Y103.054 E0.06040
G1 X130.754 Y103.050 E0.11589
G1 X130.754 Y99.664 E0.06033
G1 X134.246 Y99.666 E0.06223
G1 X134.246 Y102.528 E0.05100
G1 X134.346 Y102.698 E0.00351
G1 X134.346 Y111.746 E0.16121
G1 X115.654 Y111.746 E0.33304
G1 X115.654 Y103.054 E0.15488
G1 X120.754 Y103.054 E0.09087
G1 X120.753 Y99.724 E0.05932
M204 S1000
G1 F8640
G1 X124.044 Y99.667 E-0.76000
G1 E-0.04000 F2100.00000
G1 Z0.900 F10800.000
G1 X124.676 Y102.625
G1 Z0.300
G1 E0.80000 F2100.00000
M204 S800
G1 F1500
G1 X130.325 Y102.622 E0.10065
G1 X130.325 Y99.235 E0.06033
G1 X134.675 Y99.237 E0.07750
G1 X134.675 Y102.411 E0.05655
G1 X134.775 Y102.581 E0.00351
G1 X134.775 Y112.175 E0.17093
G1 X115.225 Y112.175 E0.34831
G1 X115.225 Y102.625 E0.17015
G1 X120.325 Y102.625 E0.09087
G1 X120.324 Y99.235 E0.06039
G1 X124.676 Y99.235 E0.07754
G1 X124.675 Y102.565 E0.05933
M204 S1000
G1 X124.795 Y103.007 F10800.000
G1 F8640
G1 X127.967 Y102.598 E-0.76000
G1 E-0.04000 F2100.00000
G1 Z0.900 F10800.000
G1 X120.881 Y100.184
G1 Z0.300
G1 E0.80000 F2100.00000
M204 S1250
G1 F4800
G1 X121.080 Y99.985 E0.00507
G1 X121.693 Y99.985 E0.01103
G1 X121.074 Y100.604 E0.01576
G1 X121.075 Y101.216 E0.01103
G1 X122.306 Y99.985 E0.03136
G1 X122.918 Y99.985 E0.01103
G1 X121.075 Y101.829 E0.04696
G1 X121.075 Y102.441 E0.01103
G1 X123.531 Y99.985 E0.06256
G1 X123.915 Y99.985 E0.00692
G1 X123.914 Y100.215 E0.00413
G1 X115.975 Y108.154 E0.20223
G1 X115.975 Y108.767 E0.01103
G1 X123.917 Y100.824 E0.20230
G1 X123.920 Y101.434 E0.01098
G1 X115.975 Y109.379 E0.20238
G1 X115.975 Y109.992 E0.01103
G1 X123.923 Y102.044 E0.20245
G1 X123.926 Y102.654 E0.01098
G1 X115.975 Y110.605 E0.20252
G1 X115.975 Y111.217 E0.01103
G1 X123.929 Y103.264 E0.20260
G1 X123.929 Y103.376 E0.00202
G1 X124.430 Y103.375 E0.00901
G1 X116.380 Y111.425 E0.20504
G1 X116.993 Y111.425 E0.01103
G1 X125.043 Y103.375 E0.20505
G1 X125.656 Y103.374 E0.01104
G1 X117.605 Y111.425 E0.20506
G1 X118.218 Y111.425 E0.01103
G1 X126.269 Y103.374 E0.20507
G1 X126.882 Y103.374 E0.01104
G1 X118.831 Y111.425 E0.20508
G1 X119.443 Y111.425 E0.01103
G1 X127.495 Y103.373 E0.20509
G1 X128.108 Y103.373 E0.01104
G1 X120.056 Y111.425 E0.20510
G1 X120.669 Y111.425 E0.01103
G1 X128.721 Y103.373 E0.20511
