; generated by Slic3r Prusa Edition 1.42.0-beta2+ on 2019-04-25 at 23:47:38

; 

; external perimeters extrusion width = 0.45mm
; perimeters extrusion width = 0.45mm
; infill extrusion width = 0.45mm
; solid infill extrusion width = 0.45mm
; top infill extrusion width = 0.40mm
; first layer extrusion width = 0.42mm

M73 P0 R25
M73 Q0 S25
M201 X1000 Y1000 Z1000 E5000 ; sets maximum accelerations, mm/sec^2
M203 X200 Y200 Z12 E120 ; sets maximum feedrates, mm/sec
M204 P1250 R1250 T1250 ; sets acceleration (P, T) and retract acceleration (R), mm/sec^2
M205 X8.00 Y8.00 Z0.40 E1.50 ; sets the jerk limits, mm/sec
M205 S0 T0 ; sets the minimum extruding and travel feed rate, mm/sec
M107
M115 U3.6.0 ; tell printer latest fw version
M83  ; extruder relative mode
M104 S215 ; set extruder temp
M140 S60 ; set bed temp
M190 S60 ; wait for bed temp
M109 S215 ; wait for extruder temp
G28 W ; home all without mesh bed level
G80 ; mesh bed leveling
G1 Y-3.0 F1000.0 ; go outside print area
G92 E0.0
G1 X60.0 E9.0  F1000.0 ; intro line
M73 Q0 S25
M73 P0 R25
G1 X100.0 E12.5  F1000.0 ; intro line
G92 E0.0
M221 S95
M900 K30 ; Filament gcode
G21 ; set units to millimeters
G90 ; use absolute coordinates
M83 ; use relative distances for extrusion
;BEFORE_LAYER_CHANGE
G92 E0.0
;0.2


G1 E-0.80000 F2100.00000
G1 Z0.600 F10800.000
;AFTER_LAYER_CHANGE
;0.2
G1 X107.731 Y76.302
G1 Z0.200
G1 E0.80000 F2100.00000
M204 S1000
G1 F1200
G1 X108.182 Y75.689 E0.02386
G1 X113.390 Y70.625 E0.22775
G1 X113.877 Y70.268 E0.01894
G1 X114.434 Y70.034 E0.01894
G1 X115.125 Y69.934 E0.02189
G1 X129.904 Y69.934 E0.46339
G1 X130.847 Y70.115 E0.03010
G1 X131.660 Y70.633 E0.03022
G1 X132.223 Y71.410 E0.03010
G1 X132.461 Y72.344 E0.03022
G1 X132.566 Y77.542 E0.16301
G1 X132.566 Y107.470 E0.93838
G1 X132.489 Y108.081 E0.01931
G1 X132.269 Y108.656 E0.01931
G1 X131.886 Y109.198 E0.02079
G1 X131.345 Y109.659 E0.02230
G1 X130.738 Y109.944 E0.02103
G1 X130.081 Y110.062 E0.02091
G1 X110.006 Y110.065 E0.62945
G1 X109.407 Y109.986 E0.01894
G1 X108.843 Y109.769 E0.01894
G1 X108.296 Y109.381 E0.02103
G1 X107.831 Y108.829 E0.02261
G1 X107.548 Y108.213 E0.02128
G1 X107.436 Y107.543 E0.02128
G1 X107.434 Y77.476 E0.94273
G1 X107.512 Y76.873 E0.01906
G1 X107.710 Y76.358 E0.01730
G1 X108.060 Y76.494 F10800.000
G1 F1200
G1 X108.454 Y75.951 E0.02104
G1 X113.645 Y70.903 E0.22700
G1 X114.065 Y70.595 E0.01635
G1 X114.546 Y70.394 E0.01635
G1 X115.131 Y70.311 E0.01851
G1 X129.904 Y70.311 E0.46320
G1 X130.713 Y70.468 E0.02586
G1 X131.407 Y70.913 E0.02586
G1 X131.888 Y71.584 E0.02586
G1 X132.085 Y72.385 E0.02586
G1 X132.189 Y77.542 E0.16175
G1 X132.189 Y107.469 E0.93834
G1 X132.121 Y107.997 E0.01669
G1 X131.930 Y108.490 E0.01658
G1 X131.602 Y108.950 E0.01771
G1 X131.132 Y109.347 E0.01928
G1 X130.613 Y109.588 E0.01794
G1 X130.050 Y109.686 E0.01794
G1 X110.016 Y109.688 E0.62815
G1 X109.499 Y109.620 E0.01635
G1 X109.009 Y109.430 E0.01646
G1 X108.544 Y109.097 E0.01794
G1 X108.145 Y108.619 E0.01952
G1 X107.905 Y108.092 E0.01817
G1 X107.812 Y107.520 E0.01817
G1 X107.812 Y77.482 E0.94182
G1 X107.879 Y76.961 E0.01646
G1 X108.038 Y76.550 E0.01383
G1 F8640
G1 X108.454 Y75.951 E-0.16839
G1 X110.291 Y74.164 E-0.59161
G1 E-0.04000 F2100.00000
G1 Z0.800 F10800.000
G1 X115.688 Y93.087
G1 Z0.200
G1 E0.80000 F2100.00000
G1 F1200
G1 X119.313 Y93.088 E0.11366
G1 X119.315 Y98.087 E0.15675
G1 X125.687 Y98.084 E0.19980
G1 X125.688 Y93.088 E0.15662
G1 X129.313 Y93.089 E0.11365
G1 X129.313 Y97.610 E0.14176
G1 X129.413 Y97.780 E0.00618
G1 X129.413 Y106.913 E0.28637
G1 X110.587 Y106.913 E0.59027
G1 X110.587 Y98.088 E0.27670
G1 X115.687 Y98.087 E0.15990
G1 X115.688 Y93.147 E0.15488
G1 F8640
G1 X118.979 Y93.094 E-0.76000
G1 E-0.04000 F2100.00000
G1 Z0.800 F10800.000
G1 X119.692 Y97.710
G1 Z0.200
G1 E0.80000 F2100.00000
G1 F1200
G1 X125.310 Y97.707 E0.17616
G1 X125.311 Y92.711 E0.15663
G1 X129.690 Y92.712 E0.13729
G1 X129.690 Y97.507 E0.15035
G1 X129.790 Y97.677 E0.00618
G1 X129.790 Y107.290 E0.30141
G1 X110.210 Y107.290 E0.61392
G1 X110.210 Y97.711 E0.30034
G1 X115.310 Y97.710 E0.15991
G1 X115.311 Y92.710 E0.15677
G1 X119.690 Y92.711 E0.13730
G1 X119.692 Y97.650 E0.15485
G1 X119.787 Y98.099 F10800.000
G1 X119.490 Y98.200
G1 F1200
G1 X127.920 Y106.630 E0.37585
G1 X128.456 Y106.630 E0.01691
G1 X120.195 Y98.370 E0.36831
G1 X120.731 Y98.369 E0.01690
G1 X128.992 Y106.630 E0.36832
G1 X129.130 Y106.630 E0.00435
G1 X129.130 Y106.232 E0.01256
G1 X121.267 Y98.369 E0.35058
G1 X121.803 Y98.369 E0.01690
G1 X129.130 Y105.696 E0.32668
G1 X129.130 Y105.159 E0.01691
G1 X122.339 Y98.368 E0.30279
G1 X122.875 Y98.368 E0.01690
G1 X129.130 Y104.623 E0.27890
G1 X129.130 Y104.087 E0.01691
G1 X123.411 Y98.368 E0.25500
G1 X123.947 Y98.367 E0.01690
G1 X129.130 Y103.551 E0.23111
G1 X129.130 Y103.015 E0.01691
G1 X124.483 Y98.367 E0.20721
G1 X125.019 Y98.367 E0.01690
G1 X129.130 Y102.478 E0.18332
G1 X129.130 Y101.942 E0.01691
G1 X125.554 Y98.366 E0.15943
G1 X125.970 Y98.366 E0.01309
G1 X125.970 Y98.246 E0.00381
G1 X129.130 Y101.406 E0.14091
G1 X129.130 Y100.870 E0.01691
G1 X125.970 Y97.709 E0.14091
G1 X125.970 Y97.173 E0.01690
G1 X129.130 Y100.334 E0.14090
G1 X129.130 Y99.797 E0.01691
G1 X125.970 Y96.637 E0.14090
G1 X125.970 Y96.101 E0.01690
G1 X129.130 Y99.261 E0.14089
G1 X129.130 Y98.725 E0.01691
G1 X125.970 Y95.565 E0.14088
G1 X125.970 Y95.029 E0.01690
G1 X129.130 Y98.189 E0.14088
G1 X129.130 Y97.857 E0.01046
G1 X129.030 Y97.687 E0.00621
G1 X129.030 Y97.552 E0.00424
G1 X125.971 Y94.493 E0.13641
G1 X125.971 Y93.957 E0.01690
G1 X129.030 Y97.016 E0.13641
G1 X129.030 Y96.480 E0.01691
G1 X125.971 Y93.421 E0.13640
G1 X125.971 Y93.371 E0.00156
G1 X126.458 Y93.371 E0.01534
G1 X129.030 Y95.944 E0.11470
G1 X129.030 Y95.408 E0.01691
G1 X126.994 Y93.371 E0.09079
G1 X127.530 Y93.371 E0.01691
G1 X129.030 Y94.871 E0.06688
G1 X129.030 Y94.335 E0.01691
G1 X128.066 Y93.371 E0.04297
G1 X128.603 Y93.372 E0.01691
G1 X129.200 Y93.969 E0.02662
G1 F8640
G1 X128.603 Y93.372 E-0.19497
G1 X128.066 Y93.371 E-0.12383
G1 X129.030 Y94.335 E-0.31468
G1 X129.030 Y94.871 E-0.12381
G1 X129.022 Y94.863 E-0.00270
G1 E-0.04000 F2100.00000
G1 Z0.800 F10800.000
G1 X119.200 Y93.621
G1 Z0.200
G1 E0.80000 F2100.00000
G1 F1200
G1 X118.950 Y93.371 E0.01114
G1 X118.414 Y93.371 E0.01691
G1 X119.031 Y93.987 E0.02750
G1 X119.031 Y94.524 E0.01691
G1 X117.877 Y93.371 E0.05142
G1 X117.341 Y93.370 E0.01691
G1 X119.031 Y95.060 E0.07534
G1 X119.031 Y95.597 E0.01691
G1 X116.805 Y93.370 E0.09926
G1 X116.268 Y93.370 E0.01691
G1 X119.031 Y96.133 E0.12318
G1 X119.031 Y96.669 E0.01691
G1 X115.971 Y93.609 E0.13647
G1 X115.971 Y94.145 E0.01690
G1 X119.032 Y97.206 E0.13648
G1 X119.032 Y97.742 E0.01691
G1 X115.970 Y94.681 E0.13649
G1 X115.970 Y95.217 E0.01690
G1 X127.384 Y106.630 E0.50887
G1 X126.847 Y106.630 E0.01691
G1 X115.970 Y95.753 E0.48497
G1 X115.970 Y96.289 E0.01690
G1 X126.311 Y106.630 E0.46107
G1 X125.775 Y106.630 E0.01691
G1 X115.970 Y96.825 E0.43716
G1 X115.970 Y97.361 E0.01690
G1 X125.239 Y106.630 E0.41326
G1 X124.702 Y106.630 E0.01691
G1 X115.970 Y97.897 E0.38936
G1 X115.970 Y98.370 E0.01489
G1 X115.906 Y98.370 E0.00201
G1 X124.166 Y106.630 E0.36830
G1 X123.630 Y106.630 E0.01691
G1 X115.370 Y98.370 E0.36830
G1 X114.834 Y98.370 E0.01690
G1 X123.094 Y106.630 E0.36829
G1 X122.558 Y106.630 E0.01691
G1 X114.298 Y98.370 E0.36829
G1 X113.761 Y98.370 E0.01690
G1 X122.021 Y106.630 E0.36828
G1 X121.485 Y106.630 E0.01691
G1 X113.225 Y98.370 E0.36828
G1 X112.689 Y98.370 E0.01690
G1 X120.949 Y106.630 E0.36827
G1 X120.413 Y106.630 E0.01691
G1 X112.153 Y98.371 E0.36827
G1 X111.617 Y98.371 E0.01690
G1 X119.877 Y106.630 E0.36826
G1 X119.340 Y106.630 E0.01691
G1 X111.081 Y98.371 E0.36826
G1 X110.870 Y98.371 E0.00665
G1 X110.870 Y98.696 E0.01025
G1 X118.804 Y106.630 E0.35376
G1 X118.268 Y106.630 E0.01691
G1 X110.870 Y99.232 E0.32985
G1 X110.870 Y99.768 E0.01691
G1 X117.732 Y106.630 E0.30594
G1 X117.195 Y106.630 E0.01691
G1 X110.870 Y100.305 E0.28204
G1 X110.870 Y100.841 E0.01691
G1 X116.659 Y106.630 E0.25813
G1 X116.123 Y106.630 E0.01691
G1 X110.870 Y101.377 E0.23422
G1 X110.870 Y101.913 E0.01691
G1 X115.587 Y106.630 E0.21031
G1 X115.051 Y106.630 E0.01691
G1 X110.870 Y102.449 E0.18640
G1 X110.870 Y102.986 E0.01691
G1 X114.514 Y106.630 E0.16250
G1 X113.978 Y106.630 E0.01691
G1 X110.870 Y103.522 E0.13859
G1 X110.870 Y104.058 E0.01691
G1 X113.442 Y106.630 E0.11468
G1 X112.906 Y106.630 E0.01691
G1 X110.870 Y104.594 E0.09077
G1 X110.870 Y105.130 E0.01691
G1 X112.370 Y106.630 E0.06686
G1 X111.833 Y106.630 E0.01691
G1 X110.870 Y105.667 E0.04296
G1 X110.870 Y106.203 E0.01691
G1 X111.467 Y106.800 E0.02661
G1 F8640
G1 X110.870 Y106.203 E-0.19492
G1 X110.870 Y105.667 E-0.12381
G1 X111.833 Y106.630 E-0.31461
G1 X112.370 Y106.630 E-0.12381
G1 X112.361 Y106.621 E-0.00285
G1 E-0.04000 F2100.00000
G1 Z0.800 F10800.000
G1 X119.315 Y78.087
G1 Z0.200
G1 E0.80000 F2100.00000
G1 F1200
G1 X125.687 Y78.084 E0.19980
G1 X125.688 Y73.088 E0.15662
G1 X129.313 Y73.089 E0.11365
G1 X129.313 Y77.610 E0.14176
G1 X129.413 Y77.780 E0.00618
G1 X129.413 Y86.913 E0.28637
G1 X110.587 Y86.913 E0.59027
G1 X110.587 Y78.088 E0.27670
G1 X115.687 Y78.087 E0.15990
G1 X115.688 Y73.087 E0.15676
G1 X119.313 Y73.088 E0.11366
G1 X119.315 Y78.027 E0.15486
G1 X119.692 Y77.710 F10800.000
G1 F1200
G1 X125.310 Y77.707 E0.17616
G1 X125.311 Y72.711 E0.15663
G1 X129.690 Y72.712 E0.13729
G1 X129.690 Y77.507 E0.15035
G1 X129.790 Y77.677 E0.00618
G1 X129.790 Y87.290 E0.30141
G1 X110.210 Y87.290 E0.61392
G1 X110.210 Y77.711 E0.30034
G1 X115.310 Y77.710 E0.15991
G1 X115.311 Y72.710 E0.15677
G1 X119.690 Y72.711 E0.13730
G1 X119.692 Y77.650 E0.15485
M73 Q4 S24
G1 X119.787 Y78.099 F10800.000
G1 X119.490 Y78.200
G1 F1200
G1 X127.920 Y86.630 E0.37585
M73 P4 R24
G1 X128.456 Y86.630 E0.01691
G1 X120.195 Y78.370 E0.36831
G1 X120.731 Y78.369 E0.01690
G1 X128.992 Y86.630 E0.36832
G1 X129.130 Y86.630 E0.00435
G1 X129.130 Y86.232 E0.01256
G1 X121.267 Y78.369 E0.35058
G1 X121.803 Y78.369 E0.01690
G1 X129.130 Y85.696 E0.32668
G1 X129.130 Y85.159 E0.01691
G1 X122.339 Y78.368 E0.30279
G1 X122.875 Y78.368 E0.01690
G1 X129.130 Y84.623 E0.27890
G1 X129.130 Y84.087 E0.01691
G1 X123.411 Y78.368 E0.25500
G1 X123.947 Y78.367 E0.01690
G1 X129.130 Y83.551 E0.23111
G1 X129.130 Y83.015 E0.01691
G1 X124.483 Y78.367 E0.20721
G1 X125.019 Y78.367 E0.01690
G1 X129.130 Y82.478 E0.18332
G1 X129.130 Y81.942 E0.01691
G1 X125.554 Y78.366 E0.15943
G1 X125.970 Y78.366 E0.01309
G1 X125.970 Y78.246 E0.00381
G1 X129.130 Y81.406 E0.14091
G1 X129.130 Y80.870 E0.01691
G1 X125.970 Y77.709 E0.14091
G1 X125.970 Y77.173 E0.01690
G1 X129.130 Y80.334 E0.14090
G1 X129.130 Y79.797 E0.01691
G1 X125.970 Y76.637 E0.14090
G1 X125.970 Y76.101 E0.01690
G1 X129.130 Y79.261 E0.14089
G1 X129.130 Y78.725 E0.01691
G1 X125.970 Y75.565 E0.14088
G1 X125.970 Y75.029 E0.01690
G1 X129.130 Y78.189 E0.14088
G1 X129.130 Y77.857 E0.01046
G1 X129.030 Y77.687 E0.00621
G1 X129.030 Y77.552 E0.00424
G1 X125.971 Y74.493 E0.13641
G1 X125.971 Y73.957 E0.01690
G1 X129.030 Y77.016 E0.13641
G1 X129.030 Y76.480 E0.01691
G1 X125.971 Y73.421 E0.13640
G1 X125.971 Y73.371 E0.00156
G1 X126.458 Y73.371 E0.01534
G1 X129.030 Y75.944 E0.11470
G1 X129.030 Y75.408 E0.01691
G1 X126.994 Y73.371 E0.09079
G1 X127.530 Y73.371 E0.01691
G1 X129.030 Y74.871 E0.06688
G1 X129.030 Y74.335 E0.01691
G1 X128.066 Y73.371 E0.04297
G1 X128.603 Y73.372 E0.01691
G1 X129.200 Y73.969 E0.02662
G1 F8640
G1 X128.603 Y73.372 E-0.19497
G1 X128.066 Y73.371 E-0.12383
G1 X129.030 Y74.335 E-0.31468
G1 X129.030 Y74.871 E-0.12381
G1 X129.022 Y74.863 E-0.00270
G1 E-0.04000 F2100.00000
G1 Z0.800 F10800.000
G1 X119.200 Y73.621
G1 Z0.200
G1 E0.80000 F2100.00000
G1 F1200
G1 X118.950 Y73.371 E0.01114
G1 X118.414 Y73.371 E0.01691
G1 X119.031 Y73.987 E0.02750
G1 X119.031 Y74.524 E0.01691
G1 X117.877 Y73.371 E0.05142
G1 X117.341 Y73.370 E0.01691
G1 X119.031 Y75.060 E0.07534
G1 X119.031 Y75.597 E0.01691
G1 X116.805 Y73.370 E0.09926
G1 X116.268 Y73.370 E0.01691
G1 X119.031 Y76.133 E0.12318
G1 X119.031 Y76.669 E0.01691
G1 X115.971 Y73.609 E0.13647
G1 X115.971 Y74.145 E0.01690
G1 X119.032 Y77.206 E0.13648
G1 X119.032 Y77.742 E0.01691
G1 X115.970 Y74.681 E0.13649
G1 X115.970 Y75.217 E0.01690
G1 X127.384 Y86.630 E0.50887
G1 X126.847 Y86.630 E0.01691
G1 X115.970 Y75.753 E0.48497
G1 X115.970 Y76.289 E0.01690
G1 X126.311 Y86.630 E0.46107
G1 X125.775 Y86.630 E0.01691
G1 X115.970 Y76.825 E0.43716
G1 X115.970 Y77.361 E0.01690
G1 X125.239 Y86.630 E0.41326
G1 X124.702 Y86.630 E0.01691
G1 X115.970 Y77.897 E0.38936
G1 X115.970 Y78.370 E0.01489
G1 X115.906 Y78.370 E0.00201
G1 X124.166 Y86.630 E0.36830
G1 X123.630 Y86.630 E0.01691
G1 X115.370 Y78.370 E0.36830
G1 X114.834 Y78.370 E0.01690
G1 X123.094 Y86.630 E0.36829
G1 X122.558 Y86.630 E0.01691
G1 X114.298 Y78.370 E0.36829
G1 X113.761 Y78.370 E0.01690
G1 X122.021 Y86.630 E0.36828
G1 X121.485 Y86.630 E0.01691
G1 X113.225 Y78.370 E0.36828
G1 X112.689 Y78.370 E0.01690
G1 X120.949 Y86.630 E0.36827
G1 X120.413 Y86.630 E0.01691
G1 X112.153 Y78.371 E0.36827
G1 X111.617 Y78.371 E0.01690
G1 X119.877 Y86.630 E0.36826
G1 X119.340 Y86.630 E0.01691
G1 X111.081 Y78.371 E0.36826
G1 X110.870 Y78.371 E0.00665
G1 X110.870 Y78.696 E0.01025
G1 X118.804 Y86.630 E0.35376
G1 X118.268 Y86.630 E0.01691
G1 X110.870 Y79.232 E0.32985
G1 X110.870 Y79.768 E0.01691
G1 X117.732 Y86.630 E0.30594
G1 X117.195 Y86.630 E0.01691
G1 X110.870 Y80.305 E0.28204
G1 X110.870 Y80.841 E0.01691
G1 X116.659 Y86.630 E0.25813
G1 X116.123 Y86.630 E0.01691
G1 X110.870 Y81.377 E0.23422
G1 X110.870 Y81.913 E0.01691
G1 X115.587 Y86.630 E0.21031
G1 X115.051 Y86.630 E0.01691
G1 X110.870 Y82.449 E0.18640
G1 X110.870 Y82.986 E0.01691
G1 X114.514 Y86.630 E0.16250
G1 X113.978 Y86.630 E0.01691
G1 X110.870 Y83.522 E0.13859
G1 X110.870 Y84.058 E0.01691
G1 X113.442 Y86.630 E0.11468
G1 X112.906 Y86.630 E0.01691
G1 X110.870 Y84.594 E0.09077
G1 X110.870 Y85.130 E0.01691
G1 X112.370 Y86.630 E0.06686
G1 X111.833 Y86.630 E0.01691
G1 X110.870 Y85.667 E0.04296
G1 X110.870 Y86.203 E0.01691
G1 X111.467 Y86.800 E0.02661
M106 S255
;BEFORE_LAYER_CHANGE
G92 E0.0
;0.3


G1 F8640
G1 X110.870 Y86.203 E-0.19492
G1 X110.870 Y85.667 E-0.12381
G1 X111.833 Y86.630 E-0.31461
G1 X112.370 Y86.630 E-0.12381
G1 X112.361 Y86.621 E-0.00285
G1 E-0.04000 F2100.00000
G1 Z0.800 F10800.000
;AFTER_LAYER_CHANGE
;0.3
M104 S210 ; set temperature
G1 X130.847 Y70.115
G1 Z0.300
G1 E0.80000 F2100.00000
G1 F3000
G1 X131.660 Y70.633 E0.01597
G1 X132.223 Y71.410 E0.01590
G1 X132.461 Y72.344 E0.01597
G1 X132.566 Y77.542 E0.08614
G1 X132.566 Y107.470 E0.49589
G1 X132.489 Y108.081 E0.01020
G1 X132.269 Y108.656 E0.01020
G1 X131.886 Y109.198 E0.01098
G1 X131.345 Y109.659 E0.01178
G1 X130.738 Y109.944 E0.01111
G1 X130.081 Y110.062 E0.01105
G1 X110.006 Y110.065 E0.33264
G1 X109.407 Y109.986 E0.01001
G1 X108.843 Y109.769 E0.01001
G1 X108.296 Y109.381 E0.01111
G1 X107.831 Y108.829 E0.01195
G1 X107.548 Y108.213 E0.01124
G1 X107.436 Y107.543 E0.01124
G1 X107.434 Y77.476 E0.49819
G1 X107.512 Y76.873 E0.01007
G1 X107.731 Y76.302 E0.01014
G1 X108.182 Y75.689 E0.01261
G1 X113.390 Y70.625 E0.12035
G1 X113.877 Y70.268 E0.01001
G1 X114.434 Y70.034 E0.01001
G1 X115.125 Y69.934 E0.01157
G1 X129.904 Y69.934 E0.24488
G1 X130.788 Y70.104 E0.01491
G1 F8640
G1 X131.660 Y70.633 E-0.23547
G1 X132.223 Y71.410 E-0.22164
G1 X132.461 Y72.344 E-0.22253
G1 X132.468 Y72.692 E-0.08036
G1 E-0.04000 F2100.00000
G1 Z0.900 F10800.000
G1 X129.246 Y93.154
G1 Z0.300
G1 E0.80000 F2100.00000
M204 S800
G1 F2700
G1 X129.246 Y97.628 E0.07972
G1 X129.346 Y97.798 E0.00351
G1 X129.346 Y106.846 E0.16121
G1 X110.654 Y106.846 E0.33304
G1 X110.654 Y98.154 E0.15488
G1 X115.754 Y98.154 E0.09086
G1 X115.754 Y93.154 E0.08908
G1 X119.246 Y93.154 E0.06223
G1 X119.246 Y98.154 E0.08908
G1 X124.957 Y98.154 E0.10175
G1 X125.754 Y98.137 E0.01420
G1 X125.754 Y93.154 E0.08879
G1 X129.186 Y93.154 E0.06116
M204 S1000
G1 F8640
G1 X129.231 Y96.445 E-0.76000
G1 E-0.04000 F2100.00000
G1 Z0.900 F10800.000
G1 X119.675 Y97.725
G1 Z0.300
G1 E0.80000 F2100.00000
M204 S800
G1 F1500
G1 X125.325 Y97.717 E0.10067
G1 X125.325 Y92.725 E0.08894
