; generated by Slic3r Prusa Edition 1.42.0-beta2+ on 2019-04-26 at 17:52:31

; 

; external perimeters extrusion width = 0.45mm
; perimeters extrusion width = 0.45mm
; infill extrusion width = 0.45mm
; solid infill extrusion width = 0.45mm
; top infill extrusion width = 0.40mm
; first layer extrusion width = 0.42mm

M73 P0 R24
M73 Q0 S24
M201 X1000 Y1000 Z1000 E5000 ; sets maximum accelerations, mm/sec^2
M203 X200 Y200 Z12 E120 ; sets maximum feedrates, mm/sec
M204 P1250 R1250 T1250 ; sets acceleration (P, T) and retract acceleration (R), mm/sec^2
M205 X8.00 Y8.00 Z0.40 E1.50 ; sets the jerk limits, mm/sec
M205 S0 T0 ; sets the minimum extruding and travel feed rate, mm/sec
M107
M115 U3.6.0 ; tell printer latest fw version
M83  ; extruder relative mode
M104 S215 ; set extruder temp
M140 S60 ; set bed temp
M190 S60 ; wait for bed temp
M109 S215 ; wait for extruder temp
G28 W ; home all without mesh bed level
G80 ; mesh bed leveling
G1 Y-3.0 F1000.0 ; go outside print area
G92 E0.0
G1 X60.0 E9.0  F1000.0 ; intro line
M73 Q0 S24
M73 P0 R24
G1 X100.0 E12.5  F1000.0 ; intro line
G92 E0.0
M221 S95
M900 K30 ; Filament gcode
G21 ; set units to millimeters
G90 ; use absolute coordinates
M83 ; use relative distances for extrusion
;BEFORE_LAYER_CHANGE
G92 E0.0
;0.2


G1 E-0.80000 F2100.00000
G1 Z0.600 F10800.000
;AFTER_LAYER_CHANGE
;0.2
G1 X112.607 Y101.464
G1 Z0.200
G1 E0.80000 F2100.00000
M204 S1000
G1 F1200
G1 X112.947 Y100.855 E0.02189
G1 X113.437 Y100.362 E0.02177
G1 X118.648 Y96.721 E0.19934
G1 X119.180 Y96.443 E0.01882
G1 X120.077 Y96.262 E0.02868
G1 X143.500 Y95.836 E0.73456
G1 X158.297 Y95.835 E0.46393
G1 X159.266 Y96.020 E0.03092
G1 X160.096 Y96.556 E0.03099
G1 X160.659 Y97.343 E0.03034
G1 X160.905 Y98.316 E0.03147
G1 X160.945 Y112.193 E0.43510
G1 X160.776 Y112.883 E0.02226
G1 X160.424 Y113.499 E0.02226
G1 X159.893 Y114.025 E0.02343
G1 X159.265 Y114.372 E0.02251
G1 X158.414 Y114.539 E0.02717
G1 X134.989 Y114.965 E0.73460
G1 X114.978 Y114.965 E0.62745
G1 X114.228 Y114.835 E0.02386
G1 X113.549 Y114.490 E0.02386
G1 X112.973 Y113.936 E0.02507
G1 X112.599 Y113.274 E0.02386
G1 X112.430 Y112.400 E0.02790
G1 X112.430 Y102.400 E0.31354
G1 X112.596 Y101.523 E0.02797
G1 X112.957 Y101.604 F10800.000
G1 F1200
G1 X113.251 Y101.079 E0.01885
G1 X113.676 Y100.654 E0.01885
G1 X118.859 Y97.033 E0.19824
G1 X119.329 Y96.790 E0.01658
G1 X120.090 Y96.639 E0.02433
G1 X143.507 Y96.213 E0.73434
G1 X158.296 Y96.212 E0.46372
G1 X159.126 Y96.370 E0.02648
G1 X159.840 Y96.833 E0.02669
G1 X160.320 Y97.508 E0.02597
G1 X160.529 Y98.348 E0.02712
G1 X160.572 Y112.129 E0.43212
G1 X160.431 Y112.729 E0.01930
G1 X160.129 Y113.265 E0.01930
G1 X159.666 Y113.724 E0.02044
G1 X159.116 Y114.025 E0.01964
G1 X158.402 Y114.162 E0.02281
G1 X134.983 Y114.588 E0.73439
G1 X114.993 Y114.588 E0.62678
G1 X114.347 Y114.477 E0.02055
G1 X113.763 Y114.180 E0.02055
G1 X113.266 Y113.699 E0.02169
G1 X112.945 Y113.123 E0.02066
G1 X112.807 Y112.387 E0.02349
G1 X112.807 Y102.396 E0.31324
G1 X112.946 Y101.663 E0.02341
G1 F8640
G1 X113.251 Y101.079 E-0.15201
G1 X113.676 Y100.654 E-0.13881
G1 X115.342 Y99.491 E-0.46919
G1 E-0.04000 F2100.00000
G1 Z0.800 F10800.000
G1 X115.583 Y102.987
G1 Z0.200
G1 E0.80000 F2100.00000
G1 F1200
G1 X120.471 Y102.987 E0.15328
G1 X120.633 Y102.434 E0.01807
G1 X120.633 Y99.987 E0.07672
G1 X124.359 Y99.987 E0.11684
G1 X124.359 Y102.987 E0.09406
G1 X130.634 Y102.987 E0.19676
G1 X130.630 Y99.987 E0.09406
G1 X134.362 Y99.987 E0.11700
G1 X134.360 Y102.358 E0.07435
G1 X134.374 Y102.815 E0.01432
G1 X134.409 Y102.828 E0.00117
G1 X134.409 Y111.813 E0.28173
G1 X115.583 Y111.813 E0.59027
G1 X115.583 Y103.047 E0.27485
G1 F8640
G1 X118.874 Y103.007 E-0.76000
G1 E-0.04000 F2100.00000
G1 Z0.800 F10800.000
G1 X124.736 Y102.610
G1 Z0.200
G1 E0.80000 F2100.00000
G1 F1200
G1 X130.256 Y102.610 E0.17310
G1 X130.252 Y99.610 E0.09406
G1 X134.739 Y99.610 E0.14067
G1 X134.737 Y102.353 E0.08600
G1 X134.743 Y102.548 E0.00613
G1 X134.786 Y102.564 E0.00143
G1 X134.786 Y112.190 E0.30182
G1 X115.206 Y112.190 E0.61392
G1 X115.206 Y102.610 E0.30037
G1 X120.189 Y102.610 E0.15624
G1 X120.256 Y102.380 E0.00751
G1 X120.259 Y99.610 E0.08685
G1 X124.736 Y99.610 E0.14038
G1 X124.736 Y102.550 E0.09218
G1 X124.864 Y102.989 F10800.000
G1 X124.601 Y103.100
G1 F1200
G1 X133.031 Y111.530 E0.37836
G1 X133.571 Y111.530 E0.01713
G1 X125.311 Y103.270 E0.37074
G1 X125.851 Y103.270 E0.01713
G1 X134.126 Y111.530 E0.37108
G1 X134.126 Y111.005 E0.01666
G1 X126.390 Y103.270 E0.34719
G1 X126.930 Y103.270 E0.01713
G1 X134.126 Y110.466 E0.32296
G1 X134.126 Y109.926 E0.01713
G1 X127.470 Y103.270 E0.29874
G1 X128.010 Y103.270 E0.01713
G1 X134.126 Y109.386 E0.27451
G1 X134.126 Y108.846 E0.01713
G1 X128.550 Y103.270 E0.25028
G1 X129.089 Y103.270 E0.01713
G1 X134.126 Y108.306 E0.22606
G1 X134.126 Y107.767 E0.01713
G1 X129.629 Y103.270 E0.20183
G1 X130.169 Y103.270 E0.01713
G1 X134.126 Y107.227 E0.17760
G1 X134.126 Y106.687 E0.01713
G1 X130.709 Y103.270 E0.15338
G1 X130.917 Y103.270 E0.00662
G1 X130.917 Y102.938 E0.01053
G1 X134.126 Y106.147 E0.14404
G1 X134.126 Y105.608 E0.01713
G1 X130.916 Y102.398 E0.14407
G1 X130.915 Y101.857 E0.01715
G1 X134.126 Y105.068 E0.14410
G1 X134.126 Y104.528 E0.01713
G1 X130.915 Y101.317 E0.14413
G1 X130.914 Y100.776 E0.01715
G1 X134.126 Y103.988 E0.14416
G1 X134.126 Y103.448 E0.01713
G1 X130.947 Y100.270 E0.14266
G1 X131.487 Y100.270 E0.01713
G1 X134.092 Y102.875 E0.11693
G1 X134.077 Y102.320 E0.01761
G1 X132.027 Y100.270 E0.09204
G1 X132.567 Y100.270 E0.01713
G1 X134.078 Y101.781 E0.06782
G1 X134.078 Y101.242 E0.01712
G1 X133.106 Y100.270 E0.04361
G1 X133.646 Y100.270 E0.01713
G1 X134.248 Y100.872 E0.02701
G1 F8640
G1 X133.646 Y100.270 E-0.19653
G1 X133.106 Y100.270 E-0.12464
G1 X134.078 Y101.242 E-0.31731
G1 X134.078 Y101.768 E-0.12153
G1 E-0.04000 F2100.00000
G1 Z0.800 F10800.000
G1 X124.246 Y100.586
G1 Z0.200
G1 E0.80000 F2100.00000
G1 F1200
G1 X123.930 Y100.270 E0.01418
G1 X123.390 Y100.270 E0.01713
G1 X124.076 Y100.956 E0.03078
G1 X124.076 Y101.495 E0.01713
G1 X122.851 Y100.270 E0.05500
G1 X122.311 Y100.270 E0.01713
G1 X124.076 Y102.035 E0.07922
G1 X124.076 Y102.575 E0.01713
G1 X121.771 Y100.270 E0.10344
G1 X121.231 Y100.270 E0.01713
G1 X132.492 Y111.530 E0.50539
G1 X131.952 Y111.530 E0.01713
G1 X120.916 Y100.494 E0.49533
G1 X120.916 Y101.034 E0.01713
G1 X131.412 Y111.530 E0.47111
G1 X130.872 Y111.530 E0.01713
G1 X120.916 Y101.574 E0.44688
G1 X120.916 Y102.113 E0.01713
G1 X130.332 Y111.530 E0.42265
G1 X129.793 Y111.530 E0.01713
G1 X120.875 Y102.613 E0.40024
G1 X120.753 Y103.031 E0.01382
G1 X129.253 Y111.530 E0.38148
G1 X128.713 Y111.530 E0.01713
G1 X120.453 Y103.270 E0.37074
G1 X119.913 Y103.270 E0.01713
G1 X128.173 Y111.530 E0.37074
G1 X127.634 Y111.530 E0.01713
G1 X119.373 Y103.270 E0.37074
G1 X118.833 Y103.270 E0.01713
G1 X127.094 Y111.530 E0.37074
G1 X126.554 Y111.530 E0.01713
G1 X118.294 Y103.270 E0.37074
G1 X117.754 Y103.270 E0.01713
G1 X126.014 Y111.530 E0.37074
G1 X125.474 Y111.530 E0.01713
G1 X117.214 Y103.270 E0.37074
G1 X116.674 Y103.270 E0.01713
G1 X124.935 Y111.530 E0.37074
G1 X124.395 Y111.530 E0.01713
G1 X116.135 Y103.270 E0.37074
G1 X115.866 Y103.270 E0.00854
G1 X115.866 Y103.541 E0.00859
G1 X123.855 Y111.530 E0.35859
G1 X123.315 Y111.530 E0.01713
G1 X115.866 Y104.080 E0.33436
G1 X115.866 Y104.620 E0.01713
G1 X122.776 Y111.530 E0.31014
G1 X122.236 Y111.530 E0.01713
G1 X115.866 Y105.160 E0.28591
G1 X115.866 Y105.700 E0.01713
G1 X121.696 Y111.530 E0.26168
G1 X121.156 Y111.530 E0.01713
G1 X115.866 Y106.240 E0.23746
G1 X115.866 Y106.779 E0.01713
G1 X120.616 Y111.530 E0.21323
G1 X120.077 Y111.530 E0.01713
G1 X115.866 Y107.319 E0.18900
G1 X115.866 Y107.859 E0.01713
G1 X119.537 Y111.530 E0.16478
G1 X118.997 Y111.530 E0.01713
G1 X115.866 Y108.399 E0.14055
G1 X115.866 Y108.938 E0.01713
G1 X118.457 Y111.530 E0.11632
G1 X117.917 Y111.530 E0.01713
G1 X115.866 Y109.478 E0.09209
G1 X115.866 Y110.018 E0.01713
G1 X117.378 Y111.530 E0.06787
G1 X116.838 Y111.530 E0.01713
G1 X115.866 Y110.558 E0.04364
G1 X115.866 Y111.098 E0.01713
G1 X116.468 Y111.700 E0.02703
G1 F8640
G1 X115.866 Y111.098 E-0.19666
G1 X115.866 Y110.558 E-0.12464
G1 X116.838 Y111.530 E-0.31751
G1 X117.363 Y111.530 E-0.12120
G1 E-0.04000 F2100.00000
G1 Z0.800 F10800.000
G1 X138.980 Y111.387
G1 Z0.200
G1 E0.80000 F2100.00000
G1 F1200
G1 X138.980 Y102.561 E0.27673
G1 X143.868 Y102.561 E0.15328
G1 X144.030 Y102.008 E0.01807
G1 X144.030 Y99.561 E0.07672
G1 X147.756 Y99.561 E0.11684
G1 X147.755 Y102.561 E0.09406
G1 X154.031 Y102.561 E0.19676
G1 X154.027 Y99.561 E0.09406
G1 X157.759 Y99.561 E0.11700
G1 X157.757 Y101.932 E0.07435
G1 X157.771 Y102.389 E0.01432
G1 X157.806 Y102.402 E0.00117
G1 X157.806 Y111.387 E0.28173
G1 X139.040 Y111.387 E0.58839
G1 F8640
G1 X139.017 Y108.096 E-0.76000
G1 E-0.04000 F2100.00000
G1 Z0.800 F10800.000
G1 X148.133 Y102.184
G1 Z0.200
G1 E0.80000 F2100.00000
G1 F1200
G1 X153.653 Y102.184 E0.17310
G1 X153.649 Y99.184 E0.09406
G1 X158.136 Y99.184 E0.14067
G1 X158.134 Y101.927 E0.08600
G1 X158.140 Y102.122 E0.00613
G1 X158.183 Y102.138 E0.00143
G1 X158.183 Y111.764 E0.30182
G1 X138.603 Y111.764 E0.61392
G1 X138.603 Y102.184 E0.30037
G1 X143.586 Y102.184 E0.15624
G1 X143.653 Y101.954 E0.00751
G1 X143.656 Y99.184 E0.08685
G1 X148.133 Y99.184 E0.14038
G1 X148.133 Y102.124 E0.09218
G1 X148.261 Y102.563 F10800.000
G1 X147.998 Y102.674
G1 F1200
G1 X156.428 Y111.104 E0.37836
G1 X156.968 Y111.104 E0.01713
G1 X148.708 Y102.844 E0.37074
G1 X149.248 Y102.844 E0.01713
G1 X157.523 Y111.104 E0.37108
G1 X157.523 Y110.579 E0.01666
G1 X149.787 Y102.844 E0.34719
M73 Q4 S23
G1 X150.327 Y102.844 E0.01713
G1 X157.523 Y110.040 E0.32296
M73 P4 R23
G1 X157.523 Y109.500 E0.01713
G1 X150.867 Y102.844 E0.29874
G1 X151.407 Y102.844 E0.01713
G1 X157.523 Y108.960 E0.27451
G1 X157.523 Y108.420 E0.01713
G1 X151.946 Y102.844 E0.25028
G1 X152.486 Y102.844 E0.01713
G1 X157.523 Y107.880 E0.22606
G1 X157.523 Y107.341 E0.01713
G1 X153.026 Y102.844 E0.20183
G1 X153.566 Y102.844 E0.01713
G1 X157.523 Y106.801 E0.17760
G1 X157.523 Y106.261 E0.01713
G1 X154.106 Y102.844 E0.15338
G1 X154.314 Y102.844 E0.00662
G1 X154.314 Y102.512 E0.01053
G1 X157.523 Y105.721 E0.14404
G1 X157.523 Y105.182 E0.01713
G1 X154.313 Y101.972 E0.14407
G1 X154.312 Y101.431 E0.01715
G1 X157.523 Y104.642 E0.14410
G1 X157.523 Y104.102 E0.01713
G1 X154.312 Y100.891 E0.14413
G1 X154.311 Y100.350 E0.01715
G1 X157.523 Y103.562 E0.14416
G1 X157.523 Y103.022 E0.01713
G1 X154.344 Y99.844 E0.14266
G1 X154.884 Y99.844 E0.01713
G1 X157.489 Y102.449 E0.11693
G1 X157.474 Y101.894 E0.01761
G1 X155.424 Y99.844 E0.09204
G1 X155.964 Y99.844 E0.01713
G1 X157.475 Y101.355 E0.06782
G1 X157.475 Y100.816 E0.01712
G1 X156.503 Y99.844 E0.04361
G1 X157.043 Y99.844 E0.01713
G1 X157.645 Y100.446 E0.02701
G1 F8640
G1 X157.043 Y99.844 E-0.19653
G1 X156.503 Y99.844 E-0.12464
G1 X157.475 Y100.816 E-0.31731
G1 X157.475 Y101.342 E-0.12153
G1 E-0.04000 F2100.00000
G1 Z0.800 F10800.000
G1 X147.643 Y100.160
G1 Z0.200
G1 E0.80000 F2100.00000
G1 F1200
G1 X147.327 Y99.844 E0.01418
G1 X146.787 Y99.844 E0.01713
G1 X147.473 Y100.530 E0.03078
G1 X147.473 Y101.069 E0.01713
G1 X146.248 Y99.844 E0.05500
G1 X145.708 Y99.844 E0.01713
G1 X147.473 Y101.609 E0.07922
G1 X147.473 Y102.149 E0.01713
G1 X145.168 Y99.844 E0.10344
G1 X144.628 Y99.844 E0.01713
G1 X155.889 Y111.104 E0.50539
G1 X155.349 Y111.104 E0.01713
G1 X144.313 Y100.068 E0.49533
G1 X144.313 Y100.608 E0.01713
G1 X154.809 Y111.104 E0.47111
G1 X154.269 Y111.104 E0.01713
G1 X144.313 Y101.148 E0.44688
G1 X144.313 Y101.687 E0.01713
G1 X153.729 Y111.104 E0.42265
G1 X153.190 Y111.104 E0.01713
G1 X144.272 Y102.187 E0.40024
G1 X144.150 Y102.605 E0.01382
G1 X152.650 Y111.104 E0.38148
G1 X152.110 Y111.104 E0.01713
G1 X143.850 Y102.844 E0.37074
G1 X143.310 Y102.844 E0.01713
G1 X151.570 Y111.104 E0.37074
G1 X151.031 Y111.104 E0.01713
G1 X142.770 Y102.844 E0.37074
G1 X142.230 Y102.844 E0.01713
G1 X150.491 Y111.104 E0.37074
G1 X149.951 Y111.104 E0.01713
G1 X141.691 Y102.844 E0.37074
G1 X141.151 Y102.844 E0.01713
G1 X149.411 Y111.104 E0.37074
G1 X148.871 Y111.104 E0.01713
G1 X140.611 Y102.844 E0.37074
G1 X140.071 Y102.844 E0.01713
G1 X148.332 Y111.104 E0.37074
G1 X147.792 Y111.104 E0.01713
G1 X139.532 Y102.844 E0.37074
G1 X139.263 Y102.844 E0.00854
G1 X139.263 Y103.115 E0.00859
G1 X147.252 Y111.104 E0.35859
G1 X146.712 Y111.104 E0.01713
G1 X139.263 Y103.654 E0.33436
G1 X139.263 Y104.194 E0.01713
G1 X146.172 Y111.104 E0.31014
G1 X145.633 Y111.104 E0.01713
G1 X139.263 Y104.734 E0.28591
G1 X139.263 Y105.274 E0.01713
G1 X145.093 Y111.104 E0.26168
G1 X144.553 Y111.104 E0.01713
G1 X139.263 Y105.814 E0.23746
G1 X139.263 Y106.353 E0.01713
G1 X144.013 Y111.104 E0.21323
G1 X143.474 Y111.104 E0.01713
G1 X139.263 Y106.893 E0.18900
G1 X139.263 Y107.433 E0.01713
G1 X142.934 Y111.104 E0.16478
G1 X142.394 Y111.104 E0.01713
G1 X139.263 Y107.973 E0.14055
G1 X139.263 Y108.512 E0.01713
G1 X141.854 Y111.104 E0.11632
G1 X141.314 Y111.104 E0.01713
G1 X139.263 Y109.052 E0.09209
G1 X139.263 Y109.592 E0.01713
G1 X140.775 Y111.104 E0.06787
G1 X140.235 Y111.104 E0.01713
G1 X139.263 Y110.132 E0.04364
G1 X139.263 Y110.672 E0.01713
G1 X139.865 Y111.274 E0.02703
M106 S255
;BEFORE_LAYER_CHANGE
G92 E0.0
;0.3


G1 F8640
G1 X139.263 Y110.672 E-0.19666
G1 X139.263 Y110.132 E-0.12464
G1 X140.235 Y111.104 E-0.31751
G1 X140.760 Y111.104 E-0.12120
G1 E-0.04000 F2100.00000
G1 Z0.800 F10800.000
;AFTER_LAYER_CHANGE
;0.3
M104 S210 ; set temperature
G1 X159.266 Y96.020
G1 Z0.300
G1 E0.80000 F2100.00000
G1 F3000
G1 X160.096 Y96.556 E0.01638
G1 X160.659 Y97.343 E0.01603
G1 X160.905 Y98.316 E0.01663
G1 X160.945 Y112.193 E0.22993
G1 X160.776 Y112.883 E0.01176
G1 X160.424 Y113.499 E0.01176
G1 X159.893 Y114.025 E0.01238
G1 X159.265 Y114.372 E0.01189
G1 X158.414 Y114.539 E0.01436
G1 X134.989 Y114.965 E0.38820
G1 X114.978 Y114.965 E0.33158
G1 X114.228 Y114.835 E0.01261
G1 X113.549 Y114.490 E0.01261
G1 X112.973 Y113.936 E0.01325
G1 X112.599 Y113.274 E0.01261
G1 X112.430 Y112.400 E0.01474
G1 X112.430 Y102.400 E0.16569
G1 X112.607 Y101.464 E0.01578
G1 X112.947 Y100.855 E0.01157
G1 X113.437 Y100.362 E0.01150
G1 X118.648 Y96.721 E0.10534
G1 X119.180 Y96.443 E0.00994
G1 X120.077 Y96.262 E0.01515
G1 X143.500 Y95.836 E0.38818
G1 X158.297 Y95.835 E0.24516
G1 X159.207 Y96.009 E0.01535
G1 F8640
G1 X160.096 Y96.556 E-0.24114
G1 X160.659 Y97.343 E-0.22343
G1 X160.905 Y98.316 E-0.23179
G1 X160.906 Y98.592 E-0.06363
G1 E-0.04000 F2100.00000
G1 Z0.900 F10800.000
G1 X134.286 Y99.676
G1 Z0.300
G1 E0.80000 F2100.00000
M204 S800
G1 F2700
G1 X134.294 Y102.361 E0.04785
G1 X134.308 Y102.862 E0.00892
G1 X134.342 Y102.874 E0.00064
G1 X134.342 Y111.746 E0.15808
G1 X115.649 Y111.746 E0.33304
G1 X115.649 Y103.054 E0.15488
G1 X120.521 Y103.054 E0.08680
G1 X120.699 Y102.445 E0.01129
G1 X120.706 Y99.664 E0.04955
G1 X124.293 Y99.664 E0.06391
G1 X124.292 Y103.054 E0.06039
G1 X130.697 Y103.054 E0.11411
G1 X130.705 Y99.676 E0.06018
G1 X134.226 Y99.676 E0.06273
M204 S1000
G1 F8640
G1 X134.294 Y102.361 E-0.62035
G1 X134.308 Y102.862 E-0.11557
G1 X134.342 Y102.874 E-0.00830
G1 X134.342 Y102.942 E-0.01577
G1 E-0.04000 F2100.00000
G1 Z0.900 F10800.000
G1 X124.721 Y102.625
G1 Z0.300
G1 E0.80000 F2100.00000
M204 S800
G1 F1500
G1 X130.270 Y102.625 E0.09887
G1 X130.271 Y99.247 E0.06018
G1 X134.720 Y99.247 E0.07926
G1 X134.722 Y102.354 E0.05535
G1 X134.728 Y102.559 E0.00365
G1 X134.771 Y102.574 E0.00080
G1 X134.771 Y112.175 E0.17105
G1 X115.221 Y112.175 E0.34831
G1 X115.221 Y102.625 E0.17015
G1 X120.200 Y102.625 E0.08871
G1 X120.271 Y102.383 E0.00450
G1 X120.273 Y99.235 E0.05608
G1 X124.722 Y99.235 E0.07927
G1 X124.721 Y102.565 E0.05932
M204 S1000
G1 X124.841 Y103.006 F10800.000
G1 F8640
G1 X128.012 Y102.601 E-0.76000
G1 E-0.04000 F2100.00000
G1 Z0.900 F10800.000
G1 X120.833 Y100.228
G1 Z0.300
G1 E0.80000 F2100.00000
M204 S1250
G1 F4800
G1 X121.076 Y99.985 E0.00619
G1 X121.689 Y99.985 E0.01103
G1 X121.025 Y100.649 E0.01691
G1 X121.023 Y101.263 E0.01106
G1 X122.301 Y99.985 E0.03256
G1 X122.914 Y99.985 E0.01103
G1 X121.022 Y101.878 E0.04820
