; generated by Slic3r Prusa Edition 1.42.0-beta2+ on 2019-04-26 at 15:31:51

; 

; external perimeters extrusion width = 0.45mm
; perimeters extrusion width = 0.45mm
; infill extrusion width = 0.45mm
; solid infill extrusion width = 0.45mm
; top infill extrusion width = 0.40mm
; first layer extrusion width = 0.42mm

M73 P0 R18
M73 Q0 S18
M201 X1000 Y1000 Z1000 E5000 ; sets maximum accelerations, mm/sec^2
M203 X200 Y200 Z12 E120 ; sets maximum feedrates, mm/sec
M204 P1250 R1250 T1250 ; sets acceleration (P, T) and retract acceleration (R), mm/sec^2
M205 X8.00 Y8.00 Z0.40 E1.50 ; sets the jerk limits, mm/sec
M205 S0 T0 ; sets the minimum extruding and travel feed rate, mm/sec
M107
M115 U3.6.0 ; tell printer latest fw version
M83  ; extruder relative mode
M104 S215 ; set extruder temp
M140 S60 ; set bed temp
M190 S60 ; wait for bed temp
M109 S215 ; wait for extruder temp
G28 W ; home all without mesh bed level
G80 ; mesh bed leveling
G1 Y-3.0 F1000.0 ; go outside print area
G92 E0.0
G1 X60.0 E9.0  F1000.0 ; intro line
M73 Q0 S18
M73 P0 R18
G1 X100.0 E12.5  F1000.0 ; intro line
G92 E0.0
M221 S95
M900 K30 ; Filament gcode
G21 ; set units to millimeters
G90 ; use absolute coordinates
M83 ; use relative distances for extrusion
;BEFORE_LAYER_CHANGE
G92 E0.0
;0.2


G1 E-0.80000 F2100.00000
G1 Z0.600 F10800.000
;AFTER_LAYER_CHANGE
;0.2
G1 X112.049 Y93.428
G1 Z0.200
G1 E0.80000 F2100.00000
M204 S1000
G1 F1200
G1 X112.852 Y92.889 E0.03034
G1 X113.806 Y92.680 E0.03062
G1 X136.098 Y92.677 E0.69893
G1 X137.060 Y92.853 E0.03068
G1 X137.881 Y93.366 E0.03034
G1 X138.543 Y94.235 E0.03425
G1 X138.814 Y95.200 E0.03144
G1 X138.820 Y114.726 E0.61224
G1 X138.748 Y115.235 E0.01610
G1 X138.578 Y115.715 E0.01598
G1 X137.952 Y116.570 E0.03323
G1 X137.150 Y117.111 E0.03034
G1 X136.194 Y117.320 E0.03068
G1 X113.906 Y117.323 E0.69881
G1 X113.380 Y117.273 E0.01656
G1 X112.892 Y117.128 E0.01598
G1 X112.439 Y116.887 E0.01610
G1 X112.042 Y116.560 E0.01610
G1 X111.422 Y115.715 E0.03286
G1 X111.252 Y115.235 E0.01598
G1 X111.180 Y114.730 E0.01598
G1 X111.178 Y95.398 E0.60615
G1 X111.233 Y94.867 E0.01672
G1 X111.397 Y94.360 E0.01672
G1 X112.015 Y93.477 E0.03378
G1 F8640
G1 X112.852 Y92.889 E-0.23640
G1 X113.806 Y92.680 E-0.22546
G1 X115.097 Y92.680 E-0.29813
G1 E-0.04000 F2100.00000
G1 Z0.800 F10800.000
G1 X111.749 Y94.497
G1 Z0.200
G1 E0.80000 F2100.00000
G1 F1200
G1 X112.327 Y93.683 E0.03131
G1 X113.012 Y93.230 E0.02574
G1 X113.826 Y93.057 E0.02610
G1 X136.097 Y93.054 E0.69829
G1 X136.928 Y93.206 E0.02647
G1 X137.632 Y93.649 E0.02608
G1 X138.210 Y94.411 E0.02999
G1 X138.440 Y95.252 E0.02732
G1 X138.444 Y114.704 E0.60990
G1 X138.231 Y115.567 E0.02788
G1 X137.673 Y116.316 E0.02929
G1 X136.988 Y116.769 E0.02574
G1 X136.174 Y116.943 E0.02612
G1 X113.903 Y116.946 E0.69829
G1 X113.028 Y116.776 E0.02793
G1 X112.297 Y116.282 E0.02766
G1 X111.761 Y115.551 E0.02840
G1 X111.556 Y114.701 E0.02743
G1 X111.555 Y95.394 E0.60535
G1 X111.736 Y94.556 E0.02690
G1 F8640
G1 X112.327 Y93.683 E-0.24338
G1 X113.012 Y93.230 E-0.18959
G1 X113.826 Y93.057 E-0.19218
G1 X114.410 Y93.057 E-0.13485
G1 E-0.04000 F2100.00000
G1 Z0.800 F10800.000
G1 X121.729 Y102.385
G1 Z0.200
G1 E0.80000 F2100.00000
G1 F1200
G1 X121.966 Y102.114 E0.01129
G1 X122.309 Y101.791 E0.01475
G1 X122.655 Y101.530 E0.01360
G1 X122.973 Y101.335 E0.01170
G1 X123.326 Y101.161 E0.01234
G1 X123.697 Y101.020 E0.01244
G1 X124.045 Y100.923 E0.01133
G1 X124.398 Y100.856 E0.01127
G1 X124.913 Y100.813 E0.01619
G1 X125.423 Y100.833 E0.01602
G1 X125.781 Y100.886 E0.01133
G1 X126.128 Y100.967 E0.01118
G1 X126.476 Y101.081 E0.01145
G1 X126.823 Y101.230 E0.01185
G1 X127.170 Y101.418 E0.01239
G1 X127.517 Y101.653 E0.01315
G1 X127.861 Y101.942 E0.01408
G1 X128.123 Y102.210 E0.01175
G1 X128.401 Y102.556 E0.01391
G1 X128.629 Y102.910 E0.01319
G1 X128.805 Y103.250 E0.01201
G1 X128.949 Y103.607 E0.01207
G1 X129.078 Y104.048 E0.01441
G1 X129.154 Y104.469 E0.01342
G1 X129.184 Y104.831 E0.01141
G1 X129.174 Y105.343 E0.01604
G1 X129.129 Y105.698 E0.01123
G1 X129.054 Y106.052 E0.01133
G1 X128.906 Y106.511 E0.01513
G1 X128.731 Y106.902 E0.01342
G1 X128.520 Y107.269 E0.01328
G1 X128.271 Y107.615 E0.01338
G1 X128.034 Y107.886 E0.01129
G1 X127.691 Y108.209 E0.01475
G1 X127.345 Y108.470 E0.01360
G1 X127.027 Y108.665 E0.01170
G1 X126.674 Y108.839 E0.01234
G1 X126.303 Y108.980 E0.01244
G1 X125.955 Y109.077 E0.01133
G1 X125.602 Y109.144 E0.01126
G1 X125.098 Y109.187 E0.01586
G1 X124.734 Y109.180 E0.01142
G1 X124.225 Y109.115 E0.01608
G1 X123.872 Y109.033 E0.01137
G1 X123.524 Y108.919 E0.01145
G1 X123.177 Y108.770 E0.01185
G1 X122.830 Y108.582 E0.01239
G1 X122.483 Y108.347 E0.01315
G1 X122.139 Y108.058 E0.01408
G1 X121.877 Y107.790 E0.01175
G1 X121.599 Y107.444 E0.01391
G1 X121.371 Y107.090 E0.01319
G1 X121.195 Y106.750 E0.01201
G1 X121.051 Y106.393 E0.01206
G1 X120.922 Y105.952 E0.01440
G1 X120.846 Y105.531 E0.01342
G1 X120.816 Y105.169 E0.01141
G1 X120.826 Y104.657 E0.01604
G1 X120.871 Y104.302 E0.01123
G1 X120.946 Y103.948 E0.01133
G1 X121.094 Y103.489 E0.01513
G1 X121.269 Y103.098 E0.01342
G1 X121.480 Y102.731 E0.01328
G1 X121.694 Y102.433 E0.01150
G1 X122.000 Y102.654 F10800.000
G1 F1200
G1 X122.238 Y102.375 E0.01147
G1 X122.552 Y102.080 E0.01352
G1 X122.868 Y101.842 E0.01239
G1 X123.156 Y101.666 E0.01059
G1 X123.477 Y101.507 E0.01124
G1 X123.815 Y101.379 E0.01134
G1 X124.131 Y101.290 E0.01029
G1 X124.449 Y101.230 E0.01015
G1 X124.921 Y101.190 E0.01483
G1 X125.388 Y101.209 E0.01466
G1 X125.711 Y101.257 E0.01021
G1 X126.026 Y101.331 E0.01017
G1 X126.342 Y101.434 E0.01042
G1 X126.658 Y101.570 E0.01078
G1 X126.974 Y101.741 E0.01127
G1 X127.290 Y101.955 E0.01196
G1 X127.605 Y102.219 E0.01289
G1 X127.841 Y102.461 E0.01059
G1 X128.095 Y102.777 E0.01272
G1 X128.302 Y103.099 E0.01201
G1 X128.462 Y103.408 E0.01090
G1 X128.593 Y103.731 E0.01093
G1 X128.711 Y104.134 E0.01318
G1 X128.780 Y104.518 E0.01223
G1 X128.807 Y104.843 E0.01023
G1 X128.797 Y105.315 E0.01480
G1 X128.757 Y105.635 E0.01011
G1 X128.689 Y105.954 E0.01023
G1 X128.553 Y106.376 E0.01389
G1 X128.395 Y106.730 E0.01217
G1 X128.203 Y107.064 E0.01207
G1 X127.975 Y107.381 E0.01223
G1 X127.762 Y107.625 E0.01015
G1 X127.448 Y107.920 E0.01352
G1 X127.132 Y108.158 E0.01239
G1 X126.844 Y108.334 E0.01059
G1 X126.523 Y108.493 E0.01124
G1 X126.185 Y108.621 E0.01134
G1 X125.869 Y108.710 E0.01029
G1 X125.551 Y108.770 E0.01015
G1 X125.086 Y108.809 E0.01463
G1 X124.761 Y108.803 E0.01018
G1 X124.291 Y108.744 E0.01484
G1 X123.974 Y108.669 E0.01024
G1 X123.658 Y108.566 E0.01042
G1 X123.342 Y108.430 E0.01078
G1 X123.026 Y108.259 E0.01127
G1 X122.710 Y108.045 E0.01196
G1 X122.395 Y107.781 E0.01289
G1 X122.159 Y107.539 E0.01059
G1 X121.905 Y107.223 E0.01272
G1 X121.698 Y106.901 E0.01201
G1 X121.538 Y106.592 E0.01090
G1 X121.407 Y106.269 E0.01093
G1 X121.289 Y105.866 E0.01318
G1 X121.220 Y105.482 E0.01223
G1 X121.193 Y105.157 E0.01023
G1 X121.203 Y104.685 E0.01480
G1 X121.243 Y104.365 E0.01011
G1 X121.311 Y104.046 E0.01023
G1 X121.447 Y103.624 E0.01389
G1 X121.605 Y103.270 E0.01217
G1 X121.797 Y102.936 E0.01207
G1 X121.965 Y102.702 E0.00902
G1 X121.863 Y102.315 F10800.000
G1 F8640
G1 X122.238 Y102.375 E-0.09829
G1 X122.552 Y102.080 E-0.09960
G1 X122.868 Y101.842 E-0.09123
G1 X123.156 Y101.666 E-0.07798
G1 X123.477 Y101.507 E-0.08281
G1 X123.815 Y101.379 E-0.08351
G1 X124.131 Y101.290 E-0.07581
G1 X124.449 Y101.230 E-0.07473
G1 X124.778 Y101.202 E-0.07604
G1 E-0.04000 F2100.00000
G1 Z0.800 F10800.000
G1 X114.658 Y96.158
G1 Z0.200
G1 E0.80000 F2100.00000
G1 F1200
G1 X135.342 Y96.158 E0.64851
G1 X135.342 Y113.842 E0.55449
G1 X114.658 Y113.842 E0.64851
G1 X114.658 Y96.218 E0.55258
G1 X114.281 Y95.781 F10800.000
G1 F1200
G1 X135.719 Y95.781 E0.67216
G1 X135.719 Y114.219 E0.57813
G1 X114.281 Y114.219 E0.67216
G1 X114.281 Y95.841 E0.57624
G1 X114.670 Y95.875 F10800.000
G1 F8640
G1 X117.573 Y95.832 E-0.76000
G1 E-0.04000 F2100.00000
G1 Z0.800 F10800.000
G1 X120.908 Y106.794
G1 Z0.200
G1 E0.80000 F2100.00000
G1 F1200
G1 X114.941 Y100.827 E0.26548
G1 X114.941 Y100.292 E0.01683
G1 X120.642 Y105.993 E0.25363
G1 X120.565 Y105.568 E0.01357
G1 X120.548 Y105.364 E0.00644
G1 X114.941 Y99.757 E0.24947
G1 X114.941 Y99.222 E0.01683
G1 X120.540 Y104.821 E0.24910
G1 X120.583 Y104.328 E0.01555
G1 X114.941 Y98.687 E0.25100
G1 X114.941 Y98.152 E0.01683
G1 X120.671 Y103.882 E0.25495
G1 X120.801 Y103.477 E0.01339
G1 X114.941 Y97.617 E0.26072
G1 X114.941 Y97.082 E0.01683
G1 X120.959 Y103.099 E0.26773
G1 X121.144 Y102.749 E0.01246
G1 X114.941 Y96.546 E0.27596
G1 X114.941 Y96.441 E0.00331
G1 X115.371 Y96.441 E0.01352
G1 X121.353 Y102.423 E0.26616
G1 X121.585 Y102.120 E0.01201
G1 X115.906 Y96.441 E0.25267
G1 X116.441 Y96.441 E0.01683
G1 X121.842 Y101.842 E0.24029
G1 X122.118 Y101.583 E0.01191
G1 X116.976 Y96.441 E0.22876
G1 X117.511 Y96.441 E0.01683
G1 X122.422 Y101.352 E0.21849
G1 X122.747 Y101.142 E0.01218
G1 X118.046 Y96.441 E0.20916
G1 X118.581 Y96.441 E0.01683
G1 X123.099 Y100.958 E0.20098
G1 X123.477 Y100.801 E0.01288
G1 X119.116 Y96.441 E0.19400
G1 X119.651 Y96.441 E0.01683
G1 X123.884 Y100.674 E0.18834
G1 X124.327 Y100.581 E0.01422
G1 X120.187 Y96.441 E0.18421
G1 X120.722 Y96.441 E0.01683
G1 X124.817 Y100.537 E0.18223
G1 X125.364 Y100.548 E0.01719
G1 X121.257 Y96.441 E0.18273
G1 X121.792 Y96.441 E0.01683
G1 X125.997 Y100.646 E0.18709
G1 X126.575 Y100.816 E0.01898
G1 X126.797 Y100.911 E0.00758
G1 X122.327 Y96.441 E0.19888
G1 X122.862 Y96.441 E0.01683
G1 X135.059 Y108.638 E0.54267
G1 X135.059 Y108.103 E0.01683
G1 X123.397 Y96.441 E0.51887
G1 X123.932 Y96.441 E0.01683
G1 X135.059 Y107.568 E0.49506
G1 X135.059 Y107.033 E0.01683
G1 X124.467 Y96.441 E0.47125
G1 X125.002 Y96.441 E0.01683
G1 X135.059 Y106.498 E0.44745
G1 X135.059 Y105.963 E0.01683
G1 X125.537 Y96.441 E0.42364
G1 X126.072 Y96.441 E0.01683
G1 X135.059 Y105.427 E0.39984
G1 X135.059 Y104.892 E0.01683
G1 X126.607 Y96.441 E0.37603
G1 X127.142 Y96.441 E0.01683
G1 X135.059 Y104.357 E0.35222
G1 X135.059 Y103.822 E0.01683
G1 X127.677 Y96.441 E0.32842
G1 X128.213 Y96.441 E0.01683
G1 X135.059 Y103.287 E0.30461
G1 X135.059 Y102.752 E0.01683
G1 X128.748 Y96.441 E0.28080
G1 X129.283 Y96.441 E0.01683
G1 X135.059 Y102.217 E0.25700
G1 X135.059 Y101.682 E0.01683
G1 X129.818 Y96.441 E0.23319
G1 X130.353 Y96.441 E0.01683
G1 X135.059 Y101.147 E0.20939
G1 X135.059 Y100.612 E0.01683
G1 X130.888 Y96.441 E0.18558
G1 X131.423 Y96.441 E0.01683
G1 X135.059 Y100.077 E0.16177
G1 X135.059 Y99.542 E0.01683
G1 X131.958 Y96.441 E0.13797
G1 X132.493 Y96.441 E0.01683
G1 X135.059 Y99.006 E0.11416
G1 X135.059 Y98.471 E0.01683
G1 X133.028 Y96.441 E0.09035
G1 X133.563 Y96.441 E0.01683
G1 X135.059 Y97.936 E0.06655
G1 X135.059 Y97.401 E0.01683
G1 X134.098 Y96.441 E0.04274
G1 X134.633 Y96.441 E0.01683
G1 X135.229 Y97.036 E0.02649
G1 F8640
G1 X134.633 Y96.441 E-0.19439
G1 X134.098 Y96.441 E-0.12355
G1 X135.059 Y97.401 E-0.31370
G1 X135.059 Y97.936 E-0.12355
G1 X135.044 Y97.922 E-0.00481
G1 E-0.04000 F2100.00000
G1 Z0.800 F10800.000
G1 X135.229 Y109.343
G1 Z0.200
G1 E0.80000 F2100.00000
G1 F1200
G1 X129.092 Y103.206 E0.27303
G1 X129.217 Y103.514 E0.01044
G1 X129.358 Y104.008 E0.01616
G1 X135.059 Y109.708 E0.25363
G1 X135.059 Y110.243 E0.01683
G1 X129.452 Y104.636 E0.24947
G1 X129.468 Y104.823 E0.00589
G1 X129.460 Y105.179 E0.01123
G1 X135.059 Y110.778 E0.24910
G1 X135.059 Y111.313 E0.01683
G1 X129.417 Y105.672 E0.25100
G1 X129.329 Y106.118 E0.01431
G1 X135.059 Y111.848 E0.25495
G1 X135.059 Y112.384 E0.01683
G1 X129.199 Y106.524 E0.26072
G1 X129.041 Y106.901 E0.01287
G1 X135.059 Y112.919 E0.26773
G1 X135.059 Y113.454 E0.01683
G1 X128.856 Y107.251 E0.27596
G1 X128.647 Y107.577 E0.01218
G1 X134.630 Y113.559 E0.26619
G1 X134.095 Y113.559 E0.01683
G1 X128.415 Y107.880 E0.25269
G1 X128.158 Y108.158 E0.01191
G1 X133.559 Y113.559 E0.24032
G1 X133.024 Y113.559 E0.01683
G1 X127.882 Y108.417 E0.22879
G1 X127.578 Y108.648 E0.01202
G1 X132.489 Y113.559 E0.21852
G1 X131.954 Y113.559 E0.01683
G1 X127.253 Y108.858 E0.20919
G1 X126.901 Y109.042 E0.01247
G1 X131.419 Y113.559 E0.20100
G1 X130.884 Y113.559 E0.01683
G1 X126.523 Y109.199 E0.19403
G1 X126.115 Y109.326 E0.01344
G1 X130.349 Y113.559 E0.18836
G1 X129.814 Y113.559 E0.01683
G1 X125.673 Y109.419 E0.18423
G1 X125.183 Y109.463 E0.01549
G1 X129.279 Y113.559 E0.18224
G1 X128.744 Y113.559 E0.01683
G1 X124.637 Y109.452 E0.18273
G1 X124.175 Y109.394 E0.01465
G1 X124.003 Y109.354 E0.00554
G1 X128.209 Y113.559 E0.18711
G1 X127.674 Y113.559 E0.01683
G1 X123.203 Y109.089 E0.19891
G1 F8640
G1 X125.530 Y111.416 E-0.76000
G1 E-0.04000 F2100.00000
G1 Z0.800 F10800.000
G1 X127.308 Y113.729
G1 Z0.200
G1 E0.80000 F2100.00000
G1 F1200
G1 X114.941 Y101.362 E0.55024
G1 X114.941 Y101.897 E0.01683
G1 X126.603 Y113.559 E0.51888
G1 X126.068 Y113.559 E0.01683
G1 X114.941 Y102.432 E0.49507
G1 X114.941 Y102.967 E0.01683
G1 X125.533 Y113.559 E0.47127
G1 X124.998 Y113.559 E0.01683
G1 X114.941 Y103.502 E0.44746
M73 Q5 S17
M73 P5 R17
G1 X114.941 Y104.038 E0.01683
G1 X124.463 Y113.559 E0.42365
G1 X123.928 Y113.559 E0.01683
G1 X114.941 Y104.573 E0.39984
G1 X114.941 Y105.108 E0.01683
G1 X123.393 Y113.559 E0.37604
G1 X122.858 Y113.559 E0.01683
G1 X114.941 Y105.643 E0.35223
G1 X114.941 Y106.178 E0.01683
G1 X122.323 Y113.559 E0.32842
G1 X121.788 Y113.559 E0.01683
G1 X114.941 Y106.713 E0.30462
G1 X114.941 Y107.248 E0.01683
G1 X121.253 Y113.559 E0.28081
G1 X120.717 Y113.559 E0.01683
G1 X114.941 Y107.783 E0.25700
G1 X114.941 Y108.318 E0.01683
G1 X120.182 Y113.559 E0.23320
G1 X119.647 Y113.559 E0.01683
G1 X114.941 Y108.853 E0.20939
G1 X114.941 Y109.388 E0.01683
G1 X119.112 Y113.559 E0.18558
G1 X118.577 Y113.559 E0.01683
G1 X114.941 Y109.923 E0.16177
G1 X114.941 Y110.459 E0.01683
G1 X118.042 Y113.559 E0.13797
G1 X117.507 Y113.559 E0.01683
G1 X114.941 Y110.994 E0.11416
G1 X114.941 Y111.529 E0.01683
G1 X116.972 Y113.559 E0.09035
G1 X116.437 Y113.559 E0.01683
G1 X114.941 Y112.064 E0.06655
G1 X114.941 Y112.599 E0.01683
G1 X115.902 Y113.559 E0.04274
G1 X115.367 Y113.559 E0.01683
G1 X114.771 Y112.964 E0.02648
G1 F8640
G1 X115.367 Y113.559 E-0.19436
G1 X115.902 Y113.559 E-0.12355
G1 X114.941 Y112.599 E-0.31368
G1 X114.941 Y112.064 E-0.12355
G1 X114.956 Y112.079 E-0.00485
G1 E-0.04000 F2100.00000
G1 Z0.800 F10800.000
G1 X121.619 Y107.469
G1 Z0.200
G1 E0.80000 F2100.00000
G1 F1200
G1 X121.371 Y107.090 E0.01420
G1 X121.195 Y106.750 E0.01201
G1 X121.051 Y106.393 E0.01206
G1 X120.922 Y105.952 E0.01440
G1 X120.846 Y105.531 E0.01342
G1 X120.816 Y105.169 E0.01141
G1 X120.826 Y104.657 E0.01604
G1 X120.871 Y104.302 E0.01123
G1 X120.946 Y103.948 E0.01133
G1 X121.094 Y103.489 E0.01513
G1 X121.269 Y103.098 E0.01342
G1 X121.480 Y102.731 E0.01328
G1 X121.729 Y102.385 E0.01338
G1 X121.966 Y102.114 E0.01129
G1 X122.309 Y101.791 E0.01475
G1 X122.655 Y101.530 E0.01360
G1 X122.973 Y101.335 E0.01170
G1 X123.326 Y101.161 E0.01234
G1 X123.697 Y101.020 E0.01244
G1 X124.045 Y100.923 E0.01133
G1 X124.398 Y100.856 E0.01127
G1 X124.913 Y100.813 E0.01619
G1 X125.423 Y100.833 E0.01602
G1 X125.781 Y100.886 E0.01133
G1 X126.128 Y100.967 E0.01118
G1 X126.476 Y101.081 E0.01145
G1 X126.823 Y101.230 E0.01185
G1 X127.170 Y101.418 E0.01239
G1 X127.517 Y101.653 E0.01315
G1 X127.861 Y101.942 E0.01408
G1 X128.123 Y102.210 E0.01175
G1 X128.401 Y102.556 E0.01391
G1 X128.629 Y102.910 E0.01319
G1 X128.805 Y103.250 E0.01201
G1 X128.949 Y103.607 E0.01207
G1 X129.078 Y104.048 E0.01441
G1 X129.154 Y104.469 E0.01342
G1 X129.184 Y104.831 E0.01141
G1 X129.174 Y105.343 E0.01604
G1 X129.129 Y105.698 E0.01123
G1 X129.054 Y106.052 E0.01133
G1 X128.906 Y106.511 E0.01513
G1 X128.731 Y106.902 E0.01342
G1 X128.520 Y107.269 E0.01328
G1 X128.271 Y107.615 E0.01338
G1 X128.034 Y107.886 E0.01129
G1 X127.691 Y108.209 E0.01475
G1 X127.345 Y108.470 E0.01360
G1 X127.027 Y108.665 E0.01170
G1 X126.674 Y108.839 E0.01234
G1 X126.303 Y108.980 E0.01244
G1 X125.955 Y109.077 E0.01133
G1 X125.602 Y109.144 E0.01126
G1 X125.098 Y109.187 E0.01586
G1 X124.734 Y109.180 E0.01142
G1 X124.225 Y109.115 E0.01608
G1 X123.872 Y109.033 E0.01137
G1 X123.524 Y108.919 E0.01145
