; generated by Slic3r Prusa Edition 1.42.0-beta2+ on 2019-04-26 at 17:12:27

; 

; external perimeters extrusion width = 0.45mm
; perimeters extrusion width = 0.45mm
; infill extrusion width = 0.45mm
; solid infill extrusion width = 0.45mm
; top infill extrusion width = 0.40mm
; first layer extrusion width = 0.42mm

M73 P0 R3
M73 Q0 S3
M201 X1000 Y1000 Z1000 E5000 ; sets maximum accelerations, mm/sec^2
M203 X200 Y200 Z12 E120 ; sets maximum feedrates, mm/sec
M204 P1250 R1250 T1250 ; sets acceleration (P, T) and retract acceleration (R), mm/sec^2
M205 X8.00 Y8.00 Z0.40 E1.50 ; sets the jerk limits, mm/sec
M205 S0 T0 ; sets the minimum extruding and travel feed rate, mm/sec
M107
M115 U3.6.0 ; tell printer latest fw version
M83  ; extruder relative mode
M104 S215 ; set extruder temp
M140 S60 ; set bed temp
M190 S60 ; wait for bed temp
M109 S215 ; wait for extruder temp
G28 W ; home all without mesh bed level
G80 ; mesh bed leveling
G1 Y-3.0 F1000.0 ; go outside print area
G92 E0.0
G1 X60.0 E9.0  F1000.0 ; intro line
M73 Q1 S3
M73 P1 R3
G1 X100.0 E12.5  F1000.0 ; intro line
G92 E0.0
M221 S95
M900 K30 ; Filament gcode
G21 ; set units to millimeters
G90 ; use absolute coordinates
M83 ; use relative distances for extrusion
;BEFORE_LAYER_CHANGE
G92 E0.0
;0.2


G1 E-0.80000 F2100.00000
G1 Z0.600 F10800.000
;AFTER_LAYER_CHANGE
;0.2
G1 X116.871 Y97.296
G1 Z0.200
G1 E0.80000 F2100.00000
M204 S1000
G1 F1200
G1 X117.874 Y97.066 E0.03226
G1 X131.974 Y97.057 E0.44211
G1 X133.015 Y97.249 E0.03317
G1 X133.936 Y97.801 E0.03367
G1 X134.593 Y98.625 E0.03304
G1 X134.917 Y99.627 E0.03304
G1 X134.935 Y110.198 E0.33142
G1 X134.843 Y110.740 E0.01725
G1 X134.652 Y111.256 E0.01725
G1 X134.369 Y111.727 E0.01725
G1 X133.999 Y112.141 E0.01738
G1 X133.125 Y112.707 E0.03266
G1 X132.122 Y112.938 E0.03226
G1 X118.004 Y112.943 E0.44268
G1 X117.407 Y112.876 E0.01884
G1 X116.835 Y112.690 E0.01884
G1 X116.293 Y112.381 E0.01957
G1 X115.839 Y111.981 E0.01897
G1 X115.295 Y111.142 E0.03134
G1 X115.064 Y110.174 E0.03121
G1 X115.057 Y99.984 E0.31950
G1 X115.125 Y99.392 E0.01870
G1 X115.310 Y98.825 E0.01870
G1 X115.606 Y98.307 E0.01870
G1 X116.001 Y97.859 E0.01870
G1 X116.821 Y97.328 E0.03063
G1 X117.021 Y97.646 F10800.000
G1 F1200
G1 X117.908 Y97.441 E0.02855
G1 X131.974 Y97.434 E0.44102
G1 X132.887 Y97.604 E0.02912
G1 X133.700 Y98.095 E0.02976
G1 X134.273 Y98.826 E0.02912
G1 X134.547 Y99.709 E0.02900
G1 X134.560 Y110.154 E0.32751
G1 X134.307 Y111.104 E0.03083
G1 X133.715 Y111.890 E0.03083
G1 X132.951 Y112.371 E0.02830
G1 X132.082 Y112.562 E0.02790
G1 X118.001 Y112.565 E0.44150
G1 X117.472 Y112.504 E0.01672
G1 X116.966 Y112.335 E0.01672
G1 X116.488 Y112.056 E0.01734
G1 X116.090 Y111.696 E0.01684
G1 X115.630 Y110.966 E0.02704
G1 X115.438 Y110.125 E0.02704
G1 X115.435 Y99.984 E0.31798
G1 X115.496 Y99.458 E0.01660
G1 X115.665 Y98.956 E0.01660
G1 X115.932 Y98.500 E0.01660
G1 X116.285 Y98.110 E0.01647
G1 X116.971 Y97.678 E0.02541
G1 F8640
G1 X117.908 Y97.441 E-0.22338
G1 X120.233 Y97.440 E-0.53662
G1 E-0.04000 F2100.00000
G1 Z0.800 F10800.000
G1 X116.015 Y99.097
G1 Z0.200
G1 E0.80000 F2100.00000
G1 F1200
G1 X116.562 Y98.369 E0.02855
G1 X117.207 Y97.973 E0.02374
G1 X117.940 Y97.817 E0.02349
G1 X131.974 Y97.811 E0.44002
G1 X132.760 Y97.959 E0.02507
G1 X133.461 Y98.387 E0.02575
G1 X133.949 Y99.020 E0.02507
G1 X134.176 Y99.787 E0.02507
G1 X134.184 Y110.118 E0.32393
G1 X133.963 Y110.949 E0.02698
G1 X133.438 Y111.631 E0.02698
G1 X132.786 Y112.031 E0.02396
G1 X132.053 Y112.186 E0.02349
G1 X118.000 Y112.188 E0.44064
G1 X117.105 Y111.984 E0.02878
G1 X116.350 Y111.421 E0.02954
G1 X115.970 Y110.800 E0.02281
G1 X115.814 Y110.086 E0.02293
G1 X115.812 Y99.984 E0.31673
G1 X116.002 Y99.155 E0.02667
G1 F8640
G1 X116.562 Y98.369 E-0.22300
G1 X117.207 Y97.973 E-0.17479
G1 X117.940 Y97.817 E-0.17299
G1 X118.760 Y97.817 E-0.18922
G1 E-0.04000 F2100.00000
G1 Z0.800 F10800.000
G1 X124.145 Y103.194
G1 Z0.200
G1 E0.80000 F2100.00000
G1 F1200
G1 X124.304 Y102.926 E0.00976
G1 X124.526 Y102.619 E0.01188
G1 X124.776 Y102.336 E0.01183
G1 X125.089 Y102.049 E0.01333
G1 X125.394 Y101.825 E0.01185
G1 X125.718 Y101.631 E0.01187
G1 X125.979 Y101.507 E0.00905
G1 X126.348 Y101.368 E0.01236
G1 X126.664 Y101.283 E0.01024
G1 X126.980 Y101.225 E0.01008
G1 X127.406 Y101.191 E0.01342
G1 X127.764 Y101.199 E0.01122
G1 X128.080 Y101.234 E0.00997
G1 X128.439 Y101.307 E0.01146
G1 X128.865 Y101.443 E0.01404
G1 X129.181 Y101.581 E0.01081
G1 X129.497 Y101.755 E0.01129
G1 X129.828 Y101.983 E0.01262
G1 X130.125 Y102.238 E0.01226
G1 X130.341 Y102.461 E0.00974
G1 X130.597 Y102.780 E0.01284
G1 X130.800 Y103.095 E0.01174
G1 X130.963 Y103.412 E0.01119
G1 X131.092 Y103.730 E0.01074
G1 X131.189 Y104.047 E0.01040
G1 X131.259 Y104.367 E0.01027
G1 X131.307 Y104.841 E0.01494
G1 X131.299 Y105.315 E0.01487
G1 X131.258 Y105.636 E0.01013
G1 X131.189 Y105.954 E0.01021
G1 X131.070 Y106.333 E0.01245
G1 X130.913 Y106.695 E0.01237
G1 X130.754 Y106.983 E0.01032
G1 X130.476 Y107.379 E0.01517
G1 X130.281 Y107.604 E0.00933
G1 X129.968 Y107.903 E0.01356
G1 X129.654 Y108.143 E0.01242
G1 X129.345 Y108.334 E0.01139
G1 X129.024 Y108.492 E0.01123
G1 X128.710 Y108.613 E0.01055
G1 X128.393 Y108.705 E0.01035
G1 X127.924 Y108.787 E0.01490
G1 X127.606 Y108.809 E0.01002
G1 X127.138 Y108.793 E0.01468
G1 X126.821 Y108.749 E0.01004
G1 X126.506 Y108.678 E0.01011
G1 X126.192 Y108.578 E0.01034
G1 X125.877 Y108.447 E0.01070
G1 X125.562 Y108.280 E0.01117
G1 X125.247 Y108.073 E0.01182
G1 X124.933 Y107.816 E0.01273
G1 X124.660 Y107.540 E0.01217
G1 X124.405 Y107.223 E0.01274
G1 X124.200 Y106.905 E0.01185
G1 X124.036 Y106.588 E0.01121
G1 X123.908 Y106.270 E0.01074
G1 X123.810 Y105.951 E0.01049
G1 X123.720 Y105.478 E0.01507
G1 X123.693 Y105.157 E0.01013
G1 X123.703 Y104.685 E0.01480
G1 X123.743 Y104.364 E0.01014
G1 X123.831 Y103.971 E0.01261
G1 X123.968 Y103.571 E0.01325
G1 X124.120 Y103.248 E0.01120
G1 X123.979 Y102.930 F10800.000
G1 F8640
G1 X124.304 Y102.926 E-0.08565
G1 X124.526 Y102.619 E-0.08749
G1 X124.776 Y102.336 E-0.08715
G1 X125.089 Y102.049 E-0.09816
G1 X125.394 Y101.825 E-0.08723
G1 X125.718 Y101.631 E-0.08739
G1 X125.979 Y101.507 E-0.06666
G1 X126.348 Y101.368 E-0.09101
G1 X126.638 Y101.290 E-0.06925
G1 E-0.04000 F2100.00000
G1 Z0.800 F10800.000
G1 X120.837 Y107.187
G1 Z0.200
G1 E0.80000 F2100.00000
G1 F1200
G1 X120.837 Y102.812 E0.13717
G1 X118.587 Y102.811 E0.07055
G1 X118.587 Y100.588 E0.06972
G1 X131.406 Y100.599 E0.40191
G1 X131.408 Y103.505 E0.09112
G1 X131.306 Y103.255 E0.00846
G1 X131.127 Y102.906 E0.01230
G1 X130.903 Y102.560 E0.01293
G1 X130.624 Y102.211 E0.01400
G1 X130.383 Y101.963 E0.01085
G1 X130.058 Y101.684 E0.01342
G1 X129.695 Y101.434 E0.01383
G1 X129.348 Y101.242 E0.01244
G1 X128.998 Y101.090 E0.01196
G1 X128.534 Y100.942 E0.01528
G1 X128.139 Y100.861 E0.01263
G1 X127.789 Y100.822 E0.01103
G1 X127.395 Y100.814 E0.01235
G1 X126.931 Y100.851 E0.01461
G1 X126.581 Y100.915 E0.01117
G1 X126.233 Y101.009 E0.01130
G1 X125.831 Y101.159 E0.01343
G1 X125.540 Y101.298 E0.01011
G1 X125.184 Y101.511 E0.01299
G1 X124.850 Y101.757 E0.01304
G1 X124.507 Y102.071 E0.01458
G1 X124.231 Y102.383 E0.01305
G1 X123.988 Y102.719 E0.01300
G1 X123.812 Y103.017 E0.01085
G1 X123.617 Y103.430 E0.01431
G1 X123.468 Y103.869 E0.01455
G1 X123.371 Y104.299 E0.01381
G1 X123.326 Y104.657 E0.01132
G1 X123.316 Y105.168 E0.01604
G1 X123.346 Y105.529 E0.01136
G1 X123.443 Y106.041 E0.01634
G1 X123.552 Y106.397 E0.01166
G1 X123.693 Y106.745 E0.01179
G1 X123.874 Y107.095 E0.01232
G1 X124.099 Y107.444 E0.01303
G1 X124.378 Y107.791 E0.01397
G1 X124.679 Y108.095 E0.01340
G1 X125.023 Y108.377 E0.01396
G1 X125.369 Y108.605 E0.01300
G1 X125.715 Y108.788 E0.01228
G1 X126.062 Y108.933 E0.01177
G1 X126.408 Y109.042 E0.01136
G1 X126.753 Y109.120 E0.01111
G1 X127.105 Y109.169 E0.01116
G1 X127.612 Y109.186 E0.01590
G1 X127.970 Y109.161 E0.01124
G1 X128.478 Y109.073 E0.01615
G1 X128.830 Y108.971 E0.01150
G1 X129.175 Y108.838 E0.01159
G1 X129.528 Y108.664 E0.01233
G1 X129.868 Y108.454 E0.01254
G1 X130.214 Y108.190 E0.01366
G1 X130.555 Y107.865 E0.01477
G1 X130.774 Y107.611 E0.01050
G1 X131.074 Y107.183 E0.01641
G1 X131.251 Y106.861 E0.01151
G1 X131.410 Y106.495 E0.01251
G1 X131.412 Y109.413 E0.09148
G1 X118.587 Y109.413 E0.40213
G1 X118.587 Y107.189 E0.06974
G1 X120.777 Y107.187 E0.06866
G1 X120.460 Y106.810 F10800.000
G1 F1200
G1 X118.540 Y106.812 E0.06019
G1 X118.540 Y103.188 E0.11361
G1 X120.460 Y103.189 E0.06020
G1 X120.460 Y106.750 E0.11166
G1 X120.525 Y107.204 F10800.000
G1 F8640
G1 X118.540 Y106.812 E-0.44352
G1 X118.540 Y105.441 E-0.31648
G1 E-0.04000 F2100.00000
G1 Z0.800 F10800.000
G1 X118.210 Y109.790
G1 Z0.200
G1 E0.80000 F2100.00000
G1 F1200
G1 X118.210 Y100.210 E0.30037
G1 X131.782 Y100.222 E0.42555
G1 X131.790 Y109.790 E0.30000
G1 X118.270 Y109.790 E0.42391
G1 X118.335 Y109.410 F10800.000
G1 F8640
G1 X118.249 Y106.499 E-0.76000
G1 E-0.04000 F2100.00000
G1 Z0.800 F10800.000
G1 X118.700 Y108.516
G1 Z0.200
G1 E0.80000 F2100.00000
G1 F1200
G1 X119.315 Y109.130 E0.02799
G1 X119.862 Y109.130 E0.01765
G1 X118.870 Y108.138 E0.04522
G1 X118.870 Y107.590 E0.01765
G1 X120.410 Y109.130 E0.07018
G1 X120.958 Y109.130 E0.01765
G1 X119.299 Y107.471 E0.07560
G1 X119.846 Y107.470 E0.01763
G1 X121.506 Y109.130 E0.07562
G1 X122.054 Y109.130 E0.01765
G1 X120.394 Y107.470 E0.07565
G1 X120.941 Y107.469 E0.01763
G1 X122.602 Y109.130 E0.07567
G1 X123.150 Y109.130 E0.01765
G1 X121.120 Y107.100 E0.09250
G1 X121.120 Y106.552 E0.01765
G1 X123.698 Y109.130 E0.11746
G1 X124.246 Y109.130 E0.01765
G1 X121.120 Y106.004 E0.14242
G1 X121.120 Y105.456 E0.01765
G1 X124.794 Y109.130 E0.16738
G1 X125.262 Y109.130 E0.01510
G1 X125.275 Y109.063 E0.00219
G1 X121.120 Y104.908 E0.18930
G1 X121.120 Y104.361 E0.01765
G1 X123.309 Y106.550 E0.09974
G1 X123.168 Y106.110 E0.01489
G1 X123.110 Y105.803 E0.01007
G1 X121.120 Y103.813 E0.09066
G1 X121.120 Y103.265 E0.01765
G1 X123.218 Y105.363 E0.09560
G1 F8640
G1 X121.120 Y103.265 E-0.68525
G1 X121.120 Y103.589 E-0.07475
G1 E-0.04000 F2100.00000
G1 Z0.800 F10800.000
G1 X125.595 Y108.940
G1 Z0.200
G1 E0.80000 F2100.00000
G1 F1200
G1 X125.730 Y109.224 E0.00197
G1 X125.557 Y109.091 F10800.000
G1 F1200
G1 X126.220 Y109.203 E0.00467
G1 F8640
G1 X125.557 Y109.091 E-0.15520
G1 E-0.64480 F2100.00000
G1 Z0.800 F10800.000
G1 X128.785 Y109.203
G1 Z0.200
G1 E0.80000 F2100.00000
G1 F1200
G1 X128.904 Y109.186 E0.00077
G1 X129.033 Y109.162 E0.00136
G1 X129.162 Y109.138 E0.00188
G1 X129.300 Y109.112 E0.00264
G1 X129.443 Y109.079 E0.00289
G1 X129.746 Y108.662 F10800.000
G1 F1200
G1 X130.213 Y109.130 E0.02091
G1 X130.751 Y109.130 E0.01699
G1 X130.187 Y108.566 E0.02521
G1 X130.483 Y108.324 E0.01207
G1 X131.129 Y108.971 E0.02891
G1 X131.129 Y108.433 E0.01701
G1 X130.758 Y108.062 E0.01659
G1 X131.006 Y107.773 E0.01205
G1 X131.298 Y108.065 E0.01306
G1 F8640
G1 X131.006 Y107.773 E-0.09538
G1 X130.758 Y108.062 E-0.08802
G1 X131.129 Y108.433 E-0.12121
G1 X131.129 Y108.971 E-0.12423
G1 X130.483 Y108.324 E-0.21120
G1 X130.187 Y108.566 E-0.08821
G1 X130.284 Y108.663 E-0.03176
G1 E-0.04000 F2100.00000
G1 Z0.800 F10800.000
G1 X131.440 Y106.309
G1 Z0.200
G1 E0.80000 F2100.00000
G1 F1200
G1 X131.482 Y106.037 E0.00627
G1 X131.502 Y105.856 E0.00353
G1 X131.520 Y105.684 E0.00276
G1 X131.542 Y105.336 E0.00453
G1 X131.547 Y104.834 E0.00463
G1 X131.502 Y104.148 E0.00582
G1 X131.440 Y103.691 E0.00874
G1 F8640
G1 X131.502 Y104.148 E-0.10656
G1 E-0.69344 F2100.00000
G1 Z0.800 F10800.000
G1 X131.294 Y102.135
G1 Z0.200
G1 E0.80000 F2100.00000
G1 F1200
G1 X130.039 Y100.880 E0.06090
G1 X130.623 Y100.881 E0.02006
G1 X131.293 Y101.550 E0.03251
G1 F8640
G1 X130.623 Y100.881 E-0.21868
G1 X130.039 Y100.880 E-0.13492
G1 X131.284 Y102.125 E-0.40640
G1 E-0.04000 F2100.00000
G1 Z0.800 F10800.000
G1 X129.462 Y100.920
G1 Z0.200
G1 E0.80000 F2100.00000
G1 F1200
G1 X128.942 Y100.829 E0.00586
G1 X128.800 Y100.806 E0.00109
G1 F8640
G1 X128.942 Y100.829 E-0.03324
G1 E-0.76676 F2100.00000
G1 Z0.800 F10800.000
G1 X126.184 Y100.803
G1 Z0.200
G1 E0.80000 F2100.00000
G1 F1200
G1 X125.837 Y100.866 E0.00265
G1 X125.536 Y100.925 E0.00534
G1 X125.232 Y101.350 F10800.000
G1 F1200
G1 X124.758 Y100.876 E0.02162
G1 X124.209 Y100.875 E0.01767
G1 X124.787 Y101.453 E0.02630
G1 X124.490 Y101.703 E0.01252
G1 X123.661 Y100.875 E0.03775
G1 X123.113 Y100.874 E0.01767
G1 X124.214 Y101.975 E0.05016
G1 X123.962 Y102.272 E0.01252
G1 X122.564 Y100.874 E0.06369
G1 X122.016 Y100.873 E0.01767
G1 X123.735 Y102.592 E0.07830
G1 X123.535 Y102.940 E0.01293
G1 X121.467 Y100.873 E0.09420
G1 X120.919 Y100.872 E0.01767
G1 X123.360 Y103.313 E0.11119
G1 X123.219 Y103.721 E0.01389
G1 X120.371 Y100.872 E0.12978
G1 X119.822 Y100.871 E0.01767
G1 X123.112 Y104.161 E0.14989
G1 X123.044 Y104.641 E0.01560
G1 X119.274 Y100.871 E0.17174
G1 X118.870 Y100.871 E0.01302
G1 X118.870 Y101.015 E0.00464
G1 X120.384 Y102.529 E0.06897
G1 X119.836 Y102.529 E0.01765
G1 X118.870 Y101.563 E0.04401
G1 X118.870 Y102.111 E0.01765
G1 X119.457 Y102.698 E0.02677
M106 S255
;BEFORE_LAYER_CHANGE
G92 E0.0
;0.3


G1 F8640
G1 X118.870 Y102.111 E-0.19188
G1 X118.870 Y101.563 E-0.12651
G1 X119.836 Y102.529 E-0.31542
G1 X120.382 Y102.529 E-0.12618
G1 E-0.04000 F2100.00000
G1 Z0.800 F10800.000
;AFTER_LAYER_CHANGE
;0.3
M104 S210 ; set temperature
G1 X116.871 Y97.296
G1 Z0.300
G1 E0.80000 F2100.00000
G1 F961
G1 X117.874 Y97.066 E0.01705
G1 X131.974 Y97.057 E0.23364
G1 X133.015 Y97.249 E0.01753
G1 X133.936 Y97.801 E0.01779
G1 X134.593 Y98.625 E0.01746
G1 X134.917 Y99.627 E0.01746
G1 X134.935 Y110.198 E0.17514
G1 X134.843 Y110.740 E0.00912
G1 X134.652 Y111.256 E0.00912
G1 X134.369 Y111.727 E0.00912
G1 X133.999 Y112.141 E0.00919
G1 X133.125 Y112.707 E0.01726
G1 X132.122 Y112.938 E0.01705
G1 X118.004 Y112.943 E0.23394
G1 X117.407 Y112.876 E0.00995
G1 X116.835 Y112.690 E0.00995
G1 X116.293 Y112.381 E0.01034
G1 X115.839 Y111.981 E0.01002
G1 X115.295 Y111.142 E0.01656
G1 X115.064 Y110.174 E0.01649
G1 X115.057 Y99.984 E0.16884
G1 X115.125 Y99.392 E0.00988
G1 X115.310 Y98.825 E0.00988
G1 X115.606 Y98.307 E0.00988
G1 X116.001 Y97.859 E0.00988
G1 X116.821 Y97.328 E0.01619
G1 F8640
G1 X117.874 Y97.066 E-0.25061
G1 X120.080 Y97.064 E-0.50939
G1 E-0.04000 F2100.00000
G1 Z0.900 F10800.000
G1 X124.385 Y102.788
G1 Z0.300
G1 E0.80000 F2100.00000
M204 S800
G1 F961
G1 X124.514 Y102.609 E0.00394
G1 X124.765 Y102.325 E0.00675
G1 X125.080 Y102.038 E0.00760
G1 X125.385 Y101.813 E0.00674
G1 X125.649 Y101.653 E0.00551
G1 X125.972 Y101.493 E0.00642
G1 X126.343 Y101.354 E0.00707
G1 X126.660 Y101.268 E0.00585
G1 X126.978 Y101.211 E0.00575
G1 X127.406 Y101.176 E0.00765
G1 X127.765 Y101.184 E0.00640
G1 X128.085 Y101.220 E0.00572
G1 X128.554 Y101.323 E0.00856
G1 X128.872 Y101.429 E0.00598
G1 X129.188 Y101.567 E0.00614
G1 X129.504 Y101.742 E0.00644
G1 X129.837 Y101.972 E0.00720
G1 X130.135 Y102.227 E0.00699
G1 X130.352 Y102.451 E0.00556
G1 X130.609 Y102.772 E0.00733
G1 X130.813 Y103.087 E0.00668
G1 X130.977 Y103.406 E0.00639
G1 X131.106 Y103.725 E0.00613
G1 X131.204 Y104.044 E0.00594
G1 X131.272 Y104.365 E0.00585
G1 X131.322 Y104.841 E0.00852
G1 X131.312 Y105.316 E0.00848
G1 X131.272 Y105.638 E0.00577
G1 X131.204 Y105.957 E0.00583
G1 X131.084 Y106.338 E0.00711
G1 X130.926 Y106.701 E0.00706
G1 X130.766 Y106.991 E0.00589
G1 X130.488 Y107.389 E0.00865
G1 X130.292 Y107.615 E0.00533
G1 X129.978 Y107.914 E0.00773
G1 X129.662 Y108.156 E0.00709
G1 X129.352 Y108.347 E0.00650
G1 X129.030 Y108.506 E0.00640
G1 X128.714 Y108.627 E0.00602
G1 X128.398 Y108.718 E0.00586
G1 X128.080 Y108.781 E0.00578
G1 X127.608 Y108.824 E0.00844
G1 X127.136 Y108.808 E0.00841
G1 X126.818 Y108.764 E0.00572
G1 X126.502 Y108.693 E0.00577
G1 X126.186 Y108.593 E0.00591
G1 X125.870 Y108.461 E0.00610
G1 X125.554 Y108.293 E0.00637
G1 X125.238 Y108.085 E0.00675
G1 X124.923 Y107.827 E0.00726
G1 X124.649 Y107.550 E0.00694
G1 X124.393 Y107.232 E0.00727
G1 X124.187 Y106.913 E0.00676
G1 X124.023 Y106.594 E0.00639
G1 X123.894 Y106.275 E0.00613
G1 X123.796 Y105.956 E0.00594
G1 X123.728 Y105.635 E0.00585
G1 X123.678 Y105.159 E0.00852
G1 X123.688 Y104.684 E0.00848
