; generated by Slic3r Prusa Edition 1.42.0-beta2+ on 2019-04-26 at 17:27:22

; 

; external perimeters extrusion width = 0.45mm
; perimeters extrusion width = 0.45mm
; infill extrusion width = 0.45mm
; solid infill extrusion width = 0.45mm
; top infill extrusion width = 0.40mm
; first layer extrusion width = 0.42mm

M73 P0 R3
M73 Q0 S3
M201 X1000 Y1000 Z1000 E5000 ; sets maximum accelerations, mm/sec^2
M203 X200 Y200 Z12 E120 ; sets maximum feedrates, mm/sec
M204 P1250 R1250 T1250 ; sets acceleration (P, T) and retract acceleration (R), mm/sec^2
M205 X8.00 Y8.00 Z0.40 E1.50 ; sets the jerk limits, mm/sec
M205 S0 T0 ; sets the minimum extruding and travel feed rate, mm/sec
M107
M115 U3.6.0 ; tell printer latest fw version
M83  ; extruder relative mode
M104 S215 ; set extruder temp
M140 S60 ; set bed temp
M190 S60 ; wait for bed temp
M109 S215 ; wait for extruder temp
G28 W ; home all without mesh bed level
G80 ; mesh bed leveling
G1 Y-3.0 F1000.0 ; go outside print area
G92 E0.0
G1 X60.0 E9.0  F1000.0 ; intro line
M73 Q1 S3
M73 P1 R3
G1 X100.0 E12.5  F1000.0 ; intro line
G92 E0.0
M221 S95
M900 K30 ; Filament gcode
G21 ; set units to millimeters
G90 ; use absolute coordinates
M83 ; use relative distances for extrusion
;BEFORE_LAYER_CHANGE
G92 E0.0
;0.2


G1 E-0.80000 F2100.00000
G1 Z0.600 F10800.000
;AFTER_LAYER_CHANGE
;0.2
G1 X116.872 Y97.296
G1 Z0.200
G1 E0.80000 F2100.00000
M204 S1000
G1 F1200
G1 X117.871 Y97.066 E0.03213
G1 X131.974 Y97.057 E0.44221
G1 X133.015 Y97.249 E0.03317
G1 X133.936 Y97.801 E0.03367
G1 X134.593 Y98.625 E0.03304
G1 X134.917 Y99.627 E0.03304
G1 X134.935 Y110.199 E0.33146
G1 X134.843 Y110.741 E0.01725
G1 X134.652 Y111.257 E0.01725
G1 X134.366 Y111.732 E0.01738
G1 X133.999 Y112.142 E0.01725
G1 X133.120 Y112.709 E0.03281
G1 X132.117 Y112.939 E0.03226
G1 X118.004 Y112.943 E0.44252
G1 X117.406 Y112.876 E0.01884
G1 X116.835 Y112.690 E0.01884
G1 X116.293 Y112.381 E0.01956
G1 X115.839 Y111.981 E0.01897
G1 X115.295 Y111.142 E0.03134
G1 X115.064 Y110.174 E0.03121
G1 X115.057 Y99.983 E0.31954
G1 X115.125 Y99.390 E0.01870
G1 X115.310 Y98.823 E0.01870
G1 X115.606 Y98.306 E0.01870
G1 X116.001 Y97.858 E0.01870
G1 X116.822 Y97.328 E0.03063
G1 X117.022 Y97.647 F10800.000
G1 F1200
G1 X117.910 Y97.442 E0.02858
G1 X131.974 Y97.434 E0.44097
G1 X132.887 Y97.604 E0.02912
G1 X133.700 Y98.095 E0.02976
G1 X134.273 Y98.826 E0.02912
G1 X134.547 Y99.709 E0.02900
G1 X134.560 Y110.156 E0.32755
G1 X134.307 Y111.106 E0.03083
G1 X133.715 Y111.891 E0.03083
G1 X132.949 Y112.372 E0.02837
G1 X132.083 Y112.563 E0.02778
G1 X118.001 Y112.565 E0.44154
G1 X117.472 Y112.504 E0.01672
G1 X116.966 Y112.335 E0.01672
G1 X116.488 Y112.056 E0.01733
G1 X116.090 Y111.696 E0.01684
G1 X115.630 Y110.966 E0.02704
G1 X115.438 Y110.125 E0.02704
G1 X115.435 Y99.983 E0.31802
G1 X115.496 Y99.457 E0.01660
G1 X115.663 Y98.959 E0.01647
G1 X115.930 Y98.502 E0.01660
G1 X116.285 Y98.109 E0.01660
G1 X116.971 Y97.678 E0.02539
G1 F8640
G1 X117.910 Y97.442 E-0.22364
G1 X120.233 Y97.441 E-0.53636
G1 E-0.04000 F2100.00000
G1 Z0.800 F10800.000
G1 X116.015 Y99.095
G1 Z0.200
G1 E0.80000 F2100.00000
G1 F1200
G1 X116.562 Y98.367 E0.02855
G1 X117.209 Y97.972 E0.02376
G1 X117.942 Y97.818 E0.02349
G1 X131.974 Y97.811 E0.43997
G1 X132.760 Y97.959 E0.02507
G1 X133.461 Y98.387 E0.02575
G1 X133.949 Y99.020 E0.02507
G1 X134.176 Y99.787 E0.02507
G1 X134.184 Y110.119 E0.32397
G1 X133.963 Y110.951 E0.02698
G1 X133.438 Y111.633 E0.02698
G1 X132.783 Y112.032 E0.02407
G1 X132.049 Y112.187 E0.02349
G1 X118.000 Y112.188 E0.44052
G1 X117.105 Y111.984 E0.02878
G1 X116.350 Y111.421 E0.02954
G1 X115.970 Y110.800 E0.02281
G1 X115.814 Y110.086 E0.02293
G1 X115.812 Y99.983 E0.31676
G1 X116.002 Y99.154 E0.02667
G1 F8640
G1 X116.562 Y98.367 E-0.22300
G1 X117.209 Y97.972 E-0.17495
G1 X117.942 Y97.818 E-0.17299
G1 X118.761 Y97.818 E-0.18906
G1 E-0.04000 F2100.00000
G1 Z0.800 F10800.000
G1 X124.045 Y103.286
G1 Z0.200
G1 E0.80000 F2100.00000
G1 F1200
G1 X124.149 Y103.084 E0.00711
G1 X124.343 Y102.778 E0.01138
G1 X124.620 Y102.429 E0.01396
G1 X124.934 Y102.116 E0.01392
G1 X125.249 Y101.864 E0.01263
G1 X125.550 Y101.669 E0.01126
G1 X125.851 Y101.510 E0.01068
G1 X126.192 Y101.368 E0.01158
G1 X126.508 Y101.269 E0.01038
G1 X126.900 Y101.187 E0.01255
G1 X127.341 Y101.144 E0.01391
G1 X127.764 Y101.148 E0.01326
G1 X128.138 Y101.193 E0.01180
G1 X128.550 Y101.286 E0.01324
G1 X128.865 Y101.389 E0.01042
G1 X129.180 Y101.525 E0.01074
G1 X129.495 Y101.695 E0.01122
G1 X129.809 Y101.907 E0.01189
G1 X130.123 Y102.168 E0.01282
G1 X130.408 Y102.462 E0.01283
G1 X130.657 Y102.779 E0.01264
G1 X130.858 Y103.096 E0.01178
G1 X131.019 Y103.413 E0.01116
G1 X131.146 Y103.731 E0.01072
G1 X131.241 Y104.048 E0.01038
G1 X131.308 Y104.367 E0.01023
G1 X131.357 Y104.841 E0.01494
G1 X131.347 Y105.315 E0.01486
G1 X131.308 Y105.636 E0.01012
G1 X131.224 Y106.017 E0.01224
G1 X131.087 Y106.428 E0.01358
G1 X130.910 Y106.809 E0.01317
G1 X130.752 Y107.080 E0.00985
G1 X130.539 Y107.380 E0.01153
G1 X130.280 Y107.678 E0.01238
G1 X129.967 Y107.969 E0.01342
G1 X129.652 Y108.205 E0.01234
G1 X129.338 Y108.395 E0.01151
G1 X129.023 Y108.548 E0.01097
G1 X128.743 Y108.655 E0.00940
G1 X128.394 Y108.755 E0.01137
G1 X128.078 Y108.817 E0.01012
G1 X127.608 Y108.860 E0.01480
G1 X127.138 Y108.843 E0.01473
G1 X126.862 Y108.807 E0.00873
G1 X126.507 Y108.730 E0.01137
G1 X126.192 Y108.632 E0.01035
G1 X125.869 Y108.499 E0.01095
G1 X125.550 Y108.331 E0.01131
G1 X125.248 Y108.135 E0.01128
G1 X124.902 Y107.856 E0.01395
G1 X124.592 Y107.539 E0.01391
G1 X124.343 Y107.221 E0.01264
G1 X124.149 Y106.916 E0.01136
G1 X123.991 Y106.609 E0.01081
G1 X123.855 Y106.270 E0.01147
G1 X123.759 Y105.951 E0.01044
G1 X123.677 Y105.534 E0.01332
G1 X123.643 Y105.160 E0.01178
G1 X123.643 Y104.840 E0.01001
G1 X123.677 Y104.466 E0.01178
G1 X123.759 Y104.049 E0.01332
G1 X123.855 Y103.730 E0.01044
G1 X124.017 Y103.340 E0.01328
G1 X123.915 Y103.100 F10800.000
G1 F8640
G1 X124.149 Y103.084 E-0.06624
G1 X124.343 Y102.778 E-0.08382
G1 X124.620 Y102.429 E-0.10280
G1 X124.934 Y102.116 E-0.10247
G1 X125.249 Y101.864 E-0.09298
G1 X125.550 Y101.669 E-0.08290
G1 X125.851 Y101.510 E-0.07864
G1 X126.192 Y101.368 E-0.08528
G1 X126.460 Y101.284 E-0.06486
G1 E-0.04000 F2100.00000
G1 Z0.800 F10800.000
G1 X120.762 Y107.115
G1 Z0.200
G1 E0.80000 F2100.00000
G1 F1200
G1 X120.762 Y102.881 E0.13273
G1 X118.587 Y102.891 E0.06820
G1 X118.587 Y100.588 E0.07221
G1 X131.405 Y100.598 E0.40188
G1 X131.407 Y103.368 E0.08685
G1 X131.186 Y102.910 E0.01596
G1 X130.966 Y102.561 E0.01294
G1 X130.693 Y102.213 E0.01386
G1 X130.380 Y101.891 E0.01408
G1 X130.036 Y101.604 E0.01405
G1 X129.690 Y101.372 E0.01306
G1 X129.345 Y101.185 E0.01232
G1 X128.999 Y101.036 E0.01180
G1 X128.650 Y100.922 E0.01150
G1 X128.202 Y100.821 E0.01441
G1 X127.788 Y100.771 E0.01306
G1 X127.325 Y100.767 E0.01454
G1 X126.842 Y100.814 E0.01519
G1 X126.413 Y100.904 E0.01377
G1 X126.063 Y101.013 E0.01148
G1 X125.690 Y101.168 E0.01266
G1 X125.359 Y101.343 E0.01176
G1 X125.028 Y101.558 E0.01238
G1 X124.682 Y101.834 E0.01386
G1 X124.338 Y102.178 E0.01525
G1 X124.036 Y102.559 E0.01526
G1 X123.821 Y102.897 E0.01254
G1 X123.648 Y103.234 E0.01189
G1 X123.498 Y103.606 E0.01255
G1 X123.392 Y103.959 E0.01156
G1 X123.303 Y104.413 E0.01451
G1 X123.266 Y104.823 E0.01293
G1 X123.266 Y105.177 E0.01108
G1 X123.303 Y105.587 E0.01293
G1 X123.392 Y106.041 E0.01451
G1 X123.498 Y106.394 E0.01156
G1 X123.648 Y106.766 E0.01255
G1 X123.821 Y107.103 E0.01189
G1 X124.035 Y107.439 E0.01249
G1 X124.308 Y107.788 E0.01388
G1 X124.648 Y108.135 E0.01524
G1 X125.026 Y108.441 E0.01524
G1 X125.359 Y108.657 E0.01245
G1 X125.710 Y108.841 E0.01240
G1 X126.064 Y108.987 E0.01201
G1 X126.411 Y109.095 E0.01141
G1 X126.798 Y109.179 E0.01239
G1 X127.107 Y109.220 E0.00978
G1 X127.618 Y109.238 E0.01605
G1 X128.131 Y109.191 E0.01615
G1 X128.483 Y109.122 E0.01123
G1 X128.862 Y109.013 E0.01238
G1 X129.173 Y108.895 E0.01043
G1 X129.518 Y108.726 E0.01203
G1 X129.863 Y108.519 E0.01262
G1 X130.209 Y108.259 E0.01356
G1 X130.552 Y107.941 E0.01468
G1 X130.836 Y107.613 E0.01360
G1 X131.069 Y107.284 E0.01263
G1 X131.245 Y106.984 E0.01092
G1 X131.410 Y106.628 E0.01230
G1 X131.412 Y109.413 E0.08733
G1 X118.587 Y109.413 E0.40213
G1 X118.587 Y107.109 E0.07223
G1 X120.702 Y107.115 E0.06631
G1 X120.385 Y106.737 F10800.000
G1 F1200
G1 X118.615 Y106.732 E0.05550
G1 X118.615 Y103.268 E0.10863
G1 X120.385 Y103.262 E0.05550
G1 X120.385 Y106.677 E0.10707
G1 X120.447 Y107.132 F10800.000
G1 F8640
G1 X118.615 Y106.732 E-0.40890
G1 X118.615 Y105.212 E-0.35110
G1 E-0.04000 F2100.00000
G1 Z0.800 F10800.000
G1 X118.210 Y109.790
G1 Z0.200
G1 E0.80000 F2100.00000
G1 F1200
G1 X118.210 Y100.210 E0.30037
G1 X131.781 Y100.221 E0.42552
G1 X131.790 Y109.790 E0.30002
G1 X118.270 Y109.790 E0.42390
G1 X118.335 Y109.410 F10800.000
G1 F8640
G1 X118.249 Y106.499 E-0.76000
G1 E-0.04000 F2100.00000
G1 Z0.800 F10800.000
G1 X118.700 Y108.521
G1 Z0.200
G1 E0.80000 F2100.00000
G1 F1200
G1 X119.309 Y109.130 E0.02754
G1 X119.853 Y109.130 E0.01741
G1 X118.870 Y108.147 E0.04448
G1 X118.870 Y107.603 E0.01741
G1 X120.397 Y109.130 E0.06910
G1 X120.941 Y109.130 E0.01741
G1 X119.205 Y107.394 E0.07857
G1 X119.750 Y107.395 E0.01745
G1 X121.485 Y109.130 E0.07850
G1 X122.029 Y109.130 E0.01741
G1 X120.296 Y107.396 E0.07844
G1 X120.841 Y107.398 E0.01745
G1 X122.574 Y109.130 E0.07838
G1 X123.118 Y109.130 E0.01741
G1 X121.045 Y107.057 E0.09378
G1 X121.045 Y106.513 E0.01741
G1 X123.662 Y109.130 E0.11839
G1 X124.206 Y109.130 E0.01741
G1 X121.045 Y105.969 E0.14301
G1 X121.045 Y105.425 E0.01741
G1 X124.750 Y109.130 E0.16762
G1 X125.149 Y109.130 E0.01277
G1 X125.178 Y109.014 E0.00383
G1 X121.045 Y104.881 E0.18698
G1 X121.045 Y104.337 E0.01741
G1 X123.255 Y106.547 E0.09998
G1 X123.117 Y106.110 E0.01467
G1 X123.058 Y105.806 E0.00991
G1 X121.045 Y103.793 E0.09107
G1 X121.045 Y103.249 E0.01741
G1 X123.170 Y105.374 E0.09614
G1 F8640
G1 X121.045 Y103.249 E-0.69394
G1 X121.045 Y103.535 E-0.06606
G1 E-0.04000 F2100.00000
G1 Z0.800 F10800.000
G1 X125.452 Y109.081
G1 Z0.200
G1 E0.80000 F2100.00000
G1 F1200
G1 X125.788 Y109.154 E0.00517
G1 X126.052 Y109.203 E0.00137
G1 F8640
G1 X125.788 Y109.154 E-0.06195
G1 E-0.73805 F2100.00000
G1 Z0.800 F10800.000
G1 X128.948 Y109.204
G1 Z0.200
G1 E0.80000 F2100.00000
G1 F1200
G1 X129.058 Y109.184 E0.00081
G1 X129.167 Y109.164 E0.00115
G1 X129.553 Y109.086 E0.00539
G1 F8640
G1 X129.167 Y109.164 E-0.09092
G1 E-0.70908 F2100.00000
G1 Z0.800 F10800.000
G1 X130.570 Y109.300
G1 Z0.200
G1 E0.80000 F2100.00000
G1 F1200
G1 X130.023 Y108.752 E0.02706
G1 X130.362 Y108.497 E0.01484
G1 X130.995 Y109.130 E0.03127
G1 X131.129 Y109.130 E0.00470
G1 X131.129 Y108.670 E0.01609
G1 X130.673 Y108.214 E0.02253
G1 X130.958 Y107.904 E0.01470
G1 X131.298 Y108.245 E0.01682
G1 F8640
G1 X130.958 Y107.904 E-0.11115
G1 X130.673 Y108.214 E-0.09713
G1 X131.129 Y108.670 E-0.14888
G1 X131.129 Y109.130 E-0.10630
G1 X130.995 Y109.130 E-0.03104
G1 X130.362 Y108.497 E-0.20658
G1 X130.158 Y108.651 E-0.05892
G1 E-0.04000 F2100.00000
G1 Z0.800 F10800.000
G1 X131.444 Y106.442
G1 Z0.200
G1 E0.80000 F2100.00000
G1 F1200
G1 X131.472 Y106.270 E0.00385
G1 X131.499 Y106.098 E0.00335
G1 X131.523 Y105.883 E0.00354
G1 X131.545 Y105.679 E0.00256
G1 X131.566 Y105.333 E0.00303
G1 X131.571 Y104.834 E0.00256
G1 X131.527 Y104.155 E0.00289
G1 X131.446 Y103.553 E0.00883
G1 F8640
G1 X131.527 Y104.155 E-0.14040
G1 E-0.65960 F2100.00000
G1 Z0.800 F10800.000
G1 X131.203 Y102.543
G1 Z0.200
G1 E0.80000 F2100.00000
G1 F1200
G1 X131.096 Y102.207 E0.00321
G1 X131.260 Y102.036 F10800.000
G1 F1200
G1 X130.104 Y100.880 E0.05362
G1 X130.662 Y100.880 E0.01830
G1 X131.292 Y101.511 E0.02924
G1 F8640
G1 X130.662 Y100.880 E-0.20589
G1 X130.104 Y100.880 E-0.12888
G1 X131.260 Y102.036 E-0.37756
G1 E-0.08767 F2100.00000
G1 Z0.800 F10800.000
G1 X129.568 Y100.913
G1 Z0.200
G1 E0.80000 F2100.00000
G1 F1200
G1 X128.969 Y100.806 E0.00395
G1 F8640
G1 X129.568 Y100.913 E-0.14029
G1 E-0.65971 F2100.00000
G1 Z0.800 F10800.000
G1 X126.031 Y100.804
G1 Z0.200
G1 E0.80000 F2100.00000
G1 F1200
G1 X125.436 Y100.907 E0.00276
G1 X125.441 Y100.925 F10800.000
G1 F1200
G1 X126.029 Y100.791 E0.01147
G1 F8640
G1 X125.441 Y100.925 E-0.13924
G1 E-0.66076 F2100.00000
G1 Z0.800 F10800.000
G1 X125.135 Y101.354
G1 Z0.200
G1 E0.80000 F2100.00000
G1 F1200
G1 X124.657 Y100.875 E0.02164
G1 X124.112 Y100.875 E0.01742
G1 X124.697 Y101.460 E0.02648
G1 X124.405 Y101.712 E0.01234
G1 X123.568 Y100.874 E0.03788
G1 X123.023 Y100.874 E0.01742
G1 X124.133 Y101.984 E0.05020
G1 X123.891 Y102.286 E0.01239
G1 X122.478 Y100.874 E0.06392
G1 X121.934 Y100.873 E0.01742
G1 X123.669 Y102.608 E0.07851
G1 X123.473 Y102.956 E0.01277
G1 X121.389 Y100.873 E0.09426
G1 X120.845 Y100.872 E0.01742
G1 X123.304 Y103.331 E0.11125
G1 X123.164 Y103.735 E0.01368
G1 X120.300 Y100.872 E0.12956
G1 X119.756 Y100.871 E0.01742
G1 X123.061 Y104.177 E0.14955
G1 X122.997 Y104.657 E0.01549
G1 X119.211 Y100.871 E0.17127
G1 X118.870 Y100.871 E0.01092
G1 X118.870 Y101.074 E0.00650
G1 X120.396 Y102.600 E0.06906
G1 X119.855 Y102.602 E0.01733
G1 X118.870 Y101.618 E0.04455
G1 X118.870 Y102.162 E0.01741
G1 X119.482 Y102.774 E0.02768
M106 S255
;BEFORE_LAYER_CHANGE
G92 E0.0
;0.3


G1 F8640
G1 X118.870 Y102.162 E-0.19979
G1 X118.870 Y101.618 E-0.12563
G1 X119.855 Y102.602 E-0.32154
G1 X120.344 Y102.600 E-0.11303
G1 E-0.04000 F2100.00000
G1 Z0.800 F10800.000
;AFTER_LAYER_CHANGE
;0.3
M104 S210 ; set temperature
G1 X116.872 Y97.296
G1 Z0.300
G1 E0.80000 F2100.00000
G1 F967
G1 X117.871 Y97.066 E0.01698
G1 X131.974 Y97.057 E0.23369
G1 X133.015 Y97.249 E0.01753
G1 X133.936 Y97.801 E0.01779
G1 X134.593 Y98.625 E0.01746
G1 X134.917 Y99.627 E0.01746
G1 X134.935 Y110.199 E0.17516
G1 X134.843 Y110.741 E0.00912
G1 X134.652 Y111.257 E0.00912
G1 X134.366 Y111.732 E0.00919
G1 X133.999 Y112.142 E0.00912
G1 X133.120 Y112.709 E0.01734
G1 X132.117 Y112.939 E0.01705
G1 X118.004 Y112.943 E0.23385
G1 X117.406 Y112.876 E0.00995
G1 X116.835 Y112.690 E0.00995
G1 X116.293 Y112.381 E0.01034
G1 X115.839 Y111.981 E0.01002
G1 X115.295 Y111.142 E0.01656
G1 X115.064 Y110.174 E0.01649
G1 X115.057 Y99.983 E0.16886
G1 X115.125 Y99.390 E0.00988
G1 X115.310 Y98.823 E0.00988
G1 X115.606 Y98.306 E0.00988
G1 X116.001 Y97.858 E0.00988
G1 X116.822 Y97.328 E0.01619
G1 F8640
G1 X117.871 Y97.066 E-0.24965
G1 X120.081 Y97.065 E-0.51035
G1 E-0.04000 F2100.00000
G1 Z0.900 F10800.000
G1 X124.403 Y102.677
G1 Z0.300
G1 E0.80000 F2100.00000
M204 S800
G1 F967
G1 X124.726 Y102.294 E0.00892
G1 X124.927 Y102.102 E0.00495
G1 X125.293 Y101.815 E0.00830
G1 X125.712 Y101.562 E0.00872
G1 X126.029 Y101.415 E0.00623
G1 X126.345 Y101.301 E0.00598
G1 X126.661 Y101.217 E0.00582
G1 X126.978 Y101.160 E0.00575
G1 X127.400 Y101.127 E0.00754
G1 X127.766 Y101.134 E0.00651
G1 X128.140 Y101.178 E0.00671
G1 X128.554 Y101.271 E0.00756
G1 X128.871 Y101.375 E0.00595
G1 X129.187 Y101.511 E0.00612
G1 X129.502 Y101.682 E0.00640
G1 X129.818 Y101.895 E0.00678
G1 X130.134 Y102.157 E0.00731
G1 X130.420 Y102.452 E0.00732
G1 X130.669 Y102.770 E0.00721
G1 X130.871 Y103.089 E0.00672
G1 X131.033 Y103.407 E0.00637
G1 X131.160 Y103.726 E0.00611
G1 X131.256 Y104.044 E0.00593
G1 X131.323 Y104.365 E0.00584
G1 X131.372 Y104.841 E0.00852
G1 X131.362 Y105.316 E0.00847
G1 X131.322 Y105.638 E0.00578
G1 X131.238 Y106.021 E0.00698
G1 X131.101 Y106.432 E0.00773
G1 X130.956 Y106.752 E0.00626
G1 X130.765 Y107.087 E0.00687
G1 X130.551 Y107.389 E0.00659
G1 X130.291 Y107.688 E0.00706
G1 X129.977 Y107.980 E0.00764
G1 X129.706 Y108.186 E0.00605
G1 X129.345 Y108.408 E0.00755
G1 X129.029 Y108.561 E0.00626
G1 X128.713 Y108.680 E0.00602
G1 X128.397 Y108.770 E0.00585
G1 X128.079 Y108.832 E0.00577
G1 X127.610 Y108.874 E0.00839
G1 X127.291 Y108.870 E0.00570
G1 X126.862 Y108.822 E0.00769
G1 X126.504 Y108.745 E0.00653
G1 X126.187 Y108.646 E0.00591
G1 X125.845 Y108.504 E0.00660
G1 X125.542 Y108.344 E0.00609
G1 X125.239 Y108.148 E0.00643
G1 X124.892 Y107.867 E0.00795
G1 X124.581 Y107.549 E0.00793
G1 X124.331 Y107.230 E0.00721
G1 X124.136 Y106.923 E0.00648
G1 X123.977 Y106.615 E0.00616
