; generated by Slic3r Prusa Edition 1.42.0-beta2+ on 2019-04-25 at 20:51:02

; 

; external perimeters extrusion width = 0.45mm
; perimeters extrusion width = 0.45mm
; infill extrusion width = 0.45mm
; solid infill extrusion width = 0.45mm
; top infill extrusion width = 0.40mm
; first layer extrusion width = 0.42mm

M73 P0 R14
M73 Q0 S14
M201 X1000 Y1000 Z1000 E5000 ; sets maximum accelerations, mm/sec^2
M203 X200 Y200 Z12 E120 ; sets maximum feedrates, mm/sec
M204 P1250 R1250 T1250 ; sets acceleration (P, T) and retract acceleration (R), mm/sec^2
M205 X8.00 Y8.00 Z0.40 E1.50 ; sets the jerk limits, mm/sec
M205 S0 T0 ; sets the minimum extruding and travel feed rate, mm/sec
M107
M115 U3.6.0 ; tell printer latest fw version
M83  ; extruder relative mode
M104 S215 ; set extruder temp
M140 S60 ; set bed temp
M190 S60 ; wait for bed temp
M109 S215 ; wait for extruder temp
G28 W ; home all without mesh bed level
G80 ; mesh bed leveling
G1 Y-3.0 F1000.0 ; go outside print area
G92 E0.0
G1 X60.0 E9.0  F1000.0 ; intro line
M73 Q0 S14
M73 P0 R14
G1 X100.0 E12.5  F1000.0 ; intro line
G92 E0.0
M221 S95
M900 K30 ; Filament gcode
G21 ; set units to millimeters
G90 ; use absolute coordinates
M83 ; use relative distances for extrusion
;BEFORE_LAYER_CHANGE
G92 E0.0
;0.2


G1 E-0.80000 F2100.00000
G1 Z0.600 F10800.000
;AFTER_LAYER_CHANGE
;0.2
G1 X112.833 Y92.909
G1 Z0.200
G1 E0.80000 F2100.00000
M204 S1000
G1 F1200
G1 X113.798 Y92.686 E0.03107
G1 X135.965 Y92.683 E0.69503
G1 X136.495 Y92.712 E0.01663
G1 X136.989 Y92.837 E0.01598
G1 X137.881 Y93.378 E0.03272
G1 X138.529 Y94.203 E0.03287
G1 X138.808 Y95.162 E0.03131
G1 X138.816 Y114.691 E0.61232
G1 X138.610 Y115.656 E0.03094
G1 X138.055 Y116.472 E0.03095
G1 X137.181 Y117.085 E0.03347
G1 X136.209 Y117.314 E0.03131
G1 X114.027 Y117.317 E0.69550
G1 X113.449 Y117.279 E0.01815
G1 X112.910 Y117.124 E0.01758
G1 X112.375 Y116.833 E0.01911
G1 X111.926 Y116.453 E0.01846
G1 X111.387 Y115.649 E0.03034
G1 X111.183 Y114.702 E0.03037
G1 X111.182 Y95.378 E0.60589
G1 X111.236 Y94.864 E0.01623
G1 X111.392 Y94.370 E0.01623
G1 X111.997 Y93.492 E0.03344
G1 X112.784 Y92.944 E0.03006
G1 F8640
G1 X113.798 Y92.686 E-0.24172
G1 X116.043 Y92.686 E-0.51828
G1 E-0.04000 F2100.00000
G1 Z0.800 F10800.000
G1 X111.744 Y94.506
G1 Z0.200
G1 E0.80000 F2100.00000
G1 F1200
G1 X112.278 Y93.745 E0.02913
G1 X112.997 Y93.249 E0.02739
G1 X113.818 Y93.062 E0.02642
G1 X135.965 Y93.060 E0.69440
G1 X136.858 Y93.190 E0.02828
G1 X137.635 Y93.664 E0.02853
G1 X138.199 Y94.386 E0.02872
G1 X138.434 Y95.217 E0.02709
G1 X138.440 Y114.669 E0.60991
G1 X138.262 Y115.512 E0.02700
G1 X137.776 Y116.218 E0.02687
G1 X137.018 Y116.744 E0.02893
G1 X136.183 Y116.938 E0.02687
G1 X113.883 Y116.940 E0.69921
G1 X112.989 Y116.748 E0.02867
G1 X112.180 Y116.173 E0.03111
G1 X111.728 Y115.488 E0.02574
G1 X111.560 Y114.679 E0.02590
G1 X111.559 Y95.379 E0.60514
G1 X111.732 Y94.564 E0.02611
G1 F8640
G1 X112.278 Y93.745 E-0.22732
G1 X112.997 Y93.249 E-0.20167
G1 X113.818 Y93.062 E-0.19457
G1 X114.409 Y93.062 E-0.13644
G1 E-0.04000 F2100.00000
G1 Z0.800 F10800.000
G1 X121.531 Y102.396
G1 Z0.200
G1 E0.80000 F2100.00000
G1 F1200
G1 X121.820 Y102.050 E0.01412
G1 X122.152 Y101.728 E0.01450
G1 X122.497 Y101.457 E0.01375
G1 X122.842 Y101.237 E0.01284
G1 X123.191 Y101.057 E0.01231
G1 X123.799 Y100.819 E0.02047
G1 X124.395 Y100.705 E0.01904
G1 X124.842 Y100.663 E0.01405
G1 X125.259 Y100.667 E0.01308
G1 X125.609 Y100.705 E0.01106
G1 X126.196 Y100.818 E0.01872
G1 X126.980 Y101.140 E0.02657
G1 X127.330 Y101.341 E0.01268
G1 X127.674 Y101.585 E0.01320
G1 X128.015 Y101.877 E0.01408
G1 X128.331 Y102.222 E0.01466
G1 X128.539 Y102.492 E0.01070
G1 X128.768 Y102.850 E0.01332
G1 X128.972 Y103.258 E0.01432
G1 X129.088 Y103.543 E0.00963
G1 X129.246 Y104.056 E0.01685
G1 X129.335 Y104.822 E0.02417
G1 X129.324 Y105.344 E0.01638
G1 X129.245 Y105.950 E0.01916
G1 X129.056 Y106.547 E0.01962
G1 X128.895 Y106.909 E0.01244
G1 X128.707 Y107.256 E0.01237
G1 X128.469 Y107.604 E0.01320
G1 X128.192 Y107.938 E0.01361
G1 X127.849 Y108.271 E0.01500
G1 X127.503 Y108.543 E0.01377
G1 X127.158 Y108.763 E0.01284
G1 X126.809 Y108.943 E0.01231
G1 X126.201 Y109.181 E0.02047
G1 X125.609 Y109.295 E0.01889
G1 X125.249 Y109.334 E0.01138
G1 X124.569 Y109.317 E0.02132
G1 X123.806 Y109.183 E0.02428
G1 X123.294 Y108.988 E0.01717
G1 X122.842 Y108.763 E0.01584
G1 X122.398 Y108.471 E0.01666
G1 X121.987 Y108.125 E0.01685
G1 X121.667 Y107.776 E0.01485
G1 X121.407 Y107.430 E0.01357
G1 X121.194 Y107.082 E0.01279
G1 X120.990 Y106.662 E0.01464
G1 X120.754 Y105.950 E0.02352
G1 X120.665 Y105.178 E0.02436
G1 X120.676 Y104.656 E0.01638
G1 X120.755 Y104.050 E0.01916
G1 X120.944 Y103.453 E0.01962
G1 X121.105 Y103.091 E0.01244
G1 X121.293 Y102.744 E0.01237
G1 X121.497 Y102.445 E0.01134
G1 X121.809 Y102.658 F10800.000
G1 F1200
G1 X122.096 Y102.307 E0.01422
G1 X122.400 Y102.013 E0.01326
G1 X122.715 Y101.765 E0.01256
G1 X123.030 Y101.564 E0.01172
G1 X123.347 Y101.401 E0.01116
G1 X123.904 Y101.182 E0.01877
G1 X124.448 Y101.078 E0.01737
G1 X124.857 Y101.040 E0.01287
G1 X125.236 Y101.044 E0.01189
G1 X125.553 Y101.079 E0.01000
G1 X126.094 Y101.182 E0.01726
G1 X126.810 Y101.478 E0.02429
G1 X127.127 Y101.660 E0.01146
G1 X127.442 Y101.882 E0.01208
G1 X127.752 Y102.149 E0.01283
G1 X128.042 Y102.465 E0.01345
G1 X128.230 Y102.709 E0.00967
G1 X128.440 Y103.036 E0.01218
G1 X128.628 Y103.414 E0.01323
G1 X128.732 Y103.670 E0.00866
G1 X128.876 Y104.134 E0.01525
G1 X128.957 Y104.840 E0.02227
G1 X128.948 Y105.316 E0.01492
G1 X128.875 Y105.868 E0.01746
G1 X128.703 Y106.413 E0.01792
G1 X128.556 Y106.743 E0.01132
G1 X128.384 Y107.060 E0.01130
G1 X128.168 Y107.377 E0.01204
G1 X127.914 Y107.681 E0.01243
G1 X127.600 Y107.987 E0.01375
G1 X127.285 Y108.235 E0.01257
G1 X126.970 Y108.436 E0.01172
G1 X126.653 Y108.599 E0.01116
G1 X126.096 Y108.818 E0.01877
G1 X125.553 Y108.921 E0.01732
G1 X125.233 Y108.956 E0.01011
G1 X124.606 Y108.941 E0.01965
G1 X123.907 Y108.818 E0.02227
G1 X123.446 Y108.643 E0.01546
G1 X123.030 Y108.436 E0.01456
G1 X122.624 Y108.169 E0.01525
G1 X122.249 Y107.852 E0.01540
G1 X121.957 Y107.534 E0.01352
G1 X121.719 Y107.218 E0.01241
G1 X121.526 Y106.901 E0.01165
G1 X121.341 Y106.519 E0.01329
G1 X121.125 Y105.868 E0.02152
G1 X121.043 Y105.160 E0.02234
G1 X121.052 Y104.684 E0.01492
G1 X121.125 Y104.132 E0.01746
G1 X121.297 Y103.587 E0.01792
G1 X121.444 Y103.257 E0.01132
G1 X121.616 Y102.940 E0.01130
G1 X121.775 Y102.707 E0.00885
G1 X121.650 Y102.290 F10800.000
G1 F8640
G1 X122.096 Y102.307 E-0.11856
G1 X122.400 Y102.013 E-0.09765
G1 X122.715 Y101.765 E-0.09249
G1 X123.030 Y101.564 E-0.08632
G1 X123.347 Y101.401 E-0.08220
G1 X123.904 Y101.182 E-0.13825
G1 X124.448 Y101.078 E-0.12792
G1 X124.520 Y101.072 E-0.01661
G1 E-0.04000 F2100.00000
G1 Z0.800 F10800.000
G1 X114.680 Y96.178
G1 Z0.200
G1 E0.80000 F2100.00000
G1 F1200
G1 X135.320 Y96.174 E0.64717
G1 X135.320 Y113.826 E0.55346
G1 X114.680 Y113.826 E0.64717
G1 X114.680 Y96.238 E0.55144
G1 X114.303 Y95.801 F10800.000
G1 F1200
G1 X135.697 Y95.797 E0.67081
G1 X135.697 Y114.203 E0.57710
G1 X114.303 Y114.203 E0.67081
G1 X114.303 Y95.861 E0.57511
G1 X114.692 Y95.894 F10800.000
G1 F8640
G1 X117.594 Y95.851 E-0.76000
G1 E-0.04000 F2100.00000
G1 Z0.800 F10800.000
G1 X120.938 Y106.812
G1 Z0.200
G1 E0.80000 F2100.00000
G1 F1200
G1 X114.963 Y100.837 E0.26532
G1 X114.963 Y100.303 E0.01677
G1 X120.452 Y105.792 E0.24373
G1 X120.382 Y105.188 E0.01907
G1 X114.963 Y99.769 E0.24065
G1 X114.963 Y99.235 E0.01677
G1 X120.393 Y104.665 E0.24112
G1 X120.452 Y104.190 E0.01503
G1 X114.963 Y98.701 E0.24374
G1 X114.963 Y98.167 E0.01677
G1 X120.552 Y103.756 E0.24818
G1 X120.680 Y103.351 E0.01335
G1 X114.963 Y97.633 E0.25389
G1 X114.963 Y97.099 E0.01677
G1 X120.845 Y102.981 E0.26118
G1 X121.031 Y102.634 E0.01238
G1 X114.963 Y96.565 E0.26948
G1 X114.963 Y96.461 E0.00325
G1 X115.393 Y96.461 E0.01351
G1 X121.245 Y102.313 E0.25985
G1 X121.481 Y102.015 E0.01194
G1 X115.927 Y96.461 E0.24661
G1 X116.461 Y96.461 E0.01676
G1 X121.737 Y101.737 E0.23426
G1 X122.012 Y101.478 E0.01186
G1 X116.995 Y96.461 E0.22279
G1 X117.529 Y96.461 E0.01676
G1 X122.311 Y101.243 E0.21237
G1 X122.635 Y101.034 E0.01212
G1 X118.063 Y96.461 E0.20305
G1 X118.596 Y96.460 E0.01676
G1 X122.983 Y100.847 E0.19476
G1 X123.358 Y100.688 E0.01280
G1 X119.130 Y96.460 E0.18772
G1 X119.664 Y96.460 E0.01676
G1 X123.745 Y100.541 E0.18120
G1 X124.193 Y100.455 E0.01433
G1 X120.198 Y96.460 E0.17740
G1 X120.732 Y96.460 E0.01676
G1 X124.667 Y100.395 E0.17474
G1 X125.190 Y100.384 E0.01641
G1 X121.266 Y96.460 E0.17423
G1 X121.800 Y96.460 E0.01676
G1 X125.793 Y100.453 E0.17730
G1 X126.277 Y100.545 E0.01548
G1 X126.519 Y100.645 E0.00821
G1 X122.334 Y96.460 E0.18583
G1 X122.868 Y96.460 E0.01676
G1 X135.037 Y108.629 E0.54038
G1 X135.037 Y108.095 E0.01677
G1 X123.402 Y96.459 E0.51667
G1 X123.935 Y96.459 E0.01676
G1 X135.037 Y107.561 E0.49297
G1 X135.037 Y107.027 E0.01677
G1 X124.469 Y96.459 E0.46926
G1 X125.003 Y96.459 E0.01676
G1 X135.037 Y106.493 E0.44555
G1 X135.037 Y105.959 E0.01677
G1 X125.537 Y96.459 E0.42184
G1 X126.071 Y96.459 E0.01676
G1 X135.037 Y105.425 E0.39814
G1 X135.037 Y104.891 E0.01677
G1 X126.605 Y96.459 E0.37443
G1 X127.139 Y96.459 E0.01676
G1 X135.037 Y104.357 E0.35072
G1 X135.037 Y103.823 E0.01677
G1 X127.673 Y96.459 E0.32702
G1 X128.207 Y96.458 E0.01676
G1 X135.037 Y103.289 E0.30331
G1 X135.037 Y102.755 E0.01677
G1 X128.741 Y96.458 E0.27960
G1 X129.274 Y96.458 E0.01676
G1 X135.037 Y102.221 E0.25589
G1 X135.037 Y101.687 E0.01677
G1 X129.808 Y96.458 E0.23219
G1 X130.342 Y96.458 E0.01676
G1 X135.037 Y101.153 E0.20848
G1 X135.037 Y100.619 E0.01677
G1 X130.876 Y96.458 E0.18477
G1 X131.410 Y96.458 E0.01676
G1 X135.037 Y100.085 E0.16107
G1 X135.037 Y99.551 E0.01677
G1 X131.944 Y96.458 E0.13736
G1 X132.478 Y96.458 E0.01676
G1 X135.037 Y99.017 E0.11365
G1 X135.037 Y98.483 E0.01677
G1 X133.012 Y96.457 E0.08994
G1 X133.546 Y96.457 E0.01676
G1 X135.037 Y97.949 E0.06624
G1 X135.037 Y97.415 E0.01677
G1 X134.080 Y96.457 E0.04253
G1 X134.614 Y96.457 E0.01676
G1 X135.207 Y97.051 E0.02636
G1 F8640
G1 X134.614 Y96.457 E-0.19383
G1 X134.080 Y96.457 E-0.12328
G1 X135.037 Y97.415 E-0.31276
G1 X135.037 Y97.949 E-0.12331
G1 X135.017 Y97.928 E-0.00682
G1 E-0.04000 F2100.00000
G1 Z0.800 F10800.000
G1 X135.207 Y109.333
G1 Z0.200
G1 E0.80000 F2100.00000
G1 F1200
G1 X129.369 Y103.495 E0.25925
G1 X129.524 Y103.998 E0.01654
G1 X129.548 Y104.208 E0.00666
G1 X135.037 Y109.697 E0.24373
G1 X135.037 Y110.231 E0.01677
G1 X129.618 Y104.812 E0.24065
G1 X129.607 Y105.335 E0.01644
G1 X135.037 Y110.765 E0.24112
G1 X135.037 Y111.299 E0.01677
G1 X129.548 Y105.810 E0.24374
G1 X129.522 Y106.012 E0.00638
G1 X129.448 Y106.244 E0.00766
G1 X135.037 Y111.833 E0.24818
G1 X135.037 Y112.367 E0.01677
G1 X129.320 Y106.650 E0.25389
G1 X129.155 Y107.019 E0.01270
G1 X135.037 Y112.901 E0.26119
G1 X135.037 Y113.435 E0.01677
G1 X128.969 Y107.367 E0.26948
G1 X128.755 Y107.687 E0.01209
G1 X134.611 Y113.543 E0.26003
G1 X134.077 Y113.543 E0.01677
G1 X128.520 Y107.986 E0.24677
G1 X128.263 Y108.263 E0.01186
G1 X133.543 Y113.543 E0.23445
G1 X133.009 Y113.543 E0.01677
G1 X127.988 Y108.522 E0.22296
G1 X127.689 Y108.757 E0.01194
G1 X132.475 Y113.543 E0.21253
G1 X131.941 Y113.543 E0.01677
G1 X127.364 Y108.967 E0.20321
G1 X127.017 Y109.153 E0.01238
G1 X131.407 Y113.543 E0.19492
G1 X130.873 Y113.543 E0.01677
G1 X126.642 Y109.312 E0.18787
G1 X126.255 Y109.459 E0.01300
G1 X130.339 Y113.543 E0.18135
G1 X129.805 Y113.543 E0.01677
G1 X125.807 Y109.545 E0.17754
G1 X125.336 Y109.609 E0.01489
G1 X129.271 Y113.543 E0.17470
G1 X128.737 Y113.543 E0.01677
G1 X124.800 Y109.606 E0.17483
G1 X124.541 Y109.599 E0.00813
G1 X124.199 Y109.540 E0.01089
G1 X128.203 Y113.543 E0.17777
G1 X127.669 Y113.543 E0.01677
G1 X123.187 Y109.061 E0.19901
G1 F8640
G1 X125.514 Y111.389 E-0.76000
G1 E-0.04000 F2100.00000
G1 Z0.800 F10800.000
G1 X127.304 Y113.713
G1 Z0.200
G1 E0.80000 F2100.00000
G1 F1200
G1 X114.963 Y101.371 E0.54802
G1 X114.963 Y101.905 E0.01677
G1 X126.601 Y113.543 E0.51678
G1 X126.067 Y113.543 E0.01677
G1 X114.963 Y102.439 E0.49307
G1 X114.963 Y102.973 E0.01677
G1 X125.533 Y113.543 E0.46935
G1 X124.999 Y113.543 E0.01677
G1 X114.963 Y103.507 E0.44564
M73 Q7 S13
G1 X114.963 Y104.041 E0.01677
G1 X124.465 Y113.543 E0.42193
M73 P7 R13
G1 X123.931 Y113.543 E0.01677
G1 X114.963 Y104.575 E0.39822
G1 X114.963 Y105.109 E0.01677
G1 X123.397 Y113.543 E0.37450
G1 X122.863 Y113.543 E0.01677
G1 X114.963 Y105.643 E0.35079
G1 X114.963 Y106.177 E0.01677
G1 X122.329 Y113.543 E0.32708
G1 X121.795 Y113.543 E0.01677
G1 X114.963 Y106.711 E0.30337
G1 X114.963 Y107.245 E0.01677
G1 X121.261 Y113.543 E0.27966
G1 X120.727 Y113.543 E0.01677
G1 X114.963 Y107.779 E0.25594
G1 X114.963 Y108.313 E0.01677
G1 X120.193 Y113.543 E0.23223
G1 X119.659 Y113.543 E0.01677
G1 X114.963 Y108.847 E0.20852
G1 X114.963 Y109.381 E0.01677
G1 X119.125 Y113.543 E0.18481
G1 X118.591 Y113.543 E0.01677
G1 X114.963 Y109.915 E0.16110
G1 X114.963 Y110.449 E0.01677
G1 X118.057 Y113.543 E0.13738
G1 X117.523 Y113.543 E0.01677
G1 X114.963 Y110.983 E0.11367
G1 X114.963 Y111.517 E0.01677
G1 X116.989 Y113.543 E0.08996
G1 X116.455 Y113.543 E0.01677
G1 X114.963 Y112.051 E0.06625
G1 X114.963 Y112.585 E0.01677
G1 X115.921 Y113.543 E0.04254
G1 X115.387 Y113.543 E0.01677
G1 X114.793 Y112.949 E0.02636
M106 S255
;BEFORE_LAYER_CHANGE
G92 E0.0
;0.3


G1 F8640
G1 X115.387 Y113.543 E-0.19384
G1 X115.921 Y113.543 E-0.12331
G1 X114.963 Y112.585 E-0.31281
G1 X114.963 Y112.051 E-0.12331
G1 X114.983 Y112.072 E-0.00674
G1 E-0.04000 F2100.00000
G1 Z0.800 F10800.000
;AFTER_LAYER_CHANGE
;0.3
M104 S210 ; set temperature
G1 X111.387 Y115.649
G1 Z0.300
G1 E0.80000 F2100.00000
G1 F3000
G1 X111.183 Y114.702 E0.01605
G1 X111.182 Y95.378 E0.32018
G1 X111.236 Y94.864 E0.00857
G1 X111.392 Y94.370 E0.00857
G1 X111.997 Y93.492 E0.01767
G1 X112.833 Y92.909 E0.01688
G1 X113.798 Y92.686 E0.01642
G1 X135.965 Y92.683 E0.36729
G1 X136.495 Y92.712 E0.00879
G1 X136.989 Y92.837 E0.00844
G1 X137.881 Y93.378 E0.01729
G1 X138.529 Y94.203 E0.01737
G1 X138.808 Y95.162 E0.01655
G1 X138.816 Y114.691 E0.32358
G1 X138.610 Y115.656 E0.01635
G1 X138.055 Y116.472 E0.01635
G1 X137.181 Y117.085 E0.01768
G1 X136.209 Y117.314 E0.01655
G1 X114.027 Y117.317 E0.36754
G1 X113.449 Y117.279 E0.00959
G1 X112.910 Y117.124 E0.00929
G1 X112.375 Y116.833 E0.01010
G1 X111.926 Y116.453 E0.00975
G1 X111.420 Y115.699 E0.01504
G1 F8640
G1 X111.183 Y114.702 E-0.23655
G1 X111.183 Y112.435 E-0.52345
G1 E-0.04000 F2100.00000
G1 Z0.900 F10800.000
G1 X121.619 Y107.822
G1 Z0.300
G1 E0.80000 F2100.00000
M204 S800
G1 F1500
G1 X121.404 Y107.543 E0.00627
G1 X121.138 Y107.118 E0.00894
G1 X120.964 Y106.762 E0.00706
G1 X120.825 Y106.403 E0.00685
G1 X120.686 Y105.888 E0.00952
G1 X120.627 Y105.522 E0.00660
G1 X120.595 Y105.000 E0.00932
G1 X120.627 Y104.478 E0.00932
G1 X120.686 Y104.112 E0.00660
G1 X120.825 Y103.597 E0.00952
G1 X120.964 Y103.238 E0.00685
G1 X121.138 Y102.882 E0.00706
G1 X121.404 Y102.457 E0.00894
G1 X121.619 Y102.178 E0.00627
G1 X121.933 Y101.838 E0.00824
G1 X122.282 Y101.534 E0.00824
G1 X122.611 Y101.300 E0.00720
G1 X122.983 Y101.085 E0.00766
G1 X123.335 Y100.923 E0.00690
G1 X123.686 Y100.797 E0.00664
G1 X124.036 Y100.703 E0.00647
G1 X124.393 Y100.638 E0.00646
G1 X124.912 Y100.596 E0.00928
G1 X125.432 Y100.617 E0.00926
G1 X125.792 Y100.668 E0.00649
G1 X126.233 Y100.772 E0.00807
G1 X126.662 Y100.921 E0.00809
G1 X127.017 Y101.085 E0.00695
G1 X127.389 Y101.300 E0.00766
G1 X127.718 Y101.534 E0.00720
G1 X128.067 Y101.838 E0.00824
G1 X128.381 Y102.178 E0.00824
G1 X128.596 Y102.457 E0.00627
G1 X128.862 Y102.882 E0.00894
G1 X129.036 Y103.238 E0.00706
G1 X129.175 Y103.597 E0.00685
G1 X129.314 Y104.112 E0.00952
G1 X129.373 Y104.478 E0.00660
G1 X129.405 Y105.000 E0.00932
G1 X129.373 Y105.522 E0.00932
G1 X129.314 Y105.888 E0.00660
G1 X129.175 Y106.403 E0.00952
G1 X129.036 Y106.762 E0.00685
G1 X128.862 Y107.118 E0.00706
G1 X128.596 Y107.543 E0.00894
G1 X128.381 Y107.822 E0.00627
G1 X128.067 Y108.162 E0.00824
G1 X127.718 Y108.466 E0.00824
G1 X127.389 Y108.700 E0.00720
