; generated by Slic3r Prusa Edition 1.42.0-beta2+ on 2019-04-26 at 14:38:46

; 

; external perimeters extrusion width = 0.45mm
; perimeters extrusion width = 0.45mm
; infill extrusion width = 0.45mm
; solid infill extrusion width = 0.45mm
; top infill extrusion width = 0.40mm
; first layer extrusion width = 0.42mm

M73 P0 R8
M73 Q0 S8
M201 X1000 Y1000 Z1000 E5000 ; sets maximum accelerations, mm/sec^2
M203 X200 Y200 Z12 E120 ; sets maximum feedrates, mm/sec
M204 P1250 R1250 T1250 ; sets acceleration (P, T) and retract acceleration (R), mm/sec^2
M205 X8.00 Y8.00 Z0.40 E1.50 ; sets the jerk limits, mm/sec
M205 S0 T0 ; sets the minimum extruding and travel feed rate, mm/sec
M107
M115 U3.6.0 ; tell printer latest fw version
M83  ; extruder relative mode
M104 S215 ; set extruder temp
M140 S60 ; set bed temp
M190 S60 ; wait for bed temp
M109 S215 ; wait for extruder temp
G28 W ; home all without mesh bed level
G80 ; mesh bed leveling
G1 Y-3.0 F1000.0 ; go outside print area
G92 E0.0
G1 X60.0 E9.0  F1000.0 ; intro line
M73 Q0 S8
M73 P0 R8
G1 X100.0 E12.5  F1000.0 ; intro line
G92 E0.0
M221 S95
M900 K30 ; Filament gcode
G21 ; set units to millimeters
G90 ; use absolute coordinates
M83 ; use relative distances for extrusion
;BEFORE_LAYER_CHANGE
G92 E0.0
;0.2


G1 E-0.80000 F2100.00000
G1 Z0.600 F10800.000
;AFTER_LAYER_CHANGE
;0.2
G1 X115.345 Y96.929
G1 Z0.200
G1 E0.80000 F2100.00000
M204 S1000
G1 F1200
G1 X115.773 Y96.203 E0.02643
G1 X116.204 Y95.772 E0.01909
G1 X116.643 Y95.476 E0.01660
G1 X117.148 Y95.272 E0.01709
G1 X117.689 Y95.179 E0.01721
G1 X132.154 Y95.174 E0.45353
G1 X133.078 Y95.348 E0.02949
G1 X133.879 Y95.844 E0.02955
G1 X134.516 Y96.629 E0.03168
G1 X134.810 Y97.567 E0.03083
G1 X134.824 Y112.241 E0.46009
G1 X134.655 Y113.071 E0.02655
G1 X134.227 Y113.797 E0.02643
G1 X133.778 Y114.243 E0.01984
G1 X133.315 Y114.546 E0.01734
G1 X132.779 Y114.747 E0.01795
G1 X132.212 Y114.825 E0.01795
G1 X117.755 Y114.824 E0.45329
G1 X116.929 Y114.655 E0.02643
G1 X116.203 Y114.227 E0.02643
G1 X115.757 Y113.778 E0.01984
G1 X115.454 Y113.315 E0.01734
G1 X115.253 Y112.779 E0.01795
G1 X115.175 Y112.212 E0.01795
G1 X115.176 Y97.755 E0.45329
G1 X115.333 Y96.988 E0.02455
G1 X115.699 Y97.063 F10800.000
G1 F1200
G1 X116.078 Y96.427 E0.02321
G1 X116.830 Y95.804 E0.03064
G1 X117.268 Y95.630 E0.01475
G1 X117.732 Y95.555 E0.01475
G1 X132.154 Y95.552 E0.45217
G1 X132.950 Y95.703 E0.02541
G1 X133.637 Y96.134 E0.02545
G1 X134.191 Y96.821 E0.02766
G1 X134.438 Y97.638 E0.02676
G1 X134.447 Y112.219 E0.45721
G1 X134.300 Y112.943 E0.02315
G1 X133.922 Y113.573 E0.02304
G1 X133.532 Y113.957 E0.01716
G1 X133.137 Y114.213 E0.01475
G1 X132.679 Y114.384 E0.01532
G1 X132.195 Y114.448 E0.01532
G1 X117.777 Y114.447 E0.45206
G1 X117.057 Y114.300 E0.02304
G1 X116.427 Y113.922 E0.02304
G1 X116.043 Y113.532 E0.01716
G1 X115.787 Y113.137 E0.01475
G1 X115.616 Y112.679 E0.01532
G1 X115.552 Y112.195 E0.01532
G1 X115.553 Y97.777 E0.45206
G1 X115.687 Y97.122 E0.02097
G1 F8640
G1 X116.078 Y96.427 E-0.18410
G1 X116.830 Y95.804 E-0.22561
G1 X117.268 Y95.630 E-0.10865
G1 X117.732 Y95.555 E-0.10865
G1 X118.308 Y95.555 E-0.13298
G1 E-0.04000 F2100.00000
G1 Z0.800 F10800.000
G1 X121.413 Y103.913
G1 Z0.200
G1 E0.80000 F2100.00000
G1 F1200
G1 X123.587 Y103.913 E0.06817
G1 X123.587 Y106.087 E0.06817
G1 X121.413 Y106.087 E0.06817
G1 X121.413 Y103.973 E0.06629
G1 X121.790 Y104.290 F10800.000
G1 F1200
G1 X123.210 Y104.290 E0.04452
G1 X123.210 Y105.710 E0.04452
G1 X121.790 Y105.710 E0.04452
G1 X121.790 Y104.350 E0.04264
G1 X121.686 Y103.904 F10800.000
G1 F8640
G1 X123.210 Y104.290 E-0.32817
G1 X123.210 Y105.710 E-0.32788
G1 X122.760 Y105.710 E-0.10394
G1 E-0.04000 F2100.00000
G1 Z0.800 F10800.000
G1 X126.413 Y103.913
G1 Z0.200
G1 E0.80000 F2100.00000
G1 F1200
G1 X128.587 Y103.913 E0.06817
G1 X128.587 Y106.087 E0.06817
G1 X126.413 Y106.087 E0.06817
G1 X126.413 Y103.973 E0.06629
G1 X126.790 Y104.290 F10800.000
G1 F1200
G1 X128.210 Y104.290 E0.04452
G1 X128.210 Y105.710 E0.04452
G1 X126.790 Y105.710 E0.04452
G1 X126.790 Y104.350 E0.04264
G1 X126.686 Y103.904 F10800.000
G1 F8640
G1 X128.210 Y104.290 E-0.32817
G1 X128.210 Y105.710 E-0.32788
G1 X127.760 Y105.710 E-0.10394
G1 E-0.04000 F2100.00000
G1 Z0.800 F10800.000
G1 X131.349 Y98.651
G1 Z0.200
G1 E0.80000 F2100.00000
G1 F1200
G1 X131.349 Y111.349 E0.39813
G1 X118.651 Y111.349 E0.39813
G1 X118.651 Y98.651 E0.39813
G1 X131.289 Y98.651 E0.39624
G1 X131.726 Y98.274 F10800.000
G1 F1200
G1 X131.726 Y111.726 E0.42177
G1 X118.274 Y111.726 E0.42177
G1 X118.274 Y98.274 E0.42177
G1 X131.666 Y98.274 E0.41989
G1 X131.622 Y98.660 F10800.000
G1 F8640
G1 X131.681 Y101.566 E-0.76000
G1 E-0.04000 F2100.00000
G1 Z0.800 F10800.000
G1 X131.236 Y99.542
G1 Z0.200
G1 E0.80000 F2100.00000
G1 F1200
G1 X130.627 Y98.934 E0.02752
G1 X130.083 Y98.934 E0.01739
G1 X131.066 Y99.917 E0.04444
G1 X131.066 Y100.461 E0.01739
G1 X129.539 Y98.934 E0.06904
G1 X128.996 Y98.934 E0.01739
G1 X131.066 Y101.004 E0.09363
G1 X131.066 Y101.548 E0.01739
G1 X128.452 Y98.934 E0.11823
G1 X127.908 Y98.934 E0.01739
G1 X131.066 Y102.092 E0.14282
G1 X131.066 Y102.636 E0.01739
G1 X127.364 Y98.934 E0.16742
G1 X126.820 Y98.934 E0.01739
G1 X131.066 Y103.180 E0.19202
G1 X131.066 Y103.724 E0.01739
G1 X126.276 Y98.934 E0.21661
G1 X125.732 Y98.934 E0.01739
G1 X131.066 Y104.268 E0.24121
G1 X131.066 Y104.812 E0.01739
G1 X125.188 Y98.934 E0.26580
G1 X124.645 Y98.934 E0.01739
G1 X131.066 Y105.355 E0.29040
G1 X131.066 Y105.899 E0.01739
G1 X124.101 Y98.934 E0.31500
G1 X123.557 Y98.934 E0.01739
G1 X128.253 Y103.630 E0.21238
G1 X127.709 Y103.630 E0.01739
G1 X123.013 Y98.934 E0.21238
G1 X122.469 Y98.934 E0.01739
G1 X127.165 Y103.630 E0.21238
G1 X126.621 Y103.630 E0.01739
G1 X121.925 Y98.934 E0.21238
G1 X121.381 Y98.934 E0.01739
G1 X126.130 Y103.683 E0.21476
G1 X126.130 Y104.227 E0.01739
G1 X120.837 Y98.934 E0.23935
G1 X120.294 Y98.934 E0.01739
G1 X126.130 Y104.770 E0.26395
G1 X126.130 Y105.314 E0.01739
G1 X119.750 Y98.934 E0.28854
G1 X119.206 Y98.934 E0.01739
G1 X126.130 Y105.858 E0.31314
G1 X126.130 Y106.370 E0.01636
G1 X126.642 Y106.370 E0.01636
G1 X131.066 Y110.794 E0.20008
G1 X131.066 Y110.250 E0.01739
G1 X127.186 Y106.370 E0.17549
G1 X127.730 Y106.370 E0.01739
G1 X131.066 Y109.706 E0.15089
G1 X131.066 Y109.163 E0.01739
G1 X128.273 Y106.370 E0.12630
G1 X128.817 Y106.370 E0.01739
G1 X131.066 Y108.619 E0.10170
G1 X131.066 Y108.075 E0.01739
G1 X128.870 Y105.879 E0.09932
G1 X128.870 Y105.335 E0.01739
G1 X131.066 Y107.531 E0.09932
G1 X131.066 Y106.987 E0.01739
G1 X128.870 Y104.791 E0.09932
G1 X128.870 Y104.247 E0.01739
G1 X131.236 Y106.613 E0.10699
G1 F8640
G1 X128.908 Y104.285 E-0.76000
G1 E-0.04000 F2100.00000
G1 Z0.800 F10800.000
G1 X130.964 Y111.236
G1 Z0.200
G1 E0.80000 F2100.00000
G1 F1200
G1 X123.870 Y104.142 E0.32081
G1 X123.870 Y104.686 E0.01739
G1 X130.250 Y111.066 E0.28854
G1 X129.706 Y111.066 E0.01739
G1 X123.870 Y105.230 E0.26395
G1 X123.870 Y105.773 E0.01739
G1 X129.163 Y111.066 E0.23935
G1 X128.619 Y111.066 E0.01739
G1 X123.870 Y106.317 E0.21475
G1 X123.870 Y106.370 E0.00168
G1 X123.379 Y106.370 E0.01571
G1 X128.075 Y111.066 E0.21238
G1 X127.531 Y111.066 E0.01739
G1 X122.835 Y106.370 E0.21238
G1 X122.291 Y106.370 E0.01739
G1 X126.987 Y111.066 E0.21238
G1 X126.443 Y111.066 E0.01739
G1 X121.577 Y106.200 E0.22005
G1 F8640
G1 X123.905 Y108.528 E-0.76000
G1 E-0.04000 F2100.00000
G1 Z0.800 F10800.000
G1 X123.528 Y103.800
G1 Z0.200
G1 E0.80000 F2100.00000
G1 F1200
G1 X118.934 Y99.206 E0.20775
G1 X118.934 Y99.750 E0.01739
G1 X122.814 Y103.630 E0.17548
G1 X122.270 Y103.630 E0.01739
G1 X118.934 Y100.294 E0.15088
G1 X118.934 Y100.838 E0.01739
G1 X121.727 Y103.630 E0.12629
G1 X121.183 Y103.630 E0.01739
G1 X118.934 Y101.381 E0.10169
G1 X118.934 Y101.925 E0.01739
G1 X121.130 Y104.121 E0.09932
G1 X121.130 Y104.665 E0.01739
G1 X118.934 Y102.469 E0.09932
G1 X118.934 Y103.013 E0.01739
G1 X121.130 Y105.209 E0.09932
G1 X121.130 Y105.753 E0.01739
G1 X118.934 Y103.557 E0.09932
G1 X118.934 Y104.101 E0.01739
G1 X125.899 Y111.066 E0.31499
G1 X125.355 Y111.066 E0.01739
G1 X118.934 Y104.645 E0.29040
G1 X118.934 Y105.189 E0.01739
G1 X124.811 Y111.066 E0.26580
G1 X124.268 Y111.066 E0.01739
G1 X118.934 Y105.732 E0.24120
G1 X118.934 Y106.276 E0.01739
G1 X123.724 Y111.066 E0.21661
G1 X123.180 Y111.066 E0.01739
G1 X118.934 Y106.820 E0.19201
G1 X118.934 Y107.364 E0.01739
G1 X122.636 Y111.066 E0.16742
G1 X122.092 Y111.066 E0.01739
G1 X118.934 Y107.908 E0.14282
G1 X118.934 Y108.452 E0.01739
G1 X121.548 Y111.066 E0.11822
G1 X121.004 Y111.066 E0.01739
G1 X118.934 Y108.996 E0.09363
G1 X118.934 Y109.540 E0.01739
G1 X120.460 Y111.066 E0.06903
G1 X119.917 Y111.066 E0.01739
G1 X118.934 Y110.083 E0.04444
G1 X118.934 Y110.627 E0.01739
G1 X119.542 Y111.236 E0.02751
M106 S255
;BEFORE_LAYER_CHANGE
G92 E0.0
;0.3


G1 F8640
G1 X118.934 Y110.627 E-0.19867
G1 X118.934 Y110.083 E-0.12558
G1 X119.917 Y111.066 E-0.32086
G1 X120.414 Y111.066 E-0.11488
G1 E-0.04000 F2100.00000
G1 Z0.800 F10800.000
;AFTER_LAYER_CHANGE
;0.3
M104 S210 ; set temperature
G1 X116.929 Y114.655
G1 Z0.300
G1 E0.80000 F2100.00000
G1 F1815
G1 X116.203 Y114.227 E0.01397
G1 X115.757 Y113.778 E0.01048
G1 X115.454 Y113.315 E0.00916
G1 X115.253 Y112.779 E0.00949
G1 X115.175 Y112.212 E0.00949
G1 X115.176 Y97.755 E0.23954
G1 X115.345 Y96.929 E0.01397
G1 X115.773 Y96.203 E0.01397
G1 X116.204 Y95.772 E0.01009
G1 X116.643 Y95.476 E0.00877
G1 X117.148 Y95.272 E0.00903
G1 X117.689 Y95.179 E0.00910
G1 X132.154 Y95.174 E0.23967
G1 X133.078 Y95.348 E0.01558
G1 X133.879 Y95.844 E0.01561
G1 X134.516 Y96.629 E0.01674
G1 X134.810 Y97.567 E0.01629
G1 X134.824 Y112.241 E0.24314
G1 X134.655 Y113.071 E0.01403
G1 X134.227 Y113.797 E0.01397
G1 X133.778 Y114.243 E0.01048
G1 X133.315 Y114.546 E0.00916
G1 X132.779 Y114.747 E0.00949
G1 X132.212 Y114.825 E0.00949
G1 X117.755 Y114.824 E0.23954
G1 X116.988 Y114.667 E0.01297
G1 F8640
G1 X116.203 Y114.227 E-0.20781
G1 X115.757 Y113.778 E-0.14608
G1 X115.454 Y113.315 E-0.12767
G1 X115.253 Y112.779 E-0.13221
G1 X115.175 Y112.212 E-0.13221
G1 X115.175 Y112.151 E-0.01401
G1 E-0.04000 F2100.00000
G1 Z0.900 F10800.000
G1 X121.346 Y106.154
G1 Z0.300
G1 E0.80000 F2100.00000
M204 S800
G1 F1500
G1 X121.346 Y103.846 E0.04110
G1 X123.654 Y103.846 E0.04110
G1 X123.654 Y106.154 E0.04110
G1 X121.406 Y106.154 E0.04004
M204 S1000
G1 X121.775 Y105.725 F10800.000
M204 S800
G1 F1500
G1 X121.775 Y104.275 E0.02583
G1 X123.225 Y104.275 E0.02583
G1 X123.225 Y105.725 E0.02583
G1 X121.835 Y105.725 E0.02477
M204 S1000
G1 X121.389 Y105.829 F10800.000
G1 F8640
G1 X121.775 Y104.275 E-0.33510
G1 X123.225 Y104.275 E-0.33481
G1 X123.225 Y104.665 E-0.09010
G1 E-0.04000 F2100.00000
G1 Z0.900 F10800.000
G1 X126.346 Y103.846
G1 Z0.300
G1 E0.80000 F2100.00000
M204 S800
G1 F1500
G1 X128.654 Y103.846 E0.04110
G1 X128.654 Y106.154 E0.04110
G1 X126.346 Y106.154 E0.04110
G1 X126.346 Y103.906 E0.04004
M204 S1000
G1 X126.775 Y104.275 F10800.000
M204 S800
G1 F1500
G1 X128.225 Y104.275 E0.02583
G1 X128.225 Y105.725 E0.02583
G1 X126.775 Y105.725 E0.02583
G1 X126.775 Y104.335 E0.02477
M204 S1000
G1 X126.671 Y103.889 F10800.000
G1 F8640
G1 X128.225 Y104.275 E-0.33510
G1 X128.225 Y105.725 E-0.33481
G1 X127.835 Y105.725 E-0.09010
G1 E-0.04000 F2100.00000
G1 Z0.900 F10800.000
G1 X131.508 Y98.498
G1 Z0.300
G1 E0.80000 F2100.00000
M204 S800
G1 F1815
G1 X131.508 Y111.508 E0.23180
G1 X118.493 Y111.502 E0.23189
G1 X118.503 Y98.492 E0.23180
G1 X131.448 Y98.498 E0.23063
M204 S1000
G1 F8640
G1 X131.463 Y101.789 E-0.76000
G1 E-0.04000 F2100.00000
G1 Z0.900 F10800.000
G1 X131.936 Y111.936
G1 Z0.300
G1 E0.80000 F2100.00000
M204 S800
G1 F1500
G1 X118.064 Y111.931 E0.24716
G1 X118.075 Y98.064 E0.24707
G1 X131.936 Y98.069 E0.24697
G1 X131.936 Y111.876 E0.24600
M204 S1000
G1 X131.550 Y111.833 F10800.000
G1 F8640
G1 X128.645 Y111.889 E-0.76000
G1 E-0.04000 F2100.00000
G1 Z0.900 F10800.000
G1 X130.509 Y111.379
G1 Z0.300
G1 E0.80000 F2100.00000
M204 S1250
G1 F1815
G1 X131.187 Y110.701 E0.01718
G1 X131.187 Y110.091 E0.01091
G1 X130.092 Y111.186 E0.02772
G1 X129.483 Y111.185 E0.01091
G1 X131.187 Y109.482 E0.04315
G1 X131.187 Y108.873 E0.01091
G1 X128.874 Y111.185 E0.05858
G1 X128.265 Y111.185 E0.01091
G1 X131.187 Y108.263 E0.07401
G1 X131.187 Y107.654 E0.01091
G1 X127.656 Y111.185 E0.08944
G1 X127.047 Y111.184 E0.01091
G1 X131.187 Y107.045 E0.10487
G1 X131.187 Y106.435 E0.01091
G1 X126.438 Y111.184 E0.12030
G1 X125.829 Y111.184 E0.01091
G1 X131.187 Y105.826 E0.13573
G1 X131.187 Y105.217 E0.01091
G1 X125.220 Y111.184 E0.15116
G1 X124.610 Y111.183 E0.01091
G1 X131.187 Y104.607 E0.16659
G1 X131.187 Y103.998 E0.01091
G1 X124.001 Y111.183 E0.18202
G1 X123.392 Y111.183 E0.01091
G1 X128.100 Y106.475 E0.11927
G1 X127.491 Y106.475 E0.01091
G1 X122.783 Y111.183 E0.11926
G1 X122.174 Y111.183 E0.01091
G1 X126.882 Y106.475 E0.11926
G1 X126.272 Y106.475 E0.01091
G1 X121.565 Y111.182 E0.11925
G1 X120.956 Y111.182 E0.01091
G1 X126.025 Y106.113 E0.12841
G1 X126.025 Y105.504 E0.01091
G1 X120.347 Y111.182 E0.14384
G1 X119.738 Y111.182 E0.01091
G1 X126.025 Y104.894 E0.15927
G1 X126.025 Y104.285 E0.01091
G1 X119.129 Y111.181 E0.17470
G1 X118.814 Y111.181 E0.00563
G1 X118.815 Y110.886 E0.00528
G1 X123.226 Y106.475 E0.11175
G1 X122.616 Y106.475 E0.01091
G1 X118.815 Y110.276 E0.09630
G1 X118.815 Y109.667 E0.01092
G1 X122.007 Y106.475 E0.08085
G1 X121.398 Y106.475 E0.01091
G1 X118.816 Y109.057 E0.06540
G1 X118.816 Y108.447 E0.01092
G1 X121.025 Y106.238 E0.05595
G1 X121.025 Y105.629 E0.01091
G1 X118.817 Y107.837 E0.05594
G1 X118.817 Y107.227 E0.01092
G1 X121.025 Y105.020 E0.05593
G1 X121.025 Y104.410 E0.01091
G1 X118.818 Y106.618 E0.05591
G1 X118.818 Y106.008 E0.01092
G1 X126.009 Y98.817 E0.18217
G1 X126.618 Y98.817 E0.01091
G1 X121.910 Y103.525 E0.11927
G1 X122.520 Y103.525 E0.01091
G1 X127.228 Y98.817 E0.11926
G1 X127.837 Y98.817 E0.01091
G1 X123.129 Y103.525 E0.11926
G1 X123.738 Y103.525 E0.01091
G1 X128.446 Y98.818 E0.11925
G1 X129.055 Y98.818 E0.01091
G1 X123.975 Y103.898 E0.12869
G1 X123.975 Y104.507 E0.01091
G1 X129.664 Y98.818 E0.14412
G1 X130.273 Y98.818 E0.01091
G1 X123.975 Y105.116 E0.15955
M73 Q13 S7
G1 X123.975 Y105.726 E0.01091
G1 X130.882 Y98.819 E0.17498
M73 P13 R7
G1 X131.187 Y98.819 E0.00545
G1 X131.187 Y99.124 E0.00546
G1 X126.785 Y103.525 E0.11150
G1 X127.394 Y103.525 E0.01091
G1 X131.187 Y99.733 E0.09607
G1 X131.187 Y100.342 E0.01091
G1 X128.004 Y103.525 E0.08063
G1 X128.613 Y103.525 E0.01091
G1 X131.187 Y100.951 E0.06520
G1 X131.187 Y101.561 E0.01091
G1 X128.975 Y103.772 E0.05603
G1 X128.975 Y104.382 E0.01091
G1 X131.187 Y102.170 E0.05603
G1 X131.187 Y102.779 E0.01091
G1 X128.975 Y104.991 E0.05603
G1 X128.975 Y105.600 E0.01091
G1 X131.379 Y103.196 E0.06091
M204 S1000
G1 F8640
G1 X129.052 Y105.523 E-0.76000
G1 E-0.04000 F2100.00000
G1 Z0.900 F10800.000
G1 X119.502 Y98.621
G1 Z0.300
G1 E0.80000 F2100.00000
M204 S1250
G1 F1815
G1 X118.824 Y99.300 E0.01719
G1 X118.823 Y99.910 E0.01092
G1 X119.919 Y98.814 E0.02775
G1 X120.528 Y98.815 E0.01091
G1 X118.823 Y100.519 E0.04319
G1 X118.822 Y101.129 E0.01092
G1 X121.137 Y98.815 E0.05863
G1 X121.746 Y98.815 E0.01091
G1 X118.822 Y101.739 E0.07407
G1 X118.821 Y102.349 E0.01092
G1 X122.355 Y98.815 E0.08951
G1 X122.964 Y98.816 E0.01091
G1 X118.821 Y102.959 E0.10496
G1 X118.820 Y103.568 E0.01092
G1 X123.573 Y98.816 E0.12040
G1 X124.182 Y98.816 E0.01091
G1 X118.820 Y104.178 E0.13584
G1 X118.819 Y104.788 E0.01092
G1 X124.791 Y98.816 E0.15128
G1 X125.400 Y98.817 E0.01091
G1 X118.626 Y105.591 E0.17161
M204 S1000
;BEFORE_LAYER_CHANGE
G92 E0.0
;0.4


G1 F8640
G1 X120.953 Y103.263 E-0.76000
G1 E-0.04000 F2100.00000
G1 Z0.900 F10800.000
;AFTER_LAYER_CHANGE
;0.4
G1 X134.516 Y96.629
G1 Z0.400
G1 E0.80000 F2100.00000
G1 F1841
G1 X134.810 Y97.567 E0.01629
G1 X134.824 Y112.241 E0.24314
G1 X134.655 Y113.071 E0.01403
G1 X134.227 Y113.797 E0.01397
G1 X133.778 Y114.243 E0.01048
G1 X133.315 Y114.546 E0.00916
G1 X132.779 Y114.747 E0.00949
G1 X132.212 Y114.825 E0.00949
G1 X117.755 Y114.824 E0.23954
G1 X116.929 Y114.655 E0.01397
G1 X116.203 Y114.227 E0.01397
G1 X115.757 Y113.778 E0.01048
